(G-CODE GENERATED BY FLATCAM v8.994 - www.flatcam.org - Version Date: 2020/11/7)

(Name: AE-RELAY4-BOARD_SATA-Ctrl_A-B_Cu.gbr_ncc_cnc)
(Type: G-code from Geometry)
(Units: MM)

(Created on Monday, 02 March 2026 at 12:07)

(This preprocessor is the default preprocessor used by FlatCAM.)
(It is made to work with MACH3 compatible motion controllers.)

(TOOL DIAMETER: 0.2 mm)
(Feedrate_XY: 120.0 mm/min)
(Feedrate_Z: 60.0 mm/min)
(Feedrate rapids 1500.0 mm/min)

(Z_Cut: -0.1996 mm)
(Z_Move: 0.6 mm)
(Z Start: None mm)
(Z End: 15.0 mm)
(X,Y End: None mm)
(Steps per circle: 64)
(Preprocessor Geometry: default)

(X range:    7.2595 ...   89.8405  mm)
(Y range:    1.2185 ...   47.4105  mm)

(Spindle Speed: 7500.0 RPM)
G21
G90
G94

G01 F120.00

M5
G00 Z15.0000
G00 X0.0000 Y0.0000
T1
M6    
(MSG, Change to Tool Dia = 0.2000)
M0
G00 Z15.0000

M03 S7500.0
G01 F120.00
G00 X7.9397 Y5.8899
G01 F60.00
G01 Z-0.1996
G01 F120.00
G01 X7.9269 Y5.8874
G01 X7.9012 Y6.0048
G01 X7.8893 Y6.0032
G01 X7.8755 Y6.1224
G01 X7.8644 Y6.1215
G01 X7.8627 Y6.2417
G01 X7.8565 Y6.2412
G01 X7.8500 Y6.2414
G01 X7.8500 Y6.3610
G01 X7.8565 Y6.3612
G01 X7.8629 Y6.3607
G00 Z0.6000
G00 X7.8759 Y6.4800
G01 F60.00
G01 Z-0.1996
G01 F120.00
G01 X7.8727 Y6.4804
G01 X7.8682 Y6.4807
G01 X7.8648 Y6.4809
G01 X7.8901 Y6.5992
G01 X7.9018 Y6.5975
G01 X7.9277 Y6.7149
G01 X7.9369 Y6.7132
G01 X7.9405 Y6.7124
G01 X7.9676 Y6.7974
G01 X7.9759 Y6.7892
G01 X7.9437 Y6.7210
G01 X7.9089 Y6.6240
G01 X7.9061 Y6.6146
G01 X7.8816 Y6.5170
G01 X7.8803 Y6.5098
G01 X7.8653 Y6.4078
G01 X7.8600 Y6.3000
G01 X7.8653 Y6.1922
G01 X7.8803 Y6.0902
G01 X7.8816 Y6.0830
G01 X7.9061 Y5.9854
G01 X7.9089 Y5.9760
G01 X7.9437 Y5.8790
G01 X7.9759 Y5.8108
G01 X7.9676 Y5.8026
G01 X7.9313 Y5.8739
G01 X7.8773 Y6.0401
G01 X7.8500 Y6.2126
G01 X7.8500 Y6.3874
G01 X7.8773 Y6.5599
G01 X7.9313 Y6.7261
G01 X7.9676 Y6.7974
G00 Z0.6000
G00 X8.4708 Y7.2841
G01 F60.00
G01 Z-0.1996
G01 F120.00
G01 X8.4626 Y7.2924
G01 X8.5339 Y7.3287
G01 X8.7001 Y7.3827
G01 X8.8726 Y7.4100
G01 X9.0474 Y7.4100
G01 X9.2199 Y7.3827
G01 X9.3861 Y7.3287
G01 X9.4574 Y7.2924
G01 X9.4492 Y7.2841
G01 X9.3810 Y7.3163
G01 X9.2840 Y7.3511
G01 X9.2746 Y7.3539
G01 X9.1770 Y7.3784
G01 X9.1698 Y7.3797
G01 X9.0678 Y7.3947
G01 X8.9600 Y7.4000
G01 X8.8522 Y7.3947
G01 X8.7502 Y7.3797
G01 X8.7430 Y7.3784
G01 X8.6454 Y7.3539
G01 X8.6360 Y7.3511
G01 X8.5390 Y7.3163
G01 X8.4708 Y7.2841
G00 Z0.6000
G00 X8.5537 Y7.3216
G01 F60.00
G01 Z-0.1996
G01 F120.00
G01 X8.5535 Y7.3350
G01 X8.6738 Y7.3611
G01 X8.6744 Y7.3743
G01 X8.7955 Y7.3864
G01 X8.7966 Y7.3980
G01 X8.9175 Y7.3980
G01 X8.9194 Y7.4100
G01 X9.0388 Y7.3962
G01 X9.0418 Y7.4100
G01 X9.1583 Y7.3814
G01 X9.1612 Y7.3920
G00 Z0.6000
G00 X9.2751 Y7.3538
G01 F60.00
G01 Z-0.1996
G01 F120.00
G01 X9.2784 Y7.3637
G01 X9.3918 Y7.3258
G01 X9.3899 Y7.3197
G01 X9.3873 Y7.3134
G00 Z0.6000
G00 X9.9441 Y6.7892
G01 F60.00
G01 Z-0.1996
G01 F120.00
G01 X9.9524 Y6.7974
G01 X9.9887 Y6.7261
G01 X10.0427 Y6.5599
G01 X10.0700 Y6.3874
G01 X10.0700 Y6.2126
G01 X10.0427 Y6.0401
G01 X9.9887 Y5.8739
G01 X9.9524 Y5.8026
G01 X9.9441 Y5.8108
G01 X9.9763 Y5.8790
G01 X10.0111 Y5.9760
G01 X10.0139 Y5.9854
G01 X10.0384 Y6.0830
G01 X10.0397 Y6.0902
G01 X10.0547 Y6.1922
G01 X10.0600 Y6.3000
G01 X10.0547 Y6.4078
G01 X10.0397 Y6.5098
G01 X10.0384 Y6.5170
G01 X10.0139 Y6.6146
G01 X10.0111 Y6.6240
G01 X9.9763 Y6.7210
G01 X9.9441 Y6.7892
G00 Z0.6000
G00 X9.9795 Y6.7124
G01 F60.00
G01 Z-0.1996
G01 F120.00
G01 X9.9923 Y6.7149
G01 X10.0182 Y6.5975
G01 X10.0299 Y6.5992
G01 X10.0552 Y6.4809
G01 X10.0441 Y6.4800
G00 Z0.6000
G00 X10.0571 Y6.3607
G01 F60.00
G01 Z-0.1996
G01 F120.00
G01 X10.0635 Y6.3612
G01 X10.0700 Y6.3610
G01 X10.0700 Y6.2414
G01 X10.0635 Y6.2412
G01 X10.0573 Y6.2417
G01 X10.0556 Y6.1215
G01 X10.0445 Y6.1224
G01 X10.0307 Y6.0032
G01 X10.0188 Y6.0048
G00 Z0.6000
G00 X9.9803 Y5.8899
G01 F60.00
G01 Z-0.1996
G01 F120.00
G01 X9.9931 Y5.8874
G00 Z0.6000
G00 X9.3873 Y5.2866
G01 F60.00
G01 Z-0.1996
G01 F120.00
G01 X9.3899 Y5.2803
G01 X9.3918 Y5.2742
G01 X9.2784 Y5.2363
G01 X9.2751 Y5.2462
G00 Z0.6000
G00 X9.1612 Y5.2080
G01 F60.00
G01 Z-0.1996
G01 F120.00
G01 X9.1600 Y5.2121
G01 X9.1583 Y5.2186
G01 X9.0418 Y5.1900
G01 X9.0407 Y5.1944
G01 X9.0388 Y5.2038
G01 X8.9194 Y5.1900
G01 X8.9175 Y5.2020
G01 X8.7966 Y5.2020
G01 X8.7960 Y5.2072
G01 X8.7955 Y5.2136
G01 X8.6744 Y5.2257
G01 X8.6738 Y5.2389
G01 X8.5535 Y5.2650
G01 X8.5537 Y5.2784
G01 X8.4626 Y5.3076
G01 X8.5339 Y5.2713
G01 X8.7001 Y5.2173
G01 X8.8726 Y5.1900
G01 X9.0474 Y5.1900
G01 X9.2199 Y5.2173
G01 X9.3861 Y5.2713
G01 X9.4574 Y5.3076
G01 X9.4492 Y5.3159
G01 X9.3810 Y5.2837
G01 X9.2840 Y5.2489
G01 X9.2746 Y5.2461
G01 X9.1770 Y5.2216
G01 X9.1698 Y5.2203
G01 X9.0678 Y5.2053
G01 X8.9600 Y5.2000
G01 X8.8522 Y5.2053
G01 X8.7502 Y5.2203
G01 X8.7430 Y5.2216
G01 X8.6454 Y5.2461
G01 X8.6360 Y5.2489
G01 X8.5390 Y5.2837
G01 X8.4708 Y5.3159
G01 X8.4626 Y5.3076
G00 Z0.6000
G00 X12.1760 Y5.2545
G01 F60.00
G01 Z-0.1996
G01 F120.00
G01 X12.1626 Y5.2543
G01 X12.1650 Y5.3744
G01 X12.1545 Y5.3742
G01 X12.1545 Y5.4942
G01 X12.1650 Y5.4944
G00 Z0.6000
G00 X12.1650 Y5.6144
G01 F60.00
G01 Z-0.1996
G01 F120.00
G01 X12.1545 Y5.6142
G01 X12.1545 Y5.7342
G01 X12.1650 Y5.7344
G01 X12.1650 Y5.8544
G01 X12.1545 Y5.8542
G01 X12.1545 Y5.9742
G01 X12.1650 Y5.9744
G00 Z0.6000
G00 X12.1650 Y6.0944
G01 F60.00
G01 Z-0.1996
G01 F120.00
G01 X12.1545 Y6.0942
G01 X12.1545 Y6.2142
G01 X12.1650 Y6.2144
G00 Z0.6000
G00 X12.1650 Y6.3344
G01 F60.00
G01 Z-0.1996
G01 F120.00
G01 X12.1545 Y6.3342
G00 Z0.6000
G00 X12.1545 Y6.4542
G01 F60.00
G01 Z-0.1996
G01 F120.00
G01 X12.1650 Y6.4544
G00 Z0.6000
G00 X12.1650 Y6.5744
G01 F60.00
G01 Z-0.1996
G01 F120.00
G01 X12.1545 Y6.5742
G00 Z0.6000
G00 X12.1545 Y6.6942
G01 F60.00
G01 Z-0.1996
G01 F120.00
G01 X12.1650 Y6.6944
G00 Z0.6000
G00 X12.1650 Y6.8144
G01 F60.00
G01 Z-0.1996
G01 F120.00
G01 X12.1545 Y6.8142
G00 Z0.6000
G00 X12.1545 Y6.9342
G01 F60.00
G01 Z-0.1996
G01 F120.00
G01 X12.1650 Y6.9344
G01 X12.1650 Y7.0544
G01 X12.1545 Y7.0542
G00 Z0.6000
G00 X12.1545 Y7.1742
G01 F60.00
G01 Z-0.1996
G01 F120.00
G01 X12.1650 Y7.1744
G00 Z0.6000
G00 X12.1650 Y7.2944
G01 F60.00
G01 Z-0.1996
G01 F120.00
G01 X12.1545 Y7.2942
G00 Z0.6000
G00 X12.6154 Y7.4303
G01 F60.00
G01 Z-0.1996
G01 F120.00
G01 X12.7795 Y7.4404
G01 X12.7795 Y7.5606
G01 X12.7304 Y7.5576
G00 Z0.6000
G00 X12.7255 Y7.6775
G01 F60.00
G01 Z-0.1996
G01 F120.00
G01 X12.7638 Y7.6799
G00 Z0.6000
G00 X12.6505 Y7.7931
G01 F60.00
G01 Z-0.1996
G01 F120.00
G01 X12.6372 Y7.7923
G01 X12.5372 Y7.9065
G01 X12.5235 Y7.9060
G01 X12.4214 Y8.0223
G01 X12.4077 Y8.0218
G01 X12.3055 Y8.1381
G01 X12.2919 Y8.1376
G01 X12.1890 Y8.2547
G01 X12.1750 Y8.2545
G01 X12.0705 Y8.3732
G01 X12.0565 Y8.3730
G01 X11.9519 Y8.4917
G01 X11.9379 Y8.4916
G01 X11.8313 Y8.6123
G01 X11.8170 Y8.6125
G01 X11.7098 Y8.7338
G01 X11.6955 Y8.7340
G01 X11.5874 Y8.8563
G01 X11.5727 Y8.8568
G01 X11.4627 Y8.9809
G01 X11.4480 Y8.9815
G01 X11.3378 Y9.1058
G01 X11.3228 Y9.1068
G01 X11.2097 Y9.2339
G01 X11.1947 Y9.2348
G01 X11.0817 Y9.3620
G01 X11.0662 Y9.3633
G01 X10.9499 Y9.4938
G01 X10.9344 Y9.4951
G01 X10.8178 Y9.6258
G01 X10.8019 Y9.6276
G01 X10.6820 Y9.7616
G01 X10.6661 Y9.7634
G01 X10.5451 Y9.8985
G01 X10.5288 Y9.9008
G01 X10.4050 Y10.0387
G01 X10.3886 Y10.0409
G01 X10.2621 Y10.1816
G01 X10.2453 Y10.1843
G01 X10.1172 Y10.3265
G01 X10.0998 Y10.3297
G01 X9.9743 Y10.4751
G01 X9.9540 Y10.4789
G01 X9.8716 Y10.6174
G01 X9.8535 Y10.6212
G01 X9.7996 Y10.7553
G01 X9.7834 Y10.7587
G01 X9.7524 Y10.8879
G01 X9.7396 Y10.8906
G01 X9.7243 Y11.0171
G01 X9.7126 Y11.0199
G01 X9.7117 Y11.1434
G01 X9.6995 Y11.1463
G01 X9.7095 Y11.2673
G01 X9.6995 Y11.2696
G01 X9.7095 Y11.3906
G01 X9.6995 Y11.3930
G01 X9.7095 Y11.5139
G01 X9.6995 Y11.5163
G01 X9.7095 Y11.6373
G01 X9.6995 Y11.6396
G01 X9.7095 Y11.7606
G01 X9.6995 Y11.7630
G01 X9.7095 Y11.8840
G01 X9.6995 Y11.8867
G01 X9.7095 Y12.0081
G01 X9.6995 Y12.0108
G01 X9.7095 Y12.1322
G01 X9.6995 Y12.1348
G01 X9.7095 Y12.2563
G01 X9.6995 Y12.2589
G01 X9.7095 Y12.3804
G01 X9.6995 Y12.3830
G01 X9.7095 Y12.5045
G01 X9.6995 Y12.5071
G01 X9.7095 Y12.6286
G01 X9.6995 Y12.6312
G01 X9.7095 Y12.7530
G01 X9.6995 Y12.7559
G01 X9.7095 Y12.8779
G01 X9.6995 Y12.8808
G01 X9.7095 Y13.0029
G01 X9.6995 Y13.0058
G01 X9.7095 Y13.1278
G01 X9.6995 Y13.1307
G01 X9.7095 Y13.2528
G01 X9.6995 Y13.2557
G01 X9.7095 Y13.3777
G01 X9.6995 Y13.3807
G01 X9.7095 Y13.5034
G01 X9.6995 Y13.5066
G01 X9.7095 Y13.6293
G01 X9.6995 Y13.6324
G01 X9.7095 Y13.7551
G01 X9.6995 Y13.7583
G01 X9.7095 Y13.8810
G01 X9.6995 Y13.8842
G01 X9.7095 Y14.0070
G01 X9.6995 Y14.0104
G01 X9.7095 Y14.1339
G01 X9.6995 Y14.1373
G01 X9.7095 Y14.2608
G01 X9.6995 Y14.2642
G01 X9.7095 Y14.3877
G01 X9.6995 Y14.3911
G01 X9.7095 Y14.5146
G01 X9.6995 Y14.5183
G01 X9.7095 Y14.6426
G01 X9.6995 Y14.6464
G01 X9.7095 Y14.7706
G01 X9.6995 Y14.7744
G01 X9.7095 Y14.8987
G01 X9.6995 Y14.9024
G01 X9.7095 Y15.0274
G01 X9.6995 Y15.0314
G01 X9.7095 Y15.1566
G01 X9.6995 Y15.1606
G01 X9.7095 Y15.2858
G01 X9.6995 Y15.2898
G01 X9.7095 Y15.4158
G01 X9.6995 Y15.4201
G01 X9.7095 Y15.5463
G01 X9.6995 Y15.5506
G01 X9.7095 Y15.6769
G01 X9.6995 Y15.6813
G01 X9.7095 Y15.8087
G01 X9.6995 Y15.8132
G01 X9.7095 Y15.9406
G01 X9.6995 Y15.9452
G01 X9.7095 Y16.0734
G01 X9.6995 Y16.0783
G01 X9.7095 Y16.2069
G01 X9.6995 Y16.2118
G01 X9.7095 Y16.3411
G01 X9.6995 Y16.3463
G01 X9.7095 Y16.4762
G01 X9.6995 Y16.4814
G01 X9.7095 Y16.6123
G01 X9.6995 Y16.6178
G01 X9.7095 Y16.7493
G01 X9.6995 Y16.7548
G01 X9.7095 Y16.8878
G01 X9.6995 Y16.8936
G01 X9.7095 Y17.0272
G01 X9.6995 Y17.0334
G01 X9.7095 Y17.1681
G01 X9.6995 Y17.1743
G01 X9.7095 Y17.3110
G01 X9.6995 Y17.3175
G01 X9.7095 Y17.4555
G01 X9.6995 Y17.4624
G01 X9.7095 Y17.6021
G01 X9.6995 Y17.6093
G01 X9.7095 Y17.7511
G01 X9.6995 Y17.7588
G01 X9.7095 Y17.9030
G01 X9.6995 Y17.9110
G01 X9.7095 Y18.0582
G01 X9.6995 Y18.0666
G01 X9.7095 Y18.2172
G01 X9.6995 Y18.2260
G01 X9.7095 Y18.3811
G01 X9.6995 Y18.3909
G01 X9.7095 Y18.5509
G01 X9.6995 Y18.5611
G01 X9.7095 Y18.7281
G01 X9.6995 Y18.7394
G01 X9.7095 Y18.9149
G01 X9.6995 Y18.9274
G01 X9.7095 Y19.1146
G01 X9.6995 Y19.1290
G01 X9.7095 Y19.3337
G01 X9.6995 Y19.3502
G01 X9.7095 Y19.5830
G01 X9.6995 Y19.6035
G01 X9.7095 Y19.8911
G01 X9.6995 Y19.9201
G01 X9.7095 Y20.4239
G01 X9.7062 Y20.4537
G01 X9.7015 Y20.5080
G01 X9.6995 Y20.5408
G01 X9.6995 Y20.8018
G01 X9.7015 Y20.8346
G01 X9.7062 Y20.8889
G01 X9.7095 Y20.9187
G01 X9.6995 Y21.4225
G01 X9.7095 Y21.4515
G01 X9.6995 Y21.7391
G01 X9.7095 Y21.7596
G01 X9.6995 Y21.9924
G01 X9.7095 Y22.0089
G01 X9.6995 Y22.2136
G01 X9.7095 Y22.2280
G01 X9.6995 Y22.4152
G01 X9.7095 Y22.4277
G01 X9.6995 Y22.6032
G01 X9.7095 Y22.6145
G01 X9.6995 Y22.7815
G01 X9.7095 Y22.7917
G01 X9.6995 Y22.9517
G01 X9.7095 Y22.9615
G01 X9.6995 Y23.1166
G01 X9.7095 Y23.1254
G01 X9.6995 Y23.2760
G01 X9.7095 Y23.2844
G01 X9.6995 Y23.4316
G01 X9.7095 Y23.4396
G01 X9.6995 Y23.5838
G01 X9.7095 Y23.5915
G01 X9.6995 Y23.7333
G01 X9.7095 Y23.7405
G01 X9.6995 Y23.8802
G01 X9.7095 Y23.8871
G01 X9.6995 Y24.0251
G01 X9.7095 Y24.0316
G01 X9.6995 Y24.1683
G01 X9.7095 Y24.1745
G01 X9.6995 Y24.3093
G01 X9.7095 Y24.3154
G01 X9.6995 Y24.4490
G01 X9.7095 Y24.4548
G01 X9.6995 Y24.5878
G01 X9.7095 Y24.5933
G01 X9.6995 Y24.7248
G01 X9.7095 Y24.7303
G01 X9.6995 Y24.8612
G01 X9.7095 Y24.8664
G01 X9.6995 Y24.9963
G01 X9.7095 Y25.0015
G01 X9.6995 Y25.1308
G01 X9.7095 Y25.1357
G01 X9.6995 Y25.2643
G01 X9.7095 Y25.2692
G01 X9.6995 Y25.3974
G01 X9.7095 Y25.4020
G01 X9.6995 Y25.5294
G01 X9.7095 Y25.5339
G01 X9.6995 Y25.6613
G01 X9.7095 Y25.6657
G01 X9.6995 Y25.7920
G01 X9.7095 Y25.7963
G01 X9.6995 Y25.9225
G01 X9.7095 Y25.9268
G01 X9.6995 Y26.0528
G01 X9.7095 Y26.0568
G01 X9.6995 Y26.1820
G01 X9.7095 Y26.1860
G01 X9.6995 Y26.3112
G01 X9.7095 Y26.3152
G01 X9.6995 Y26.4402
G01 X9.7095 Y26.4439
G01 X9.6995 Y26.5682
G01 X9.7095 Y26.5720
G01 X9.6995 Y26.6963
G01 X9.7095 Y26.7000
G01 X9.6995 Y26.8243
G01 X9.7095 Y26.8280
G01 X9.6995 Y26.9515
G01 X9.7095 Y26.9549
G01 X9.6995 Y27.0784
G01 X9.7095 Y27.0818
G01 X9.6995 Y27.2053
G01 X9.7095 Y27.2087
G01 X9.6995 Y27.3322
G01 X9.7095 Y27.3356
G01 X9.6995 Y27.4584
G01 X9.7095 Y27.4616
G01 X9.6995 Y27.5843
G01 X9.7095 Y27.5875
G01 X9.6995 Y27.7102
G01 X9.7095 Y27.7133
G01 X9.6995 Y27.8360
G01 X9.7095 Y27.8392
G01 X9.6995 Y27.9619
G01 X9.7095 Y27.9649
G01 X9.6995 Y28.0870
G01 X9.7095 Y28.0899
G01 X9.6995 Y28.2119
G01 X9.7095 Y28.2148
G01 X9.6995 Y28.3368
G01 X9.7095 Y28.3397
G01 X9.6995 Y28.4618
G01 X9.7095 Y28.4647
G01 X9.6995 Y28.5867
G01 X9.7095 Y28.5896
G01 X9.6995 Y28.7114
G01 X9.7095 Y28.7140
G01 X9.6995 Y28.8355
G01 X9.7095 Y28.8381
G01 X9.6995 Y28.9596
G01 X9.7095 Y28.9622
G01 X9.6995 Y29.0837
G01 X9.7095 Y29.0863
G01 X9.6995 Y29.2078
G01 X9.7095 Y29.2104
G01 X9.6995 Y29.3318
G01 X9.7095 Y29.3345
G01 X9.6995 Y29.4559
G01 X9.7095 Y29.4586
G01 X9.6995 Y29.5796
G01 X9.7095 Y29.5820
G01 X9.6995 Y29.7030
G01 X9.7095 Y29.7053
G01 X9.6995 Y29.8263
G01 X9.7095 Y29.8287
G01 X9.6995 Y29.9496
G01 X9.7095 Y29.9520
G01 X9.6995 Y30.0730
G01 X9.7095 Y30.0753
G01 X9.6995 Y30.1963
G01 X9.7095 Y30.1987
G01 X9.6995 Y30.3196
G01 X9.7095 Y30.3220
G01 X9.6995 Y30.4429
G01 X9.7095 Y30.4453
G01 X9.6995 Y30.5661
G01 X9.7095 Y30.5682
G01 X9.6995 Y30.6888
G01 X9.7095 Y30.6909
G01 X9.6995 Y30.8114
G01 X9.7095 Y30.8135
G01 X9.6995 Y30.9341
G01 X9.7095 Y30.9362
G01 X9.6995 Y31.0567
G01 X9.7095 Y31.0588
G01 X9.6995 Y31.1794
G01 X9.7095 Y31.1815
G01 X9.6995 Y31.3020
G01 X9.7095 Y31.3041
G01 X9.6995 Y31.4247
G01 X9.7095 Y31.4268
G01 X9.6995 Y31.5473
G01 X9.7095 Y31.5494
G01 X9.6995 Y31.6700
G01 X9.7095 Y31.6721
G01 X9.6995 Y31.7926
G01 X9.7095 Y31.7946
G01 X9.6995 Y31.9148
G01 X9.7095 Y31.9166
G01 X9.6995 Y32.0368
G01 X9.7095 Y32.0387
G01 X9.6995 Y32.1589
G01 X9.7095 Y32.1607
G01 X9.6995 Y32.2809
G01 X9.7095 Y32.2828
G01 X9.6995 Y32.4030
G01 X9.7095 Y32.4048
G01 X9.6995 Y32.5250
G01 X9.7095 Y32.5269
G01 X9.6995 Y32.6471
G01 X9.7095 Y32.6490
G01 X9.6995 Y32.7691
G01 X9.7095 Y32.7710
G01 X9.6995 Y32.8912
G01 X9.7095 Y32.8931
G01 X9.6995 Y33.0133
G01 X9.7095 Y33.0151
G01 X9.6995 Y33.1353
G01 X9.7095 Y33.1372
G01 X9.6995 Y33.2574
G01 X9.7095 Y33.2592
G01 X9.6995 Y33.3794
G01 X9.7095 Y33.3813
G01 X9.6995 Y33.5012
G01 X9.7095 Y33.5028
G01 X9.6995 Y33.6227
G01 X9.7095 Y33.6244
G01 X9.6995 Y33.7443
G01 X9.7095 Y33.7459
G01 X9.6995 Y33.8658
G01 X9.7095 Y33.8674
G01 X9.6995 Y33.9874
G01 X9.7095 Y33.9890
G01 X9.6995 Y34.1089
G01 X9.7095 Y34.1105
G01 X9.6995 Y34.2304
G01 X9.7095 Y34.2320
G01 X9.6995 Y34.3520
G01 X9.7095 Y34.3536
G01 X9.6995 Y34.4735
G01 X9.7095 Y34.4751
G01 X9.6995 Y34.5950
G01 X9.7095 Y34.5966
G01 X9.6995 Y34.7166
G01 X9.7095 Y34.7182
G01 X9.6995 Y34.8381
G01 X9.7095 Y34.8397
G01 X9.6995 Y34.9596
G01 X9.7095 Y34.9612
G01 X9.6995 Y35.0812
G01 X9.7095 Y35.0828
G01 X9.6995 Y35.2027
G01 X9.7095 Y35.2043
G01 X9.6995 Y35.3242
G01 X9.7095 Y35.3258
G01 X9.6995 Y35.4458
G01 X9.7095 Y35.4474
G01 X9.6995 Y35.5673
G01 X9.7095 Y35.5688
G01 X9.6995 Y35.6885
G01 X9.7095 Y35.6899
G01 X9.6995 Y35.8096
G01 X9.7095 Y35.8110
G01 X9.6995 Y35.9307
G01 X9.7095 Y35.9321
G01 X9.6995 Y36.0518
G01 X9.7095 Y36.0532
G01 X9.6995 Y36.1729
G01 X9.7095 Y36.1743
G01 X9.6995 Y36.2940
G01 X9.7095 Y36.2954
G01 X9.6995 Y36.4151
G01 X9.7095 Y36.4165
G01 X9.6995 Y36.5362
G01 X9.7095 Y36.5376
G00 Z0.6000
G00 X9.6836 Y36.6551
G01 F60.00
G01 Z-0.1996
G01 F120.00
G01 X9.7095 Y36.6586
G01 X9.7095 Y36.7797
G01 X9.5923 Y36.7638
G00 Z0.6000
G00 X9.0590 Y36.7997
G01 F60.00
G01 Z-0.1996
G01 F120.00
G01 X8.9656 Y36.7823
G00 Z0.6000
G00 X8.7798 Y36.6257
G01 F60.00
G01 Z-0.1996
G01 F120.00
G01 X8.7425 Y36.6187
G00 Z0.6000
G00 X8.2119 Y36.5027
G01 F60.00
G01 Z-0.1996
G01 F120.00
G01 X8.1699 Y36.4928
G01 X8.0334 Y36.5144
G01 X7.8821 Y36.5635
G01 X7.7404 Y36.6357
G01 X7.6117 Y36.7292
G01 X7.4992 Y36.8417
G01 X7.4057 Y36.9704
G01 X7.3335 Y37.1121
G01 X7.2844 Y37.2634
G01 X7.2595 Y37.4205
G01 X7.2595 Y37.5795
G01 X7.2844 Y37.7366
G01 X7.3335 Y37.8879
G01 X7.4057 Y38.0296
G01 X7.4992 Y38.1583
G01 X7.6117 Y38.2708
G01 X7.7404 Y38.3643
G01 X7.8821 Y38.4365
G01 X8.0334 Y38.4856
G01 X8.1905 Y38.5105
G01 X8.3495 Y38.5105
G01 X8.5066 Y38.4856
G01 X8.6579 Y38.4365
G01 X8.7996 Y38.3643
G01 X8.9283 Y38.2708
G01 X8.9374 Y38.2623
G01 X8.9472 Y38.2552
G01 X8.9556 Y38.2504
G01 X9.0123 Y38.2215
G01 X9.0237 Y38.2169
G01 X9.0355 Y38.2137
G01 X9.0452 Y38.2123
G01 X9.0710 Y38.2105
G01 X9.8700 Y38.2105
G01 X9.8772 Y38.2110
G01 X9.8844 Y38.2119
G01 X9.8915 Y38.2134
G01 X9.8985 Y38.2154
G01 X9.9590 Y38.2351
G01 X9.9681 Y38.2388
G01 X9.9789 Y38.2447
G01 X9.9888 Y38.2518
G01 X10.0064 Y38.2670
G01 X10.0866 Y38.3470
G01 X10.2280 Y38.4498
G01 X10.3837 Y38.5291
G01 X10.5500 Y38.5832
G01 X10.7226 Y38.6105
G01 X10.8974 Y38.6105
G01 X11.0700 Y38.5832
G01 X11.2363 Y38.5291
G01 X11.3920 Y38.4498
G01 X11.5334 Y38.3470
G01 X11.6570 Y38.2234
G01 X11.7598 Y38.0820
G01 X11.8391 Y37.9263
G01 X11.8932 Y37.7600
G01 X11.9205 Y37.5874
G01 X11.9205 Y34.9898
G01 X11.9208 Y34.9826
G01 X11.9215 Y34.9754
G01 X11.9240 Y34.9635
G01 X11.9451 Y34.8984
G01 X11.9498 Y34.8873
G01 X11.9558 Y34.8768
G01 X11.9630 Y34.8671
G01 X11.9713 Y34.8584
G01 X11.9806 Y34.8507
G01 X12.0301 Y34.8148
G01 X12.0362 Y34.8107
G01 X12.0426 Y34.8070
G01 X12.0515 Y34.8029
G01 X12.0585 Y34.8004
G01 X12.0807 Y34.7948
G01 X12.0884 Y34.7933
G01 X12.1366 Y34.7856
G01 X12.2879 Y34.7365
G01 X12.4296 Y34.6643
G01 X12.5583 Y34.5708
G01 X12.6708 Y34.4583
G01 X12.7643 Y34.3296
G01 X12.8365 Y34.1879
G01 X12.8856 Y34.0366
G01 X12.9105 Y33.8795
G01 X12.9105 Y33.7205
G01 X12.8856 Y33.5634
G01 X12.8365 Y33.4121
G01 X12.7643 Y33.2704
G01 X12.6708 Y33.1417
G01 X12.5583 Y33.0292
G01 X12.4296 Y32.9357
G01 X12.2879 Y32.8635
G01 X12.1366 Y32.8144
G01 X12.0860 Y32.8063
G01 X12.0789 Y32.8048
G01 X12.0720 Y32.8027
G01 X12.0608 Y32.7981
G01 X12.0041 Y32.7693
G01 X11.9957 Y32.7645
G01 X11.9878 Y32.7589
G01 X11.9823 Y32.7542
G01 X11.9755 Y32.7474
G01 X11.9708 Y32.7419
G01 X11.9652 Y32.7340
G01 X11.9604 Y32.7256
G01 X11.9315 Y32.6689
G01 X11.9269 Y32.6575
G01 X11.9237 Y32.6457
G01 X11.9222 Y32.6360
G01 X11.9206 Y32.6154
G01 X11.9206 Y31.9850
G01 X11.9219 Y31.9730
G01 X11.9247 Y31.9612
G01 X11.9451 Y31.8984
G01 X11.9477 Y31.8917
G01 X11.9520 Y31.8830
G01 X11.9571 Y31.8748
G01 X11.9630 Y31.8671
G01 X11.9696 Y31.8601
G01 X11.9768 Y31.8537
G01 X12.0321 Y31.8133
G01 X12.0405 Y31.8082
G01 X12.0470 Y31.8048
G01 X12.0538 Y31.8020
G01 X12.0608 Y31.7997
G01 X12.0832 Y31.7942
G01 X12.1366 Y31.7856
G01 X12.2879 Y31.7365
G01 X12.4296 Y31.6643
G01 X12.5583 Y31.5708
G01 X12.6708 Y31.4583
G01 X12.7643 Y31.3296
G01 X12.8365 Y31.1879
G01 X12.8856 Y31.0366
G01 X12.9105 Y30.8795
G01 X12.9105 Y30.7205
G01 X12.8856 Y30.5634
G01 X12.8365 Y30.4121
G01 X12.7643 Y30.2704
G01 X12.6708 Y30.1417
G01 X12.5583 Y30.0292
G01 X12.4296 Y29.9357
G01 X12.2879 Y29.8635
G01 X12.1366 Y29.8144
G01 X12.0860 Y29.8063
G01 X12.0789 Y29.8048
G01 X12.0720 Y29.8027
G01 X12.0608 Y29.7981
G01 X12.0041 Y29.7693
G01 X11.9978 Y29.7658
G01 X11.9917 Y29.7618
G01 X11.9841 Y29.7558
G01 X11.9771 Y29.7492
G01 X11.9708 Y29.7419
G01 X11.9652 Y29.7340
G01 X11.9604 Y29.7256
G01 X11.9315 Y29.6689
G01 X11.9269 Y29.6575
G01 X11.9237 Y29.6457
G01 X11.9222 Y29.6360
G01 X11.9206 Y29.6154
G01 X11.9205 Y11.7324
G01 X11.9212 Y11.7204
G01 X11.9224 Y11.7132
G01 X11.9247 Y11.7038
G01 X11.9443 Y11.6433
G01 X11.9478 Y11.6341
G01 X11.9534 Y11.6232
G01 X11.9588 Y11.6150
G01 X11.9735 Y11.5975
G01 X11.9788 Y11.5917
G01 X14.7270 Y8.8434
G01 X14.8298 Y8.7020
G01 X14.9091 Y8.5463
G01 X14.9632 Y8.3800
G01 X14.9905 Y8.2074
G01 X14.9905 Y7.5961
G01 X14.9908 Y7.5889
G01 X14.9924 Y7.5769
G01 X14.9947 Y7.5675
G01 X15.0159 Y7.5025
G01 X15.0198 Y7.4936
G01 X15.0245 Y7.4852
G01 X15.0299 Y7.4772
G01 X15.0378 Y7.4681
G01 X15.0431 Y7.4631
G01 X15.0487 Y7.4585
G01 X15.1063 Y7.4169
G01 X15.1150 Y7.4121
G01 X15.1241 Y7.4082
G01 X15.1335 Y7.4052
G01 X15.1432 Y7.4032
G01 X15.1530 Y7.4021
G01 X15.2029 Y7.3992
G01 X15.2106 Y7.3990
G01 X15.2182 Y7.3995
G01 X15.2258 Y7.4005
G01 X15.2764 Y7.4105
G01 X15.4036 Y7.4105
G01 X15.5283 Y7.3857
G01 X15.6458 Y7.3370
G01 X15.7515 Y7.2664
G01 X15.8346 Y7.1832
G01 X15.8418 Y7.1767
G01 X15.8476 Y7.1723
G01 X15.8536 Y7.1684
G01 X15.8600 Y7.1648
G01 X15.9188 Y7.1350
G01 X15.9255 Y7.1322
G01 X15.9324 Y7.1300
G01 X15.9395 Y7.1283
G01 X15.9466 Y7.1271
G01 X15.9587 Y7.1262
G01 X15.9707 Y7.1268
G01 X16.0384 Y7.1374
G01 X16.0456 Y7.1390
G01 X16.0551 Y7.1420
G01 X16.0620 Y7.1448
G01 X16.0708 Y7.1494
G01 X16.0791 Y7.1548
G01 X16.1041 Y7.1730
G01 X16.1123 Y7.1796
G01 X16.1988 Y7.2660
G01 X16.2600 Y7.3069
G01 X16.2600 Y7.2948
G01 X16.2532 Y7.2902
G01 X16.2072 Y7.2559
G01 X16.1645 Y7.2174
G01 X16.1593 Y7.2123
G01 X16.1191 Y7.1678
G01 X16.0820 Y7.1178
G01 X16.0500 Y7.0643
G01 X16.0233 Y7.0080
G01 X16.0023 Y6.9493
G01 X15.9872 Y6.8889
G01 X15.9781 Y6.8272
G01 X15.9750 Y6.7650
G01 X15.9750 Y5.8350
G01 X15.9781 Y5.7728
G01 X15.9864 Y5.7160
G01 X15.9883 Y5.7063
G01 X16.0023 Y5.6507
G01 X16.0216 Y5.5966
G01 X16.0253 Y5.5875
G01 X16.0500 Y5.5357
G01 X16.0820 Y5.4822
G01 X16.1161 Y5.4360
G01 X16.1207 Y5.4303
G01 X16.1610 Y5.3860
G01 X16.2034 Y5.3473
G01 X16.2110 Y5.3411
G01 X16.2532 Y5.3098
G01 X16.2600 Y5.3052
G01 X16.2600 Y5.2931
G01 X16.1988 Y5.3340
G01 X16.1143 Y5.4185
G01 X16.1070 Y5.4248
G01 X16.1012 Y5.4290
G01 X16.0908 Y5.4352
G01 X16.0362 Y5.4629
G01 X16.0274 Y5.4669
G01 X16.0183 Y5.4700
G01 X16.0089 Y5.4722
G01 X15.9993 Y5.4735
G01 X15.9896 Y5.4738
G01 X15.9824 Y5.4735
G01 X15.9752 Y5.4726
G01 X15.9099 Y5.4621
G01 X15.9027 Y5.4603
G01 X15.8933 Y5.4571
G01 X15.8865 Y5.4541
G01 X15.8778 Y5.4493
G01 X15.8466 Y5.4270
G01 X15.8384 Y5.4204
G01 X15.7515 Y5.3336
G01 X15.6458 Y5.2630
G01 X15.5283 Y5.2143
G01 X15.4036 Y5.1895
G01 X15.2764 Y5.1895
G01 X15.1517 Y5.2143
G01 X15.0342 Y5.2630
G01 X14.9285 Y5.3336
G01 X14.9210 Y5.3411
G01 X14.9137 Y5.3474
G01 X14.9058 Y5.3530
G01 X14.8974 Y5.3578
G01 X14.8429 Y5.3856
G01 X14.8341 Y5.3895
G01 X14.8250 Y5.3926
G01 X14.8179 Y5.3944
G01 X14.8084 Y5.3959
G01 X14.7987 Y5.3965
G01 X14.7915 Y5.3963
G01 X14.7843 Y5.3956
G01 X14.7214 Y5.3857
G01 X14.7118 Y5.3837
G01 X14.7002 Y5.3798
G01 X14.6891 Y5.3746
G01 X14.6716 Y5.3640
G01 X14.6520 Y5.3502
G01 X14.4963 Y5.2709
G01 X14.3300 Y5.2168
G01 X14.1574 Y5.1895
G01 X13.9826 Y5.1895
G01 X13.8100 Y5.2168
G01 X13.6348 Y5.2739
G01 X13.6234 Y5.2770
G01 X13.6092 Y5.2791
G01 X13.5448 Y5.2838
G01 X13.5323 Y5.2834
G01 X13.5200 Y5.2814
G01 X13.5080 Y5.2778
G01 X13.4988 Y5.2739
G01 X13.4900 Y5.2692
G01 X13.4530 Y5.2465
G01 X13.4465 Y5.2433
G01 X13.4401 Y5.2396
G01 X13.4321 Y5.2340
G01 X13.4222 Y5.2254
G01 X13.3781 Y5.1959
G01 X13.3459 Y5.1895
G01 X12.2541 Y5.1895
G01 X12.2219 Y5.1959
G01 X12.1853 Y5.2203
G01 X12.1609 Y5.2569
G01 X12.1545 Y5.2891
G01 X12.1545 Y7.3109
G01 X12.1609 Y7.3431
G01 X12.1853 Y7.3797
G01 X12.2219 Y7.4041
G01 X12.2541 Y7.4105
G01 X12.5386 Y7.4105
G01 X12.5482 Y7.4110
G01 X12.5578 Y7.4124
G01 X12.5672 Y7.4147
G01 X12.6277 Y7.4343
G01 X12.6367 Y7.4377
G01 X12.6475 Y7.4432
G01 X12.6556 Y7.4485
G01 X12.6631 Y7.4546
G01 X12.6700 Y7.4613
G01 X12.6762 Y7.4687
G01 X12.7164 Y7.5241
G01 X12.7201 Y7.5303
G01 X12.7234 Y7.5368
G01 X12.7278 Y7.5480
G01 X12.7309 Y7.5597
G01 X12.7320 Y7.5669
G01 X12.7326 Y7.5741
G01 X12.7327 Y7.6426
G01 X12.7320 Y7.6526
G01 X12.7302 Y7.6624
G01 X12.7283 Y7.6696
G01 X12.7249 Y7.6790
G01 X12.7193 Y7.6902
G01 X12.6926 Y7.7337
G01 X12.6856 Y7.7432
G01 X12.6793 Y7.7502
G01 X9.9630 Y10.4666
G01 X9.8602 Y10.6080
G01 X9.7809 Y10.7637
G01 X9.7268 Y10.9300
G01 X9.6995 Y11.1026
G01 X9.6995 Y36.5905
G01 X9.6992 Y36.5977
G01 X9.6976 Y36.6097
G01 X9.6953 Y36.6191
G01 X9.6749 Y36.6819
G01 X9.6723 Y36.6886
G01 X9.6691 Y36.6952
G01 X9.6655 Y36.7015
G01 X9.6601 Y36.7094
G01 X9.6522 Y36.7185
G01 X9.6432 Y36.7267
G01 X9.5899 Y36.7656
G01 X9.5837 Y36.7697
G01 X9.5772 Y36.7734
G01 X9.5682 Y36.7775
G01 X9.5612 Y36.7800
G01 X9.5540 Y36.7820
G01 X9.5467 Y36.7834
G01 X9.5136 Y36.7886
G01 X9.5031 Y36.7895
G01 X9.0686 Y36.7895
G01 X9.0613 Y36.7890
G01 X9.0542 Y36.7881
G01 X9.0424 Y36.7853
G01 X8.9796 Y36.7649
G01 X8.9727 Y36.7622
G01 X8.9639 Y36.7578
G01 X8.9577 Y36.7540
G01 X8.9497 Y36.7482
G01 X8.9341 Y36.7348
G01 X8.9283 Y36.7292
G01 X8.7996 Y36.6357
G01 X8.6579 Y36.5635
G01 X8.5066 Y36.5144
G01 X8.3495 Y36.4895
G01 X8.1905 Y36.4895
G01 X8.0334 Y36.5144
G01 X7.9328 Y36.5597
G01 X7.9113 Y36.5540
G00 Z0.6000
G00 X7.7633 Y36.6391
G01 F60.00
G01 Z-0.1996
G01 F120.00
G01 X7.7438 Y36.6340
G00 Z0.6000
G00 X7.6333 Y36.7289
G01 F60.00
G01 Z-0.1996
G01 F120.00
G01 X7.6177 Y36.7248
G01 X7.5323 Y36.8264
G01 X7.5182 Y36.8227
G01 X7.4500 Y36.9288
G01 X7.4382 Y36.9257
G00 Z0.6000
G00 X7.3846 Y37.0356
G01 F60.00
G01 Z-0.1996
G01 F120.00
G01 X7.3741 Y37.0326
G01 X7.3356 Y37.1463
G01 X7.3235 Y37.1428
G01 X7.2864 Y37.2570
G01 X7.3001 Y37.2610
G01 X7.2665 Y37.3762
G01 X7.2780 Y37.3795
G01 X7.2595 Y37.4990
G01 X7.2700 Y37.5018
G00 Z0.6000
G00 X7.2667 Y37.6250
G01 F60.00
G01 Z-0.1996
G01 F120.00
G01 X7.2792 Y37.6283
G01 X7.2905 Y37.7554
G01 X7.3052 Y37.7593
G01 X7.3353 Y37.8913
G01 X7.3522 Y37.8957
G01 X7.4096 Y38.0350
G01 X7.4291 Y38.0401
G00 Z0.6000
G00 X7.5322 Y38.1912
G01 F60.00
G01 Z-0.1996
G01 F120.00
G01 X7.5528 Y38.1961
G00 Z0.6000
G00 X7.7399 Y38.3639
G01 F60.00
G01 Z-0.1996
G01 F120.00
G01 X7.7869 Y38.3751
G00 Z0.6000
G00 X8.3430 Y38.4965
G01 F60.00
G01 Z-0.1996
G01 F120.00
G01 X8.3847 Y38.5049
G00 Z0.6000
G00 X8.6365 Y38.4298
G01 F60.00
G01 Z-0.1996
G01 F120.00
G01 X8.6618 Y38.4345
G01 X8.8112 Y38.3402
G01 X8.8283 Y38.3434
G01 X8.9405 Y38.2405
G01 X8.9668 Y38.2447
G00 Z0.6000
G00 X9.4699 Y38.2003
G01 F60.00
G01 Z-0.1996
G01 F120.00
G01 X9.5450 Y38.2105
G01 X9.9611 Y38.2003
G01 X8.9834 Y38.2003
G01 X8.9736 Y38.2105
G01 X8.9044 Y38.2730
G01 X8.8296 Y38.3286
G01 X8.8214 Y38.3341
G01 X8.7414 Y38.3819
G01 X8.6572 Y38.4219
G01 X8.6481 Y38.4256
G01 X8.5649 Y38.4554
G01 X8.5556 Y38.4582
G01 X8.4651 Y38.4808
G01 X8.3729 Y38.4946
G01 X8.3631 Y38.4955
G01 X8.2700 Y38.5000
G01 X8.1720 Y38.4952
G01 X8.0797 Y38.4816
G01 X8.0701 Y38.4797
G01 X7.9844 Y38.4582
G01 X7.9774 Y38.4562
G01 X7.8873 Y38.4239
G01 X7.8030 Y38.3841
G01 X7.7943 Y38.3795
G01 X7.7186 Y38.3341
G01 X7.7104 Y38.3286
G01 X7.6356 Y38.2730
G01 X7.5629 Y38.2071
G01 X7.4970 Y38.1344
G01 X7.4414 Y38.0596
G01 X7.4359 Y38.0514
G01 X7.3905 Y37.9757
G01 X7.3859 Y37.9670
G01 X7.3461 Y37.8827
G01 X7.3131 Y37.7903
G01 X7.2903 Y37.6999
G01 X7.2884 Y37.6903
G01 X7.2748 Y37.5980
G01 X7.2700 Y37.5000
G01 X7.2748 Y37.4020
G01 X7.2884 Y37.3097
G01 X7.2903 Y37.3001
G01 X7.3118 Y37.2144
G01 X7.3146 Y37.2051
G01 X7.3461 Y37.1173
G01 X7.3881 Y37.0286
G01 X7.4385 Y36.9444
G01 X7.4940 Y36.8695
G01 X7.5002 Y36.8619
G01 X7.5595 Y36.7964
G01 X7.5664 Y36.7895
G01 X7.6356 Y36.7270
G01 X7.7144 Y36.6685
G01 X7.7986 Y36.6181
G01 X7.8828 Y36.5781
G01 X7.8919 Y36.5744
G01 X7.9751 Y36.5446
G01 X7.9821 Y36.5424
G01 X8.0749 Y36.5192
G01 X8.1671 Y36.5054
G01 X8.1769 Y36.5045
G01 X8.2700 Y36.5000
G01 X8.3631 Y36.5045
G01 X8.3729 Y36.5054
G01 X8.4651 Y36.5192
G01 X8.5556 Y36.5418
G01 X8.5649 Y36.5446
G01 X8.6481 Y36.5744
G01 X8.6572 Y36.5781
G01 X8.7414 Y36.6181
G01 X8.8214 Y36.6659
G01 X8.8296 Y36.6714
G01 X8.9044 Y36.7270
G01 X8.9736 Y36.7895
G01 X8.9834 Y36.7997
G01 X9.7095 Y36.7997
G01 X9.7095 Y11.1900
G01 X9.7148 Y11.0821
G01 X9.7302 Y10.9777
G01 X9.7317 Y10.9705
G01 X9.7556 Y10.8753
G01 X9.7584 Y10.8659
G01 X9.7933 Y10.7689
G01 X9.8394 Y10.6712
G01 X9.8923 Y10.5827
G01 X9.8978 Y10.5746
G01 X9.9593 Y10.4919
G01 X10.0284 Y10.4154
G01 X12.7795 Y7.6642
G01 X12.7795 Y7.4000
G01 X12.2650 Y7.4000
G01 X12.2528 Y7.3992
G01 X12.2455 Y7.3981
G01 X12.2383 Y7.3964
G01 X12.2313 Y7.3942
G01 X12.2245 Y7.3914
G01 X12.2179 Y7.3882
G01 X12.2115 Y7.3845
G01 X12.2054 Y7.3803
G01 X12.1997 Y7.3757
G01 X12.1943 Y7.3707
G01 X12.1877 Y7.3634
G01 X12.1832 Y7.3576
G01 X12.1792 Y7.3514
G01 X12.1757 Y7.3450
G01 X12.1726 Y7.3383
G01 X12.1700 Y7.3314
G01 X12.1680 Y7.3243
G01 X12.1658 Y7.3122
G01 X12.1650 Y7.3000
G01 X12.1650 Y5.2975
G01 X12.1658 Y5.2878
G01 X12.1674 Y5.2781
G01 X12.1693 Y5.2710
G01 X12.1726 Y5.2617
G01 X12.1768 Y5.2529
G01 X12.1819 Y5.2444
G01 X12.1877 Y5.2366
G01 X12.1943 Y5.2293
G01 X12.2016 Y5.2227
G01 X12.2074 Y5.2182
G01 X12.2157 Y5.2130
G01 X12.2245 Y5.2086
G01 X12.2336 Y5.2050
G01 X12.2431 Y5.2024
G01 X12.2528 Y5.2008
G01 X12.2625 Y5.2000
G01 X13.3350 Y5.2000
G01 X13.3424 Y5.2003
G01 X13.3497 Y5.2011
G01 X13.3617 Y5.2036
G01 X13.3733 Y5.2076
G01 X13.3843 Y5.2130
G01 X13.3906 Y5.2169
G01 X13.3965 Y5.2212
G01 X13.4057 Y5.2293
G01 X13.4138 Y5.2385
G01 X13.4208 Y5.2486
G01 X13.4243 Y5.2550
G01 X13.4274 Y5.2617
G01 X13.4307 Y5.2710
G01 X13.4326 Y5.2781
G01 X13.4339 Y5.2853
G01 X13.4349 Y5.2951
G01 X13.4350 Y5.4023
G01 X13.4607 Y5.3836
G01 X13.5470 Y5.3319
G01 X13.5534 Y5.3283
G01 X13.6489 Y5.2833
G01 X13.7459 Y5.2484
G01 X13.7529 Y5.2462
G01 X13.8553 Y5.2206
G01 X13.9621 Y5.2048
G01 X14.0700 Y5.1995
G01 X14.1779 Y5.2048
G01 X14.2847 Y5.2206
G01 X14.3847 Y5.2456
G01 X14.3941 Y5.2484
G01 X14.4866 Y5.2815
G01 X14.4934 Y5.2842
G01 X14.5888 Y5.3294
G01 X14.6793 Y5.3836
G01 X14.6854 Y5.3878
G01 X14.7662 Y5.4478
G01 X14.8093 Y5.4865
G01 X14.8148 Y5.4782
G01 X14.8461 Y5.4360
G01 X14.8523 Y5.4284
G01 X14.8910 Y5.3860
G01 X14.9372 Y5.3441
G01 X14.9832 Y5.3098
G01 X14.9914 Y5.3044
G01 X15.0407 Y5.2750
G01 X15.0970 Y5.2483
G01 X15.1510 Y5.2289
G01 X15.1604 Y5.2260
G01 X15.2161 Y5.2122
G01 X15.2778 Y5.2031
G01 X15.3351 Y5.2001
G01 X15.3449 Y5.2001
G01 X15.4022 Y5.2031
G01 X15.4615 Y5.2118
G01 X15.5196 Y5.2260
G01 X15.5290 Y5.2289
G01 X15.5830 Y5.2483
G01 X15.6393 Y5.2750
G01 X15.6886 Y5.3044
G01 X15.6968 Y5.3098
G01 X15.7428 Y5.3441
G01 X15.7890 Y5.3860
G01 X15.8309 Y5.4322
G01 X15.8652 Y5.4782
G01 X15.8706 Y5.4864
G01 X15.9000 Y5.5357
G01 X15.9247 Y5.5875
G01 X15.9284 Y5.5966
G01 X15.9477 Y5.6507
G01 X15.9623 Y5.7087
G01 X15.9636 Y5.7160
G01 X15.9719 Y5.7728
G01 X15.9750 Y5.8350
G01 X15.9749 Y6.7699
G01 X15.9723 Y6.8223
G01 X15.9713 Y6.8321
G01 X15.9628 Y6.8889
G01 X15.9490 Y6.9446
G01 X15.9461 Y6.9540
G01 X15.9267 Y7.0080
G01 X15.9022 Y7.0600
G01 X15.8988 Y7.0665
G01 X15.8680 Y7.1178
G01 X15.8309 Y7.1678
G01 X15.7890 Y7.2140
G01 X15.7466 Y7.2527
G01 X15.7390 Y7.2589
G01 X15.6968 Y7.2902
G01 X15.6886 Y7.2956
G01 X15.6393 Y7.3250
G01 X15.5875 Y7.3497
G01 X15.5784 Y7.3534
G01 X15.5243 Y7.3727
G01 X15.4687 Y7.3867
G01 X15.4590 Y7.3886
G01 X15.4022 Y7.3969
G01 X15.3400 Y7.4000
G01 X15.2778 Y7.3969
G01 X15.2161 Y7.3878
G01 X15.1557 Y7.3727
G01 X15.0970 Y7.3517
G01 X15.0407 Y7.3250
G01 X14.9914 Y7.2956
G01 X14.9805 Y7.2882
G01 X14.9805 Y8.1200
G01 X14.9756 Y8.2230
G01 X14.9749 Y8.2303
G01 X14.9602 Y8.3299
G01 X14.9583 Y8.3395
G01 X14.9331 Y8.4395
G01 X14.8985 Y8.5366
G01 X14.8947 Y8.5456
G01 X14.8506 Y8.6388
G01 X14.7977 Y8.7273
G01 X14.7936 Y8.7334
G01 X14.7307 Y8.8181
G01 X14.6582 Y8.8982
G01 X11.9105 Y11.6458
G01 X11.9105 Y29.8004
G01 X11.9980 Y29.8048
G01 X12.0951 Y29.8192
G01 X12.1903 Y29.8431
G01 X12.2827 Y29.8761
G01 X12.3714 Y29.9181
G01 X12.4556 Y29.9685
G01 X12.5344 Y30.0270
G01 X12.6071 Y30.0929
G01 X12.6730 Y30.1656
G01 X12.7315 Y30.2444
G01 X12.7819 Y30.3286
G01 X12.8239 Y30.4173
G01 X12.8569 Y30.5097
G01 X12.8808 Y30.6049
G01 X12.8952 Y30.7020
G01 X12.9000 Y30.8000
G01 X12.8952 Y30.8980
G01 X12.8808 Y30.9951
G01 X12.8569 Y31.0903
G01 X12.8239 Y31.1827
G01 X12.7819 Y31.2714
G01 X12.7315 Y31.3556
G01 X12.6730 Y31.4344
G01 X12.6071 Y31.5071
G01 X12.5344 Y31.5730
G01 X12.4556 Y31.6315
G01 X12.3714 Y31.6819
G01 X12.2827 Y31.7239
G01 X12.1903 Y31.7569
G01 X12.0951 Y31.7808
G01 X11.9980 Y31.7952
G01 X11.9105 Y31.7996
G01 X11.9105 Y32.8004
G01 X11.9980 Y32.8048
G01 X12.0903 Y32.8184
G01 X12.0999 Y32.8203
G01 X12.1856 Y32.8418
G01 X12.1949 Y32.8446
G01 X12.2827 Y32.8761
G01 X12.3670 Y32.9159
G01 X12.3757 Y32.9205
G01 X12.4556 Y32.9685
G01 X12.5344 Y33.0270
G01 X12.6071 Y33.0929
G01 X12.6698 Y33.1619
G01 X12.6760 Y33.1695
G01 X12.7315 Y33.2444
G01 X12.7819 Y33.3286
G01 X12.8239 Y33.4173
G01 X12.8569 Y33.5097
G01 X12.8808 Y33.6049
G01 X12.8952 Y33.7020
G01 X12.9000 Y33.8000
G01 X12.8954 Y33.8956
G01 X12.8946 Y33.9029
G01 X12.8808 Y33.9951
G01 X12.8569 Y34.0903
G01 X12.8239 Y34.1827
G01 X12.7841 Y34.2670
G01 X12.7795 Y34.2757
G01 X12.7341 Y34.3514
G01 X12.7286 Y34.3596
G01 X12.6730 Y34.4344
G01 X12.6105 Y34.5036
G01 X12.6036 Y34.5105
G01 X12.5344 Y34.5730
G01 X12.4556 Y34.6315
G01 X12.3714 Y34.6819
G01 X12.2827 Y34.7239
G01 X12.1903 Y34.7569
G01 X12.0951 Y34.7808
G01 X11.9980 Y34.7952
G01 X11.9105 Y34.7996
G01 X11.9105 Y37.5000
G01 X11.9056 Y37.6030
G01 X11.9046 Y37.6127
G01 X11.8894 Y37.7147
G01 X11.8644 Y37.8147
G01 X11.8616 Y37.8241
G01 X11.8267 Y37.9211
G01 X11.7828 Y38.0144
G01 X11.7781 Y38.0230
G01 X11.7250 Y38.1114
G01 X11.6607 Y38.1981
G01 X11.5916 Y38.2746
G01 X11.5846 Y38.2816
G01 X11.5081 Y38.3507
G01 X11.4254 Y38.4122
G01 X11.4173 Y38.4177
G01 X11.3330 Y38.4681
G01 X11.3244 Y38.4728
G01 X11.2311 Y38.5167
G01 X11.1295 Y38.5531
G01 X11.0247 Y38.5794
G01 X10.9227 Y38.5946
G01 X10.9130 Y38.5956
G01 X10.8100 Y38.6005
G01 X10.7070 Y38.5956
G01 X10.6973 Y38.5946
G01 X10.6001 Y38.5802
G01 X10.5905 Y38.5783
G01 X10.4905 Y38.5531
G01 X10.3889 Y38.5167
G01 X10.2912 Y38.4706
G01 X10.2027 Y38.4177
G01 X10.1946 Y38.4122
G01 X10.1119 Y38.3507
G01 X10.0354 Y38.2816
G01 X10.0284 Y38.2746
G01 X9.9611 Y38.2003
G00 Z0.6000
G00 X10.0062 Y38.2667
G01 F60.00
G01 Z-0.1996
G01 F120.00
G01 X10.0230 Y38.2686
G00 Z0.6000
G00 X10.1667 Y38.4053
G01 F60.00
G01 Z-0.1996
G01 F120.00
G01 X10.1877 Y38.4071
G00 Z0.6000
G00 X10.4478 Y38.5499
G01 F60.00
G01 Z-0.1996
G01 F120.00
G01 X10.4931 Y38.5539
G00 Z0.6000
G00 X10.9791 Y38.5862
G01 F60.00
G01 Z-0.1996
G01 F120.00
G01 X11.0306 Y38.5894
G00 Z0.6000
G00 X11.3097 Y38.4797
G01 F60.00
G01 Z-0.1996
G01 F120.00
G01 X11.3317 Y38.4805
G00 Z0.6000
G00 X11.4877 Y38.3661
G01 F60.00
G01 Z-0.1996
G01 F120.00
G01 X11.5070 Y38.3663
G00 Z0.6000
G00 X11.6160 Y38.2476
G01 F60.00
G01 Z-0.1996
G01 F120.00
G01 X11.6327 Y38.2478
G01 X11.7123 Y38.1288
G01 X11.7257 Y38.1290
G00 Z0.6000
G00 X11.7850 Y38.0097
G01 F60.00
G01 Z-0.1996
G01 F120.00
G01 X11.7966 Y38.0098
G01 X11.8379 Y37.8903
G01 X11.8508 Y37.8905
G01 X11.8754 Y37.7708
G01 X11.8896 Y37.7710
G01 X11.8989 Y37.6511
G01 X11.9104 Y37.6512
G01 X11.9091 Y37.5312
G01 X11.9205 Y37.5312
G01 X11.9205 Y37.4112
G01 X11.9105 Y37.4112
G01 X11.9105 Y37.2912
G01 X11.9205 Y37.2912
G01 X11.9205 Y37.1712
G01 X11.9105 Y37.1712
G01 X11.9105 Y37.0512
G01 X11.9205 Y37.0512
G01 X11.9205 Y36.9312
G01 X11.9105 Y36.9312
G01 X11.9105 Y36.8112
G01 X11.9205 Y36.8112
G01 X11.9205 Y36.6912
G01 X11.9105 Y36.6912
G01 X11.9105 Y36.5712
G01 X11.9205 Y36.5712
G01 X11.9205 Y36.4512
G01 X11.9105 Y36.4512
G01 X11.9105 Y36.3312
G01 X11.9205 Y36.3312
G01 X11.9205 Y36.2112
G01 X11.9105 Y36.2112
G01 X11.9105 Y36.0912
G01 X11.9205 Y36.0912
G01 X11.9205 Y35.9712
G01 X11.9105 Y35.9712
G01 X11.9105 Y35.8512
G01 X11.9205 Y35.8512
G01 X11.9205 Y35.7312
G01 X11.9105 Y35.7312
G01 X11.9105 Y35.6112
G01 X11.9205 Y35.6112
G01 X11.9205 Y35.4912
G01 X11.9105 Y35.4912
G01 X11.9105 Y35.3712
G01 X11.9205 Y35.3712
G01 X11.9205 Y35.2512
G01 X11.9105 Y35.2512
G01 X11.9105 Y35.1312
G01 X11.9205 Y35.1312
G01 X11.9205 Y35.0112
G01 X11.9105 Y35.0112
G01 X11.9105 Y34.8912
G01 X11.9481 Y34.8909
G00 Z0.6000
G00 X12.1447 Y34.7685
G01 F60.00
G01 Z-0.1996
G01 F120.00
G01 X12.1911 Y34.7679
G00 Z0.6000
G00 X12.4409 Y34.6404
G01 F60.00
G01 Z-0.1996
G01 F120.00
G01 X12.4636 Y34.6395
G01 X12.5993 Y34.5144
G01 X12.6157 Y34.5134
G01 X12.7079 Y34.3875
G01 X12.7229 Y34.3866
G00 Z0.6000
G00 X12.7863 Y34.2625
G01 F60.00
G01 Z-0.1996
G01 F120.00
G01 X12.7989 Y34.2617
G01 X12.8397 Y34.1390
G01 X12.8526 Y34.1382
G01 X12.8755 Y34.0165
G01 X12.8889 Y34.0157
G01 X12.8954 Y33.8950
G01 X12.9082 Y33.8939
G01 X12.8989 Y33.7743
G01 X12.9105 Y33.7733
G01 X12.8999 Y33.6537
G01 X12.8883 Y33.6547
G01 X12.8765 Y33.5353
G01 X12.8637 Y33.5364
G01 X12.8383 Y33.4177
G01 X12.8244 Y33.4186
G00 Z0.6000
G00 X12.7799 Y33.3011
G01 F60.00
G01 Z-0.1996
G01 F120.00
G01 X12.7661 Y33.3020
G01 X12.7027 Y33.1856
G01 X12.6887 Y33.1865
G00 Z0.6000
G00 X12.6007 Y33.0717
G01 F60.00
G01 Z-0.1996
G01 F120.00
G01 X12.5850 Y33.0727
G01 X12.4611 Y32.9586
G01 X12.4405 Y32.9594
G00 Z0.6000
G00 X12.2365 Y32.8468
G01 F60.00
G01 Z-0.1996
G01 F120.00
G01 X12.2038 Y32.8478
G00 Z0.6000
G00 X11.9632 Y32.7307
G01 F60.00
G01 Z-0.1996
G01 F120.00
G01 X11.9105 Y32.7312
G01 X11.9105 Y32.6112
G01 X11.9205 Y32.6112
G00 Z0.6000
G00 X11.9205 Y32.4912
G01 F60.00
G01 Z-0.1996
G01 F120.00
G01 X11.9105 Y32.4912
G01 X11.9105 Y32.3712
G01 X11.9205 Y32.3712
G01 X11.9205 Y32.2512
G01 X11.9105 Y32.2512
G01 X11.9105 Y32.1312
G01 X11.9205 Y32.1312
G01 X11.9205 Y32.0112
G01 X11.9105 Y32.0112
G01 X11.9105 Y31.8912
G01 X11.9481 Y31.8909
G00 Z0.6000
G00 X12.1447 Y31.7685
G01 F60.00
G01 Z-0.1996
G01 F120.00
G01 X12.1914 Y31.7678
G00 Z0.6000
G00 X12.4442 Y31.6384
G01 F60.00
G01 Z-0.1996
G01 F120.00
G01 X12.4667 Y31.6373
G00 Z0.6000
G00 X12.6056 Y31.5086
G01 F60.00
G01 Z-0.1996
G01 F120.00
G01 X12.6215 Y31.5076
G01 X12.7123 Y31.3816
G01 X12.7274 Y31.3803
G00 Z0.6000
G00 X12.7900 Y31.2545
G01 F60.00
G01 Z-0.1996
G01 F120.00
G01 X12.8031 Y31.2534
G01 X12.8430 Y31.1295
G01 X12.8558 Y31.1284
G01 X12.8782 Y31.0060
G01 X12.8906 Y31.0050
G01 X12.8960 Y30.8841
G01 X12.9100 Y30.8829
G01 X12.8983 Y30.7634
G01 X12.9105 Y30.7624
G01 X12.8982 Y30.6430
G01 X12.8867 Y30.6440
G01 X12.8731 Y30.5247
G01 X12.8611 Y30.5258
G01 X12.8342 Y30.4076
G01 X12.8200 Y30.4089
G01 X12.7754 Y30.2923
G01 X12.7610 Y30.2935
G01 X12.6975 Y30.1785
G01 X12.6836 Y30.1797
G00 Z0.6000
G00 X12.5956 Y30.0666
G01 F60.00
G01 Z-0.1996
G01 F120.00
G01 X12.5793 Y30.0676
G01 X12.4560 Y29.9549
G01 X12.4352 Y29.9562
G00 Z0.6000
G00 X12.2315 Y29.8452
G01 F60.00
G01 Z-0.1996
G01 F120.00
G01 X12.1999 Y29.8464
G00 Z0.6000
G00 X11.9632 Y29.7307
G01 F60.00
G01 Z-0.1996
G01 F120.00
G01 X11.9105 Y29.7312
G01 X11.9105 Y29.6112
G01 X11.9205 Y29.6112
G00 Z0.6000
G00 X11.9205 Y29.4912
G01 F60.00
G01 Z-0.1996
G01 F120.00
G01 X11.9105 Y29.4912
G01 X11.9105 Y29.3712
G01 X11.9205 Y29.3712
G01 X11.9205 Y29.2512
G01 X11.9105 Y29.2512
G01 X11.9105 Y29.1312
G01 X11.9205 Y29.1312
G01 X11.9205 Y29.0112
G01 X11.9105 Y29.0112
G01 X11.9105 Y28.8912
G01 X11.9205 Y28.8912
G01 X11.9205 Y28.7712
G01 X11.9105 Y28.7712
G01 X11.9105 Y28.6512
G01 X11.9205 Y28.6512
G01 X11.9205 Y28.5312
G01 X11.9105 Y28.5312
G01 X11.9105 Y28.4112
G01 X11.9205 Y28.4112
G01 X11.9205 Y28.2912
G01 X11.9105 Y28.2912
G01 X11.9105 Y28.1712
G01 X11.9205 Y28.1712
G01 X11.9205 Y28.0512
G01 X11.9105 Y28.0512
G01 X11.9105 Y27.9312
G01 X11.9205 Y27.9312
G01 X11.9205 Y27.8112
G01 X11.9105 Y27.8112
G01 X11.9105 Y27.6912
G01 X11.9205 Y27.6912
G01 X11.9205 Y27.5712
G01 X11.9105 Y27.5712
G01 X11.9105 Y27.4512
G01 X11.9205 Y27.4512
G01 X11.9205 Y27.3312
G01 X11.9105 Y27.3312
G01 X11.9105 Y27.2112
G01 X11.9205 Y27.2112
G01 X11.9205 Y27.0912
G01 X11.9105 Y27.0912
G01 X11.9105 Y26.9712
G01 X11.9205 Y26.9712
G01 X11.9205 Y26.8512
G01 X11.9105 Y26.8512
G01 X11.9105 Y26.7312
G01 X11.9205 Y26.7312
G01 X11.9205 Y26.6112
G01 X11.9105 Y26.6112
G01 X11.9105 Y26.4912
G01 X11.9205 Y26.4912
G01 X11.9205 Y26.3712
G01 X11.9105 Y26.3712
G01 X11.9105 Y26.2512
G01 X11.9205 Y26.2512
G01 X11.9205 Y26.1312
G01 X11.9105 Y26.1312
G01 X11.9105 Y26.0112
G01 X11.9205 Y26.0112
G01 X11.9205 Y25.8912
G01 X11.9105 Y25.8912
G01 X11.9105 Y25.7712
G01 X11.9205 Y25.7712
G01 X11.9205 Y25.6512
G01 X11.9105 Y25.6512
G01 X11.9105 Y25.5312
G01 X11.9205 Y25.5312
G01 X11.9205 Y25.4112
G01 X11.9105 Y25.4112
G01 X11.9105 Y25.2912
G01 X11.9205 Y25.2912
G01 X11.9205 Y25.1712
G01 X11.9105 Y25.1712
G01 X11.9105 Y25.0512
G01 X11.9205 Y25.0512
G01 X11.9205 Y24.9312
G01 X11.9105 Y24.9312
G01 X11.9105 Y24.8112
G01 X11.9205 Y24.8112
G01 X11.9205 Y24.6912
G01 X11.9105 Y24.6912
G01 X11.9105 Y24.5712
G01 X11.9205 Y24.5712
G01 X11.9205 Y24.4512
G01 X11.9105 Y24.4512
G01 X11.9105 Y24.3312
G01 X11.9205 Y24.3312
G01 X11.9205 Y24.2112
G01 X11.9105 Y24.2112
G01 X11.9105 Y24.0912
G01 X11.9205 Y24.0912
G01 X11.9205 Y23.9712
G01 X11.9105 Y23.9712
G01 X11.9105 Y23.8512
G01 X11.9205 Y23.8512
G01 X11.9205 Y23.7312
G01 X11.9105 Y23.7312
G01 X11.9105 Y23.6112
G01 X11.9205 Y23.6112
G01 X11.9205 Y23.4912
G01 X11.9105 Y23.4912
G01 X11.9105 Y23.3712
G01 X11.9205 Y23.3712
G01 X11.9205 Y23.2512
G01 X11.9105 Y23.2512
G01 X11.9105 Y23.1312
G01 X11.9205 Y23.1312
G01 X11.9205 Y23.0112
G01 X11.9105 Y23.0112
G01 X11.9105 Y22.8912
G01 X11.9205 Y22.8912
G01 X11.9205 Y22.7712
G01 X11.9105 Y22.7712
G01 X11.9105 Y22.6512
G01 X11.9205 Y22.6512
G01 X11.9205 Y22.5312
G01 X11.9105 Y22.5312
G01 X11.9105 Y22.4112
G01 X11.9205 Y22.4112
G01 X11.9205 Y22.2912
G01 X11.9105 Y22.2912
G01 X11.9105 Y22.1712
G01 X11.9205 Y22.1712
G01 X11.9205 Y22.0512
G01 X11.9105 Y22.0512
G01 X11.9105 Y21.9312
G01 X11.9205 Y21.9312
G01 X11.9205 Y21.8112
G01 X11.9105 Y21.8112
G01 X11.9105 Y21.6912
G01 X11.9205 Y21.6912
G01 X11.9205 Y21.5712
G01 X11.9105 Y21.5712
G01 X11.9105 Y21.4512
G01 X11.9205 Y21.4512
G01 X11.9205 Y21.3312
G01 X11.9105 Y21.3312
G01 X11.9105 Y21.2112
G01 X11.9205 Y21.2112
G01 X11.9205 Y21.0912
G01 X11.9105 Y21.0912
G01 X11.9105 Y20.9712
G01 X11.9205 Y20.9712
G01 X11.9205 Y20.8512
G01 X11.9105 Y20.8512
G01 X11.9105 Y20.7311
G01 X11.9205 Y20.7311
G01 X11.9205 Y20.6115
G01 X11.9105 Y20.6115
G01 X11.9105 Y20.4914
G01 X11.9205 Y20.4914
G01 X11.9205 Y20.3714
G01 X11.9105 Y20.3714
G01 X11.9105 Y20.2514
G01 X11.9205 Y20.2514
G01 X11.9205 Y20.1314
G01 X11.9105 Y20.1314
G01 X11.9105 Y20.0114
G01 X11.9205 Y20.0114
G01 X11.9205 Y19.8914
G01 X11.9105 Y19.8914
G01 X11.9105 Y19.7714
G01 X11.9205 Y19.7714
G01 X11.9205 Y19.6514
G01 X11.9105 Y19.6514
G01 X11.9105 Y19.5314
G01 X11.9205 Y19.5314
G01 X11.9205 Y19.4114
G01 X11.9105 Y19.4114
G01 X11.9105 Y19.2914
G01 X11.9205 Y19.2914
G01 X11.9205 Y19.1714
G01 X11.9105 Y19.1714
G01 X11.9105 Y19.0514
G01 X11.9205 Y19.0514
G01 X11.9205 Y18.9314
G01 X11.9105 Y18.9314
G01 X11.9105 Y18.8114
G01 X11.9205 Y18.8114
G01 X11.9205 Y18.6914
G01 X11.9105 Y18.6914
G01 X11.9105 Y18.5714
G01 X11.9205 Y18.5714
G01 X11.9205 Y18.4514
G01 X11.9105 Y18.4514
G01 X11.9105 Y18.3314
G01 X11.9205 Y18.3314
G01 X11.9205 Y18.2114
G01 X11.9105 Y18.2114
G01 X11.9105 Y18.0914
G01 X11.9205 Y18.0914
G01 X11.9205 Y17.9714
G01 X11.9105 Y17.9714
G01 X11.9105 Y17.8514
G01 X11.9205 Y17.8514
G01 X11.9205 Y17.7314
G01 X11.9105 Y17.7314
G01 X11.9105 Y17.6114
G01 X11.9205 Y17.6114
G01 X11.9205 Y17.4914
G01 X11.9105 Y17.4914
G01 X11.9105 Y17.3714
G01 X11.9205 Y17.3714
G01 X11.9205 Y17.2514
G01 X11.9105 Y17.2514
G01 X11.9105 Y17.1314
G01 X11.9205 Y17.1314
G01 X11.9205 Y17.0114
G01 X11.9105 Y17.0114
G01 X11.9105 Y16.8914
G01 X11.9205 Y16.8914
G01 X11.9205 Y16.7714
G01 X11.9105 Y16.7714
G01 X11.9105 Y16.6514
G01 X11.9205 Y16.6514
G01 X11.9205 Y16.5314
G01 X11.9105 Y16.5314
G01 X11.9105 Y16.4114
G01 X11.9205 Y16.4114
G01 X11.9205 Y16.2914
G01 X11.9105 Y16.2914
G01 X11.9105 Y16.1714
G01 X11.9205 Y16.1714
G01 X11.9205 Y16.0514
G01 X11.9105 Y16.0514
G01 X11.9105 Y15.9314
G01 X11.9205 Y15.9314
G01 X11.9205 Y15.8114
G01 X11.9105 Y15.8114
G01 X11.9105 Y15.6914
G01 X11.9205 Y15.6914
G01 X11.9205 Y15.5714
G01 X11.9105 Y15.5714
G01 X11.9105 Y15.4514
G01 X11.9205 Y15.4514
G01 X11.9205 Y15.3314
G01 X11.9105 Y15.3314
G01 X11.9105 Y15.2114
G01 X11.9205 Y15.2114
G01 X11.9205 Y15.0914
G01 X11.9105 Y15.0914
G01 X11.9105 Y14.9714
G01 X11.9205 Y14.9714
G01 X11.9205 Y14.8514
G01 X11.9105 Y14.8514
G01 X11.9105 Y14.7314
G01 X11.9205 Y14.7314
G01 X11.9205 Y14.6114
G01 X11.9105 Y14.6114
G01 X11.9105 Y14.4914
G01 X11.9205 Y14.4914
G01 X11.9205 Y14.3714
G01 X11.9105 Y14.3714
G01 X11.9105 Y14.2514
G01 X11.9205 Y14.2514
G01 X11.9205 Y14.1314
G01 X11.9105 Y14.1314
G01 X11.9105 Y14.0114
G01 X11.9205 Y14.0114
G01 X11.9205 Y13.8914
G01 X11.9105 Y13.8914
G01 X11.9105 Y13.7714
G01 X11.9205 Y13.7714
G01 X11.9205 Y13.6514
G01 X11.9105 Y13.6514
G01 X11.9105 Y13.5314
G01 X11.9205 Y13.5314
G01 X11.9205 Y13.4114
G01 X11.9105 Y13.4114
G01 X11.9105 Y13.2914
G01 X11.9205 Y13.2914
G01 X11.9205 Y13.1714
G01 X11.9105 Y13.1714
G01 X11.9105 Y13.0514
G01 X11.9205 Y13.0514
G01 X11.9205 Y12.9314
G01 X11.9105 Y12.9314
G01 X11.9105 Y12.8114
G01 X11.9205 Y12.8114
G01 X11.9205 Y12.6914
G01 X11.9105 Y12.6914
G01 X11.9105 Y12.5714
G01 X11.9205 Y12.5714
G01 X11.9205 Y12.4514
G01 X11.9105 Y12.4514
G01 X11.9105 Y12.3314
G01 X11.9205 Y12.3314
G01 X11.9205 Y12.2114
G01 X11.9105 Y12.2114
G01 X11.9105 Y12.0914
G01 X11.9205 Y12.0914
G01 X11.9205 Y11.9714
G01 X11.9105 Y11.9714
G01 X11.9105 Y11.8514
G01 X11.9205 Y11.8514
G00 Z0.6000
G00 X11.9205 Y11.7314
G01 F60.00
G01 Z-0.1996
G01 F120.00
G01 X11.9105 Y11.7314
G01 X11.9447 Y11.6117
G01 X11.9612 Y11.6119
G00 Z0.6000
G00 X12.0632 Y11.4931
G01 F60.00
G01 Z-0.1996
G01 F120.00
G01 X12.0772 Y11.4933
G01 X12.1809 Y11.3755
G01 X12.1945 Y11.3760
G01 X12.2967 Y11.2597
G01 X12.3103 Y11.2602
G01 X12.4118 Y11.1445
G01 X12.4251 Y11.1453
G01 X12.5251 Y11.0313
G01 X12.5384 Y11.0321
G01 X12.6383 Y10.9181
G01 X12.6513 Y10.9192
G01 X12.7491 Y10.8072
G01 X12.7622 Y10.8083
G01 X12.8600 Y10.6963
G01 X12.8731 Y10.6974
G01 X12.9695 Y10.5868
G01 X12.9823 Y10.5882
G01 X13.0782 Y10.4781
G01 X13.0909 Y10.4795
G01 X13.1869 Y10.3695
G01 X13.1993 Y10.3712
G01 X13.2935 Y10.2629
G01 X13.3059 Y10.2645
G01 X13.4001 Y10.1562
G01 X13.4126 Y10.1579
G01 X13.5064 Y10.0500
G01 X13.5186 Y10.0519
G01 X13.6111 Y9.9453
G01 X13.6233 Y9.9472
G01 X13.7158 Y9.8406
G01 X13.7279 Y9.8425
G01 X13.8203 Y9.7360
G01 X13.8322 Y9.7383
G01 X13.9232 Y9.6331
G01 X13.9351 Y9.6354
G01 X14.0261 Y9.5303
G01 X14.0380 Y9.5325
G01 X14.1290 Y9.4274
G01 X14.1409 Y9.4296
G01 X14.2307 Y9.3257
G01 X14.2423 Y9.3281
G01 X14.3319 Y9.2244
G01 X14.3436 Y9.2269
G01 X14.4331 Y9.1232
G01 X14.4448 Y9.1257
G01 X14.5343 Y9.0221
G01 X14.5457 Y9.0248
G01 X14.6339 Y8.9224
G01 X14.6454 Y8.9251
G01 X14.7279 Y8.8214
G01 X14.7408 Y8.8245
G01 X14.8043 Y8.7162
G01 X14.8173 Y8.7193
G01 X14.8655 Y8.6074
G01 X14.8766 Y8.6101
G01 X14.9132 Y8.4954
G01 X14.9248 Y8.4982
G01 X14.9480 Y8.3804
G01 X14.9620 Y8.3837
G01 X14.9814 Y8.2649
G01 X14.9702 Y8.2623
G01 X14.9905 Y8.1438
G01 X14.9796 Y8.1412
G01 X14.9905 Y8.0205
G01 X14.9805 Y8.0181
G01 X14.9905 Y7.8971
G01 X14.9805 Y7.8947
G01 X14.9905 Y7.7738
G01 X14.9805 Y7.7714
G01 X14.9905 Y7.6505
G01 X14.9805 Y7.6481
G00 Z0.6000
G00 X15.0065 Y7.5309
G01 F60.00
G01 Z-0.1996
G01 F120.00
G01 X14.9805 Y7.5248
G01 X14.9805 Y7.4014
G01 X15.0910 Y7.4277
G00 Z0.6000
G00 X15.4385 Y7.3917
G01 F60.00
G01 Z-0.1996
G01 F120.00
G01 X15.4642 Y7.3985
G00 Z0.6000
G00 X15.6437 Y7.3225
G01 F60.00
G01 Z-0.1996
G01 F120.00
G01 X15.6603 Y7.3273
G00 Z0.6000
G00 X15.7677 Y7.2335
G01 F60.00
G01 Z-0.1996
G01 F120.00
G01 X15.7806 Y7.2373
G01 X15.8560 Y7.1342
G01 X15.8968 Y7.1461
G01 X15.9177 Y7.0272
G01 X16.0509 Y7.0660
G00 Z0.6000
G00 X15.9961 Y6.9250
G01 F60.00
G01 Z-0.1996
G01 F120.00
G01 X15.9567 Y6.9136
G00 Z0.6000
G00 X15.9763 Y6.7943
G01 F60.00
G01 Z-0.1996
G01 F120.00
G01 X15.9737 Y6.7935
G00 Z0.6000
G00 X15.9750 Y6.6690
G01 F60.00
G01 Z-0.1996
G01 F120.00
G01 X15.9750 Y5.9199
G00 Z0.6000
G00 X15.9768 Y5.7963
G01 F60.00
G01 Z-0.1996
G01 F120.00
G01 X15.9732 Y5.7954
G00 Z0.6000
G00 X15.9956 Y5.6772
G01 F60.00
G01 Z-0.1996
G01 F120.00
G01 X15.9515 Y5.6656
G01 X16.0365 Y5.5639
G01 X15.8947 Y5.5265
G00 Z0.6000
G00 X15.7937 Y5.3758
G01 F60.00
G01 Z-0.1996
G01 F120.00
G01 X15.7715 Y5.3699
G00 Z0.6000
G00 X16.0663 Y5.4476
G01 F60.00
G01 Z-0.1996
G01 F120.00
G01 X16.1008 Y5.4567
G00 Z0.6000
G00 X16.1790 Y5.3539
G01 F60.00
G01 Z-0.1996
G01 F120.00
G01 X16.1921 Y5.3577
G00 Z0.6000
G00 X16.9600 Y5.3052
G01 F60.00
G01 Z-0.1996
G01 F120.00
G01 X16.9668 Y5.3098
G01 X17.0090 Y5.3411
G01 X17.0166 Y5.3473
G01 X17.0590 Y5.3860
G01 X17.1009 Y5.4322
G01 X17.1352 Y5.4782
G01 X17.1406 Y5.4864
G01 X17.1700 Y5.5357
G01 X17.1957 Y5.5897
G01 X17.2161 Y5.6460
G01 X17.2190 Y5.6554
G01 X17.2328 Y5.7111
G01 X17.2413 Y5.7679
G01 X17.2423 Y5.7777
G01 X17.2450 Y5.8325
G01 X17.2450 Y5.9500
G01 X17.2450 Y5.8325
G01 X17.2477 Y5.7777
G01 X17.2487 Y5.7679
G01 X17.2572 Y5.7111
G01 X17.2710 Y5.6554
G01 X17.2739 Y5.6460
G01 X17.2943 Y5.5897
G01 X17.3200 Y5.5357
G01 X17.3494 Y5.4864
G01 X17.3548 Y5.4782
G01 X17.3876 Y5.4341
G01 X17.3923 Y5.4284
G01 X17.4310 Y5.3860
G01 X17.4734 Y5.3473
G01 X17.4810 Y5.3411
G01 X17.5232 Y5.3098
G01 X17.5300 Y5.3052
G01 X17.5300 Y5.2931
G01 X17.4688 Y5.3340
G01 X17.3840 Y5.4188
G01 X17.3767 Y5.4251
G01 X17.3708 Y5.4294
G01 X17.3604 Y5.4355
G01 X17.2993 Y5.4663
G01 X17.2902 Y5.4697
G01 X17.2809 Y5.4721
G01 X17.2713 Y5.4736
G01 X17.2617 Y5.4742
G01 X17.2544 Y5.4740
G01 X17.2472 Y5.4733
G01 X17.1795 Y5.4625
G01 X17.1723 Y5.4607
G01 X17.1653 Y5.4584
G01 X17.1584 Y5.4555
G01 X17.1517 Y5.4522
G01 X17.1413 Y5.4455
G01 X17.1141 Y5.4257
G01 X17.1081 Y5.4207
G01 X17.0212 Y5.3340
G01 X16.9600 Y5.2931
G01 X16.9600 Y5.3052
G00 Z0.6000
G00 X16.9648 Y5.3084
G01 F60.00
G01 Z-0.1996
G01 F120.00
G01 X16.9727 Y5.3016
G00 Z0.6000
G00 X17.0590 Y5.3860
G01 F60.00
G01 Z-0.1996
G01 F120.00
G01 X17.0670 Y5.3798
G00 Z0.6000
G00 X17.1354 Y5.4785
G01 F60.00
G01 Z-0.1996
G01 F120.00
G01 X17.1450 Y5.4716
G01 X17.1525 Y5.4669
G01 X17.1671 Y5.4590
G00 Z0.6000
G00 X17.1950 Y5.5882
G01 F60.00
G01 Z-0.1996
G01 F120.00
G01 X17.1996 Y5.5821
G01 X17.2047 Y5.5768
G01 X17.2105 Y5.5722
G01 X17.2167 Y5.5684
G01 X17.2234 Y5.5653
G01 X17.2304 Y5.5631
G01 X17.2377 Y5.5617
G01 X17.2450 Y5.5613
G01 X17.2523 Y5.5617
G01 X17.2596 Y5.5631
G01 X17.2666 Y5.5653
G01 X17.2733 Y5.5684
G01 X17.2795 Y5.5722
G01 X17.2853 Y5.5768
G01 X17.2904 Y5.5821
G01 X17.2950 Y5.5882
G00 Z0.6000
G00 X17.2654 Y5.6777
G01 F60.00
G01 Z-0.1996
G01 F120.00
G01 X17.2553 Y5.6804
G01 X17.2450 Y5.6813
G01 X17.2347 Y5.6804
G01 X17.2246 Y5.6777
G00 Z0.6000
G00 X17.2435 Y5.8013
G01 F60.00
G01 Z-0.1996
G01 F120.00
G01 X17.2465 Y5.8013
G00 Z0.6000
G00 X17.2450 Y5.9213
G01 F60.00
G01 Z-0.1996
G01 F120.00
G01 X17.2450 Y5.9213
G00 Z0.6000
G00 X17.3546 Y5.4785
G01 F60.00
G01 Z-0.1996
G01 F120.00
G01 X17.3450 Y5.4716
G01 X17.3375 Y5.4669
G01 X17.3299 Y5.4625
G01 X17.3184 Y5.4569
G00 Z0.6000
G00 X17.4230 Y5.3798
G01 F60.00
G01 Z-0.1996
G01 F120.00
G01 X17.4310 Y5.3860
G00 Z0.6000
G00 X17.5173 Y5.3016
G01 F60.00
G01 Z-0.1996
G01 F120.00
G01 X17.5252 Y5.3084
G00 Z0.6000
G00 X18.2300 Y5.3052
G01 F60.00
G01 Z-0.1996
G01 F120.00
G01 X18.2368 Y5.3098
G01 X18.2790 Y5.3411
G01 X18.2866 Y5.3473
G01 X18.3290 Y5.3860
G01 X18.3709 Y5.4322
G01 X18.4052 Y5.4782
G01 X18.4106 Y5.4864
G01 X18.4400 Y5.5357
G01 X18.4657 Y5.5897
G01 X18.4861 Y5.6460
G01 X18.4890 Y5.6554
G01 X18.5028 Y5.7111
G01 X18.5113 Y5.7679
G01 X18.5123 Y5.7777
G01 X18.5150 Y5.8325
G01 X18.5150 Y5.9500
G01 X18.5150 Y5.8325
G01 X18.5177 Y5.7777
G01 X18.5187 Y5.7679
G01 X18.5272 Y5.7111
G01 X18.5410 Y5.6554
G01 X18.5439 Y5.6460
G01 X18.5643 Y5.5897
G01 X18.5900 Y5.5357
G01 X18.6194 Y5.4864
G01 X18.6248 Y5.4782
G01 X18.6576 Y5.4341
G01 X18.6623 Y5.4284
G01 X18.7010 Y5.3860
G01 X18.7434 Y5.3473
G01 X18.7510 Y5.3411
G01 X18.7932 Y5.3098
G01 X18.8000 Y5.3052
G01 X18.8000 Y5.2931
G01 X18.7388 Y5.3340
G01 X18.6540 Y5.4188
G01 X18.6467 Y5.4251
G01 X18.6408 Y5.4294
G01 X18.6304 Y5.4355
G01 X18.5693 Y5.4663
G01 X18.5602 Y5.4697
G01 X18.5509 Y5.4721
G01 X18.5413 Y5.4736
G01 X18.5317 Y5.4742
G01 X18.5244 Y5.4740
G01 X18.5172 Y5.4733
G01 X18.4495 Y5.4625
G01 X18.4423 Y5.4607
G01 X18.4353 Y5.4584
G01 X18.4284 Y5.4555
G01 X18.4217 Y5.4522
G01 X18.4113 Y5.4455
G01 X18.3841 Y5.4257
G01 X18.3781 Y5.4207
G01 X18.2912 Y5.3340
G01 X18.2300 Y5.2931
G01 X18.2300 Y5.3052
G00 Z0.6000
G00 X18.2348 Y5.3084
G01 F60.00
G01 Z-0.1996
G01 F120.00
G01 X18.2427 Y5.3016
G00 Z0.6000
G00 X18.3290 Y5.3860
G01 F60.00
G01 Z-0.1996
G01 F120.00
G01 X18.3370 Y5.3798
G00 Z0.6000
G00 X18.4054 Y5.4785
G01 F60.00
G01 Z-0.1996
G01 F120.00
G01 X18.4150 Y5.4716
G01 X18.4225 Y5.4669
G01 X18.4371 Y5.4590
G00 Z0.6000
G00 X18.4650 Y5.5882
G01 F60.00
G01 Z-0.1996
G01 F120.00
G01 X18.4696 Y5.5821
G01 X18.4747 Y5.5768
G01 X18.4805 Y5.5722
G01 X18.4867 Y5.5684
G01 X18.4934 Y5.5653
G01 X18.5004 Y5.5631
G01 X18.5077 Y5.5617
G01 X18.5150 Y5.5613
G01 X18.5223 Y5.5617
G01 X18.5296 Y5.5631
G01 X18.5366 Y5.5653
G01 X18.5433 Y5.5684
G01 X18.5495 Y5.5722
G01 X18.5553 Y5.5768
G01 X18.5604 Y5.5821
G01 X18.5650 Y5.5882
G00 Z0.6000
G00 X18.5354 Y5.6777
G01 F60.00
G01 Z-0.1996
G01 F120.00
G01 X18.5253 Y5.6804
G01 X18.5150 Y5.6813
G01 X18.5047 Y5.6804
G01 X18.4946 Y5.6777
G00 Z0.6000
G00 X18.5135 Y5.8013
G01 F60.00
G01 Z-0.1996
G01 F120.00
G01 X18.5165 Y5.8013
G00 Z0.6000
G00 X18.5150 Y5.9213
G01 F60.00
G01 Z-0.1996
G01 F120.00
G01 X18.5150 Y5.9213
G00 Z0.6000
G00 X18.6246 Y5.4785
G01 F60.00
G01 Z-0.1996
G01 F120.00
G01 X18.6150 Y5.4716
G01 X18.6075 Y5.4669
G01 X18.5999 Y5.4625
G01 X18.5884 Y5.4569
G00 Z0.6000
G00 X18.6930 Y5.3798
G01 F60.00
G01 Z-0.1996
G01 F120.00
G01 X18.7010 Y5.3860
G00 Z0.6000
G00 X18.7873 Y5.3016
G01 F60.00
G01 Z-0.1996
G01 F120.00
G01 X18.7952 Y5.3084
G00 Z0.6000
G00 X19.5836 Y5.3719
G01 F60.00
G01 Z-0.1996
G01 F120.00
G01 X19.6054 Y5.3782
G00 Z0.6000
G00 X19.7086 Y5.5331
G01 F60.00
G01 Z-0.1996
G01 F120.00
G01 X19.8427 Y5.5719
G01 X19.8644 Y5.4533
G01 X19.9046 Y5.4650
G01 X19.9793 Y5.3628
G01 X19.9920 Y5.3668
G00 Z0.6000
G00 X19.7636 Y5.6739
G01 F60.00
G01 Z-0.1996
G01 F120.00
G01 X19.8035 Y5.6855
G00 Z0.6000
G00 X19.7836 Y5.8047
G01 F60.00
G01 Z-0.1996
G01 F120.00
G01 X19.7863 Y5.8055
G00 Z0.6000
G00 X19.7850 Y5.9306
G01 F60.00
G01 Z-0.1996
G01 F120.00
G01 X19.7850 Y6.6858
G00 Z0.6000
G00 X19.7829 Y6.8110
G01 F60.00
G01 Z-0.1996
G01 F120.00
G01 X19.7872 Y6.8124
G00 Z0.6000
G00 X19.7625 Y6.9304
G01 F60.00
G01 Z-0.1996
G01 F120.00
G01 X19.7896 Y6.9390
G01 X19.8115 Y6.9465
G01 X19.7203 Y7.0429
G01 X19.7520 Y7.0529
G01 X19.8793 Y7.0967
G00 Z0.6000
G00 X19.9785 Y7.2578
G01 F60.00
G01 Z-0.1996
G01 F120.00
G01 X20.0110 Y7.2689
G01 X20.0583 Y7.2865
G01 X20.0370 Y7.4066
G01 X19.9936 Y7.3905
G00 Z0.6000
G00 X19.9437 Y7.5000
G01 F60.00
G01 Z-0.1996
G01 F120.00
G01 X19.9334 Y7.4961
G01 X19.8496 Y7.5941
G01 X19.8390 Y7.5905
G01 X19.7552 Y7.6885
G01 X19.7446 Y7.6849
G01 X19.6607 Y7.7829
G01 X19.6502 Y7.7793
G01 X19.5663 Y7.8773
G01 X19.5558 Y7.8737
G01 X19.4719 Y7.9717
G01 X19.4614 Y7.9681
G01 X19.3768 Y8.0669
G01 X19.3660 Y8.0635
G01 X19.2812 Y8.1625
G01 X19.2704 Y8.1591
G01 X19.1856 Y8.2581
G01 X19.1749 Y8.2547
G01 X19.0900 Y8.3537
G01 X19.0793 Y8.3502
G01 X18.9944 Y8.4493
G01 X18.9834 Y8.4461
G01 X18.8975 Y8.5461
G01 X18.8865 Y8.5430
G01 X18.8007 Y8.6430
G01 X18.7897 Y8.6398
G01 X18.7038 Y8.7398
G01 X18.6929 Y8.7367
G01 X18.6070 Y8.8367
G01 X18.5959 Y8.8336
G01 X18.5089 Y8.9348
G01 X18.4977 Y8.9318
G01 X18.4107 Y9.0330
G01 X18.3995 Y9.0301
G01 X18.3125 Y9.1312
G01 X18.3013 Y9.1283
G01 X18.2140 Y9.2297
G01 X18.2025 Y9.2270
G01 X18.1143 Y9.3294
G01 X18.1029 Y9.3266
G01 X18.0146 Y9.4290
G01 X18.0032 Y9.4263
G01 X17.9150 Y9.5287
G01 X17.9036 Y9.5260
G01 X17.8141 Y9.6296
G01 X17.8024 Y9.6271
G01 X17.7128 Y9.7308
G01 X17.7012 Y9.7283
G01 X17.6116 Y9.8320
G01 X17.5999 Y9.8296
G01 X17.5092 Y9.9345
G01 X17.4973 Y9.9323
G01 X17.4063 Y10.0374
G01 X17.3944 Y10.0351
G01 X17.3034 Y10.1403
G01 X17.2914 Y10.1381
G01 X17.1989 Y10.2448
G01 X17.1867 Y10.2428
G01 X17.0942 Y10.3495
G01 X17.0820 Y10.3475
G01 X16.9889 Y10.4548
G01 X16.9764 Y10.4531
G01 X16.8823 Y10.5614
G01 X16.8698 Y10.5597
G01 X16.7757 Y10.6680
G01 X16.7630 Y10.6665
G01 X16.6671 Y10.7766
G01 X16.6544 Y10.7751
G01 X16.5584 Y10.8852
G01 X16.5457 Y10.8838
G01 X16.4481 Y10.9956
G01 X16.4351 Y10.9945
G01 X16.3372 Y11.1065
G01 X16.3242 Y11.1053
G01 X16.2246 Y11.2191
G01 X16.2112 Y11.2183
G01 X16.1113 Y11.3324
G01 X16.0980 Y11.3315
G01 X15.9958 Y11.4478
G01 X15.9822 Y11.4473
G01 X15.8797 Y11.5640
G01 X15.8657 Y11.5638
G01 X15.7611 Y11.6825
G01 X15.7471 Y11.6824
G01 X15.6410 Y11.8027
G01 X15.6267 Y11.8028
G01 X15.5194 Y11.9243
G01 X15.5047 Y11.9248
G01 X15.3947 Y12.0489
G01 X15.3800 Y12.0495
G01 X15.2678 Y12.1758
G01 X15.2528 Y12.1768
G01 X15.1384 Y12.3052
G01 X15.1229 Y12.3066
G01 X15.0060 Y12.4377
G01 X14.9901 Y12.4394
G01 X14.8701 Y12.5736
G01 X14.8537 Y12.5758
G01 X14.7299 Y12.7137
G01 X14.7131 Y12.7164
G01 X14.5851 Y12.8586
G01 X14.5677 Y12.8618
G01 X14.4345 Y13.0091
G01 X14.4166 Y13.0129
G01 X14.2774 Y13.1663
G01 X14.2588 Y13.1707
G01 X14.1125 Y13.3312
G01 X14.0933 Y13.3362
G00 Z0.6000
G00 X13.9383 Y13.5054
G01 F60.00
G01 Z-0.1996
G01 F120.00
G01 X13.9176 Y13.5119
G01 X13.7599 Y13.6900
G01 X13.7376 Y13.6976
G01 X13.6418 Y13.8604
G01 X13.6255 Y13.8664
G00 Z0.6000
G00 X13.5692 Y14.0177
G01 F60.00
G01 Z-0.1996
G01 F120.00
G01 X13.5547 Y14.0236
G01 X13.5254 Y14.1658
G01 X13.5118 Y14.1716
G00 Z0.6000
G00 X13.5040 Y14.3055
G01 F60.00
G01 Z-0.1996
G01 F120.00
G01 X13.4896 Y14.3118
G01 X13.4995 Y14.4392
G01 X13.4895 Y14.4438
G01 X13.4995 Y14.5712
G01 X13.4895 Y14.5758
G01 X13.4995 Y14.7039
G01 X13.4895 Y14.7088
G01 X13.4995 Y14.8375
G01 X13.4895 Y14.8423
G01 X13.4995 Y14.9716
G01 X13.4895 Y14.9768
G01 X13.4995 Y15.1068
G01 X13.4895 Y15.1120
G01 X13.4995 Y15.2429
G01 X13.4895 Y15.2484
G01 X13.4995 Y15.3798
G01 X13.4895 Y15.3853
G01 X13.4995 Y15.5183
G01 X13.4895 Y15.5242
G01 X13.4995 Y15.6578
G01 X13.4895 Y15.6639
G01 X13.4995 Y15.7987
G01 X13.4895 Y15.8049
G01 X13.4995 Y15.9415
G01 X13.4895 Y15.9480
G01 X13.4995 Y16.0861
G01 X13.4895 Y16.0929
G01 X13.4995 Y16.2327
G01 X13.4895 Y16.2399
G01 X13.4995 Y16.3817
G01 X13.4895 Y16.3893
G01 X13.4995 Y16.5336
G01 X13.4895 Y16.5416
G01 X13.4995 Y16.6888
G01 X13.4895 Y16.6972
G01 X13.4995 Y16.8478
G01 X13.4895 Y16.8566
G01 X13.4995 Y17.0117
G01 X13.4895 Y17.0215
G01 X13.4995 Y17.1814
G01 X13.4895 Y17.1917
G01 X13.4995 Y17.3587
G01 X13.4895 Y17.3700
G01 X13.4995 Y17.5455
G01 X13.4895 Y17.5580
G01 X13.4995 Y17.7451
G01 X13.4895 Y17.7596
G01 X13.4995 Y17.9642
G01 X13.4895 Y17.9807
G01 X13.4995 Y18.2136
G01 X13.4895 Y18.2341
G01 X13.4995 Y18.5216
G01 X13.4895 Y18.5507
G01 X13.4995 Y19.0544
G01 X13.4962 Y19.0843
G01 X13.4915 Y19.1385
G01 X13.4895 Y19.1714
G01 X13.4895 Y19.4324
G01 X13.4915 Y19.4652
G01 X13.4962 Y19.5195
G01 X13.4995 Y19.5493
G01 X13.4895 Y20.0530
G01 X13.4995 Y20.0821
G01 X13.4895 Y20.3697
G01 X13.4995 Y20.3901
G01 X13.4895 Y20.6230
G01 X13.4995 Y20.6395
G01 X13.4895 Y20.8441
G01 X13.4995 Y20.8586
G01 X13.4895 Y21.0457
G01 X13.4995 Y21.0582
G01 X13.4895 Y21.2337
G01 X13.4995 Y21.2450
G01 X13.4895 Y21.4121
G01 X13.4995 Y21.4223
G01 X13.4895 Y21.5823
G01 X13.4995 Y21.5920
G01 X13.4895 Y21.7471
G01 X13.4995 Y21.7560
G01 X13.4895 Y21.9065
G01 X13.4995 Y21.9150
G01 X13.4895 Y22.0621
G01 X13.4995 Y22.0701
G01 X13.4895 Y22.2144
G01 X13.4995 Y22.2220
G01 X13.4895 Y22.3638
G01 X13.4995 Y22.3711
G01 X13.4895 Y22.5108
G01 X13.4995 Y22.5176
G01 X13.4895 Y22.6557
G01 X13.4995 Y22.6622
G01 X13.4895 Y22.7988
G01 X13.4995 Y22.8050
G01 X13.4895 Y22.9398
G01 X13.4995 Y22.9460
G01 X13.4895 Y23.0796
G01 X13.4995 Y23.0854
G01 X13.4895 Y23.2184
G01 X13.4995 Y23.2239
G01 X13.4895 Y23.3553
G01 X13.4995 Y23.3608
G01 X13.4895 Y23.4917
G01 X13.4995 Y23.4969
G01 X13.4895 Y23.6269
G01 X13.4995 Y23.6321
G01 X13.4895 Y23.7614
G01 X13.4995 Y23.7663
G01 X13.4895 Y23.8949
G01 X13.4995 Y23.8998
G01 X13.4895 Y24.0279
G01 X13.4995 Y24.0325
G01 X13.4895 Y24.1599
G01 X13.4995 Y24.1645
G01 X13.4895 Y24.2919
G01 X13.4995 Y24.2963
G01 X13.4895 Y24.4225
G01 X13.4995 Y24.4268
G01 X13.4895 Y24.5531
G01 X13.4995 Y24.5574
G01 X13.4895 Y24.6833
G01 X13.4995 Y24.6873
G01 X13.4895 Y24.8126
G01 X13.4995 Y24.8166
G01 X13.4895 Y24.9418
G01 X13.4995 Y24.9458
G01 X13.4895 Y25.0708
G01 X13.4995 Y25.0745
G01 X13.4895 Y25.1988
G01 X13.4995 Y25.2025
G01 X13.4895 Y25.3268
G01 X13.4995 Y25.3305
G01 X13.4895 Y25.4548
G01 X13.4995 Y25.4585
G01 X13.4895 Y25.5821
G01 X13.4995 Y25.5855
G01 X13.4895 Y25.7090
G01 X13.4995 Y25.7124
G01 X13.4895 Y25.8359
G01 X13.4995 Y25.8393
G01 X13.4895 Y25.9628
G01 X13.4995 Y25.9662
G01 X13.4895 Y26.0890
G01 X13.4995 Y26.0922
G01 X13.4895 Y26.2149
G01 X13.4995 Y26.2180
G01 X13.4895 Y26.3407
G01 X13.4995 Y26.3439
G01 X13.4895 Y26.4666
G01 X13.4995 Y26.4698
G01 X13.4895 Y26.5925
G01 X13.4995 Y26.5955
G01 X13.4895 Y26.7175
G01 X13.4995 Y26.7204
G01 X13.4895 Y26.8424
G01 X13.4995 Y26.8453
G01 X13.4895 Y26.9674
G01 X13.4995 Y26.9703
G01 X13.4895 Y27.0923
G01 X13.4995 Y27.0952
G01 X13.4895 Y27.2173
G01 X13.4995 Y27.2202
G01 X13.4895 Y27.3420
G01 X13.4995 Y27.3446
G01 X13.4895 Y27.4661
G01 X13.4995 Y27.4687
G01 X13.4895 Y27.5901
G01 X13.4995 Y27.5928
G01 X13.4895 Y27.7142
G01 X13.4995 Y27.7169
G01 X13.4895 Y27.8383
G01 X13.4995 Y27.8410
G01 X13.4895 Y27.9624
G01 X13.4995 Y27.9650
G01 X13.4895 Y28.0865
G01 X13.4995 Y28.0891
G01 X13.4895 Y28.2102
G01 X13.4995 Y28.2126
G01 X13.4895 Y28.3335
G01 X13.4995 Y28.3359
G01 X13.4895 Y28.4569
G01 X13.4995 Y28.4592
G01 X13.4895 Y28.5802
G01 X13.4995 Y28.5826
G01 X13.4895 Y28.7035
G01 X13.4995 Y28.7059
G01 X13.4895 Y28.8268
G01 X13.4995 Y28.8292
G01 X13.4895 Y28.9502
G01 X13.4995 Y28.9526
G01 X13.4895 Y29.0735
G01 X13.4995 Y29.0759
G01 X13.4895 Y29.1967
G01 X13.4995 Y29.1988
G01 X13.4895 Y29.3193
G01 X13.4995 Y29.3215
G01 X13.4895 Y29.4420
G01 X13.4995 Y29.4441
G01 X13.4895 Y29.5646
G01 X13.4995 Y29.5668
G01 X13.4895 Y29.6873
G01 X13.4995 Y29.6894
G01 X13.4895 Y29.8099
G01 X13.4995 Y29.8121
G01 X13.4895 Y29.9326
G01 X13.4995 Y29.9347
G01 X13.4895 Y30.0552
G01 X13.4995 Y30.0574
G01 X13.4895 Y30.1779
G01 X13.4995 Y30.1800
G01 X13.4895 Y30.3005
G01 X13.4995 Y30.3027
G01 X13.4895 Y30.4232
G01 X13.4995 Y30.4251
G01 X13.4895 Y30.5453
G01 X13.4995 Y30.5472
G01 X13.4895 Y30.6674
G01 X13.4995 Y30.6693
G01 X13.4895 Y30.7894
G01 X13.4995 Y30.7913
G01 X13.4895 Y30.9115
G01 X13.4995 Y30.9134
G01 X13.4895 Y31.0335
G01 X13.4995 Y31.0354
G01 X13.4895 Y31.1556
G01 X13.4995 Y31.1575
G01 X13.4895 Y31.2777
G01 X13.4995 Y31.2795
G01 X13.4895 Y31.3997
G01 X13.4995 Y31.4016
G01 X13.4895 Y31.5218
G01 X13.4995 Y31.5236
G01 X13.4895 Y31.6438
G01 X13.4995 Y31.6457
G01 X13.4895 Y31.7659
G01 X13.4995 Y31.7677
G01 X13.4895 Y31.8879
G01 X13.4995 Y31.8898
G01 X13.4895 Y32.0100
G01 X13.4995 Y32.0118
G01 X13.4895 Y32.1318
G01 X13.4995 Y32.1334
G01 X13.4895 Y32.2533
G01 X13.4995 Y32.2549
G01 X13.4895 Y32.3748
G01 X13.4995 Y32.3765
G01 X13.4895 Y32.4964
G01 X13.4995 Y32.4980
G01 X13.4895 Y32.6179
G01 X13.4995 Y32.6195
G01 X13.4895 Y32.7394
G01 X13.4995 Y32.7411
G01 X13.4895 Y32.8610
G01 X13.4995 Y32.8626
G01 X13.4895 Y32.9825
G01 X13.4995 Y32.9841
G01 X13.4895 Y33.1040
G01 X13.4995 Y33.1057
G01 X13.4895 Y33.2256
G01 X13.4995 Y33.2272
G01 X13.4895 Y33.3471
G01 X13.4995 Y33.3487
G01 X13.4895 Y33.4687
G01 X13.4995 Y33.4703
G01 X13.4895 Y33.5902
G01 X13.4995 Y33.5918
G01 X13.4895 Y33.7117
G01 X13.4995 Y33.7133
G01 X13.4895 Y33.8333
G01 X13.4995 Y33.8349
G01 X13.4895 Y33.9548
G01 X13.4995 Y33.9564
G01 X13.4895 Y34.0763
G01 X13.4995 Y34.0779
G01 X13.4895 Y34.1979
G01 X13.4995 Y34.1994
G01 X13.4895 Y34.3191
G01 X13.4995 Y34.3205
G01 X13.4895 Y34.4402
G01 X13.4995 Y34.4416
G01 X13.4895 Y34.5613
G01 X13.4995 Y34.5626
G01 X13.4895 Y34.6824
G01 X13.4995 Y34.6837
G01 X13.4895 Y34.8035
G01 X13.4995 Y34.8048
G01 X13.4895 Y34.9246
G01 X13.4995 Y34.9259
G01 X13.4895 Y35.0457
G01 X13.4995 Y35.0470
G01 X13.4895 Y35.1668
G01 X13.4995 Y35.1681
G01 X13.4895 Y35.2878
G01 X13.4995 Y35.2892
G01 X13.4895 Y35.4089
G01 X13.4995 Y35.4103
G01 X13.4895 Y35.5300
G01 X13.4995 Y35.5314
G01 X13.4895 Y35.6511
G01 X13.4995 Y35.6525
G01 X13.4895 Y35.7722
G01 X13.4995 Y35.7736
G01 X13.4895 Y35.8933
G01 X13.4995 Y35.8947
G01 X13.4895 Y36.0144
G01 X13.4995 Y36.0158
G01 X13.4895 Y36.1355
G01 X13.4995 Y36.1369
G01 X13.4895 Y36.2566
G01 X13.4995 Y36.2579
G00 Z0.6000
G00 X13.4673 Y36.3747
G01 F60.00
G01 Z-0.1996
G01 F120.00
G01 X13.4995 Y36.3790
G01 X13.4995 Y36.5001
G01 X13.3513 Y36.4800
G01 X13.4995 Y36.5123
G01 X13.4995 Y14.4000
G01 X13.5044 Y14.2970
G01 X13.5054 Y14.2873
G01 X13.5206 Y14.1853
G01 X13.5469 Y14.0805
G01 X13.5833 Y13.9789
G01 X13.6272 Y13.8856
G01 X13.6319 Y13.8770
G01 X13.6850 Y13.7886
G01 X13.7463 Y13.7057
G01 X13.7525 Y13.6981
G01 X13.8201 Y13.6236
G01 X20.1194 Y7.3243
G01 X20.0714 Y7.2956
G01 X20.0632 Y7.2902
G01 X20.0172 Y7.2559
G01 X19.9745 Y7.2174
G01 X19.9676 Y7.2105
G01 X19.9291 Y7.1678
G01 X19.8920 Y7.1178
G01 X19.8624 Y7.0686
G01 X19.8578 Y7.0600
G01 X19.8333 Y7.0080
G01 X19.8139 Y6.9540
G01 X19.8110 Y6.9446
G01 X19.7972 Y6.8889
G01 X19.7887 Y6.8321
G01 X19.7878 Y6.8248
G01 X19.7850 Y6.7650
G01 X19.7850 Y5.8350
G01 X19.7877 Y5.7777
G01 X19.7883 Y5.7703
G01 X19.7972 Y5.7111
G01 X19.8123 Y5.6507
G01 X19.8333 Y5.5920
G01 X19.8578 Y5.5400
G01 X19.8624 Y5.5314
G01 X19.8894 Y5.4864
G01 X19.8948 Y5.4782
G01 X19.9291 Y5.4322
G01 X19.9676 Y5.3895
G01 X19.9745 Y5.3826
G01 X20.0172 Y5.3441
G01 X20.0632 Y5.3098
G01 X20.0714 Y5.3044
G01 X20.1207 Y5.2750
G01 X20.1725 Y5.2503
G01 X20.1816 Y5.2466
G01 X20.2310 Y5.2289
G01 X20.2404 Y5.2260
G01 X20.2961 Y5.2122
G01 X20.3578 Y5.2031
G01 X20.4200 Y5.2000
G01 X20.4822 Y5.2031
G01 X20.5439 Y5.2122
G01 X20.5996 Y5.2260
G01 X20.6090 Y5.2289
G01 X20.6584 Y5.2466
G01 X20.6675 Y5.2503
G01 X20.7193 Y5.2750
G01 X20.7686 Y5.3044
G01 X20.7768 Y5.3098
G01 X20.8228 Y5.3441
G01 X20.8690 Y5.3860
G01 X20.9109 Y5.4322
G01 X20.9452 Y5.4782
G01 X20.9507 Y5.4865
G01 X20.9938 Y5.4478
G01 X21.0746 Y5.3878
G01 X21.0807 Y5.3836
G01 X21.1712 Y5.3294
G01 X21.2644 Y5.2853
G01 X21.2711 Y5.2824
G01 X21.3705 Y5.2469
G01 X21.4753 Y5.2206
G01 X21.5821 Y5.2048
G01 X21.6851 Y5.1996
G01 X21.6949 Y5.1996
G01 X21.7979 Y5.2048
G01 X21.9047 Y5.2206
G01 X22.0095 Y5.2469
G01 X22.1089 Y5.2824
G01 X22.1156 Y5.2853
G01 X22.2088 Y5.3294
G01 X22.2993 Y5.3836
G01 X22.3054 Y5.3878
G01 X22.3862 Y5.4478
G01 X22.4293 Y5.4865
G01 X22.4348 Y5.4782
G01 X22.4661 Y5.4360
G01 X22.4723 Y5.4284
G01 X22.5110 Y5.3860
G01 X22.5572 Y5.3441
G01 X22.6072 Y5.3070
G01 X22.6564 Y5.2774
G01 X22.6650 Y5.2728
G01 X22.7125 Y5.2503
G01 X22.7216 Y5.2466
G01 X22.7757 Y5.2273
G01 X22.8361 Y5.2122
G01 X22.8978 Y5.2031
G01 X22.9551 Y5.2001
G01 X22.9649 Y5.2001
G01 X23.0173 Y5.2027
G01 X23.0271 Y5.2037
G01 X23.0839 Y5.2122
G01 X23.1443 Y5.2273
G01 X23.1984 Y5.2466
G01 X23.2075 Y5.2503
G01 X23.2593 Y5.2750
G01 X23.3128 Y5.3070
G01 X23.3590 Y5.3411
G01 X23.3666 Y5.3473
G01 X23.4090 Y5.3860
G01 X23.4477 Y5.4284
G01 X23.4539 Y5.4360
G01 X23.4852 Y5.4782
G01 X23.4906 Y5.4864
G01 X23.5200 Y5.5357
G01 X23.5447 Y5.5875
G01 X23.5484 Y5.5966
G01 X23.5677 Y5.6507
G01 X23.5817 Y5.7063
G01 X23.5836 Y5.7160
G01 X23.5919 Y5.7728
G01 X23.5950 Y5.8350
G01 X23.5950 Y6.7650
G01 X23.5919 Y6.8272
G01 X23.5836 Y6.8840
G01 X23.5817 Y6.8937
G01 X23.5677 Y6.9493
G01 X23.5467 Y7.0080
G01 X23.5222 Y7.0600
G01 X23.5176 Y7.0686
G01 X23.4880 Y7.1178
G01 X23.4524 Y7.1659
G01 X23.4477 Y7.1716
G01 X23.4090 Y7.2140
G01 X23.3628 Y7.2559
G01 X23.3128 Y7.2930
G01 X23.2593 Y7.3250
G01 X23.2030 Y7.3517
G01 X23.1443 Y7.3727
G01 X23.0839 Y7.3878
G01 X23.0271 Y7.3963
G01 X23.0173 Y7.3973
G01 X22.9600 Y7.4000
G01 X22.8978 Y7.3969
G01 X22.8361 Y7.3878
G01 X22.7804 Y7.3740
G01 X22.7710 Y7.3711
G01 X22.7170 Y7.3517
G01 X22.6650 Y7.3272
G01 X22.6564 Y7.3226
G01 X22.6114 Y7.2956
G01 X22.6005 Y7.2882
G01 X22.6005 Y7.5025
G01 X22.5952 Y7.6079
G01 X22.5794 Y7.7147
G01 X22.5544 Y7.8147
G01 X22.5524 Y7.8218
G01 X22.5167 Y7.9211
G01 X22.4728 Y8.0144
G01 X22.4681 Y8.0230
G01 X22.4150 Y8.1114
G01 X22.3537 Y8.1943
G01 X22.3475 Y8.2019
G01 X22.2816 Y8.2746
G01 X15.7005 Y14.8558
G01 X15.7005 Y23.8204
G01 X15.7903 Y23.8431
G01 X15.8827 Y23.8761
G01 X15.9714 Y23.9181
G01 X16.0514 Y23.9659
G01 X16.0596 Y23.9714
G01 X16.1305 Y24.0240
G01 X16.1381 Y24.0302
G01 X16.2071 Y24.0929
G01 X16.2730 Y24.1656
G01 X16.3315 Y24.2444
G01 X16.3819 Y24.3286
G01 X16.4239 Y24.4173
G01 X16.4554 Y24.5051
G01 X16.4582 Y24.5144
G01 X16.4797 Y24.6001
G01 X16.4816 Y24.6097
G01 X16.4952 Y24.7020
G01 X16.5000 Y24.8000
G01 X16.4952 Y24.8980
G01 X16.4808 Y24.9951
G01 X16.4569 Y25.0903
G01 X16.4256 Y25.1781
G01 X16.4219 Y25.1872
G01 X16.3841 Y25.2670
G01 X16.3795 Y25.2757
G01 X16.3315 Y25.3556
G01 X16.2730 Y25.4344
G01 X16.2071 Y25.5071
G01 X16.1381 Y25.5698
G01 X16.1305 Y25.5760
G01 X16.0596 Y25.6286
G01 X16.0514 Y25.6341
G01 X15.9714 Y25.6819
G01 X15.8827 Y25.7239
G01 X15.7903 Y25.7569
G01 X15.7005 Y25.7796
G01 X15.7005 Y26.8204
G01 X15.7903 Y26.8431
G01 X15.8827 Y26.8761
G01 X15.9714 Y26.9181
G01 X16.0514 Y26.9659
G01 X16.0596 Y26.9714
G01 X16.1305 Y27.0240
G01 X16.1381 Y27.0302
G01 X16.2071 Y27.0929
G01 X16.2730 Y27.1656
G01 X16.3315 Y27.2444
G01 X16.3819 Y27.3286
G01 X16.4239 Y27.4173
G01 X16.4554 Y27.5051
G01 X16.4582 Y27.5144
G01 X16.4797 Y27.6001
G01 X16.4816 Y27.6097
G01 X16.4952 Y27.7020
G01 X16.5000 Y27.8000
G01 X16.4952 Y27.8980
G01 X16.4808 Y27.9951
G01 X16.4569 Y28.0903
G01 X16.4256 Y28.1781
G01 X16.4219 Y28.1872
G01 X16.3841 Y28.2670
G01 X16.3795 Y28.2757
G01 X16.3315 Y28.3556
G01 X16.2730 Y28.4344
G01 X16.2071 Y28.5071
G01 X16.1381 Y28.5698
G01 X16.1305 Y28.5760
G01 X16.0596 Y28.6286
G01 X16.0514 Y28.6341
G01 X15.9714 Y28.6819
G01 X15.8827 Y28.7239
G01 X15.7903 Y28.7569
G01 X15.7005 Y28.7796
G01 X15.7005 Y36.5183
G01 X15.7920 Y36.5048
G01 X15.8851 Y36.5001
G01 X15.8949 Y36.5001
G01 X15.9880 Y36.5048
G01 X16.0803 Y36.5184
G01 X16.0899 Y36.5203
G01 X16.1803 Y36.5431
G01 X16.2681 Y36.5744
G01 X16.2772 Y36.5781
G01 X16.3614 Y36.6181
G01 X16.4414 Y36.6659
G01 X16.4496 Y36.6714
G01 X16.5244 Y36.7270
G01 X16.5936 Y36.7895
G01 X16.6005 Y36.7964
G01 X16.6630 Y36.8656
G01 X16.7186 Y36.9404
G01 X16.7241 Y36.9486
G01 X16.7719 Y37.0286
G01 X16.8119 Y37.1128
G01 X16.8156 Y37.1219
G01 X16.8469 Y37.2097
G01 X16.8697 Y37.3001
G01 X16.8716 Y37.3097
G01 X16.8852 Y37.4020
G01 X16.8899 Y37.4951
G01 X16.8899 Y37.5049
G01 X16.8852 Y37.5980
G01 X16.8716 Y37.6903
G01 X16.8697 Y37.6999
G01 X16.8469 Y37.7903
G01 X16.8139 Y37.8827
G01 X16.7741 Y37.9670
G01 X16.7695 Y37.9757
G01 X16.7215 Y38.0556
G01 X16.6660 Y38.1305
G01 X16.6598 Y38.1381
G01 X16.5971 Y38.2071
G01 X16.5281 Y38.2698
G01 X16.5205 Y38.2760
G01 X16.4456 Y38.3315
G01 X16.3657 Y38.3795
G01 X16.3570 Y38.3841
G01 X16.2727 Y38.4239
G01 X16.1849 Y38.4554
G01 X16.1756 Y38.4582
G01 X16.0851 Y38.4808
G01 X15.9929 Y38.4946
G01 X15.9831 Y38.4955
G01 X15.8900 Y38.5000
G01 X15.7969 Y38.4955
G01 X15.7871 Y38.4946
G01 X15.6997 Y38.4816
G01 X15.6901 Y38.4797
G01 X15.5997 Y38.4569
G01 X15.5119 Y38.4256
G01 X15.5028 Y38.4219
G01 X15.4186 Y38.3819
G01 X15.3344 Y38.3315
G01 X15.2556 Y38.2730
G01 X15.1864 Y38.2105
G01 X15.1766 Y38.2003
G01 X14.0634 Y38.2003
G01 X14.0536 Y38.2105
G01 X13.9881 Y38.2698
G01 X13.9805 Y38.2760
G01 X13.9056 Y38.3315
G01 X13.8257 Y38.3795
G01 X13.8170 Y38.3841
G01 X13.7327 Y38.4239
G01 X13.6403 Y38.4569
G01 X13.5451 Y38.4808
G01 X13.4480 Y38.4952
G01 X13.3549 Y38.4999
G01 X13.3451 Y38.4999
G01 X13.2520 Y38.4952
G01 X13.1597 Y38.4816
G01 X13.1501 Y38.4797
G01 X13.0597 Y38.4569
G01 X12.9673 Y38.4239
G01 X12.8786 Y38.3819
G01 X12.7944 Y38.3315
G01 X12.7156 Y38.2730
G01 X12.6464 Y38.2105
G01 X12.6395 Y38.2036
G01 X12.5770 Y38.1344
G01 X12.5214 Y38.0596
G01 X12.5159 Y38.0514
G01 X12.4705 Y37.9757
G01 X12.4659 Y37.9670
G01 X12.4261 Y37.8827
G01 X12.3931 Y37.7903
G01 X12.3692 Y37.6951
G01 X12.3548 Y37.5980
G01 X12.3500 Y37.5000
G01 X12.3548 Y37.4020
G01 X12.3692 Y37.3049
G01 X12.3924 Y37.2121
G01 X12.3946 Y37.2051
G01 X12.4261 Y37.1173
G01 X12.4659 Y37.0330
G01 X12.4705 Y37.0243
G01 X12.5159 Y36.9486
G01 X12.5214 Y36.9404
G01 X12.5770 Y36.8656
G01 X12.6429 Y36.7929
G01 X12.7156 Y36.7270
G01 X12.7904 Y36.6714
G01 X12.7965 Y36.6672
G01 X12.8786 Y36.6181
G01 X12.9673 Y36.5761
G01 X13.0597 Y36.5431
G01 X13.1525 Y36.5197
G01 X13.1597 Y36.5184
G01 X13.2520 Y36.5048
G01 X13.3475 Y36.5000
G01 X13.3549 Y36.5001
G01 X13.4456 Y36.5046
G01 X13.4995 Y36.5123
G00 Z0.6000
G00 X13.1134 Y36.5144
G01 F60.00
G01 Z-0.1996
G01 F120.00
G01 X12.9621 Y36.5635
G01 X12.8204 Y36.6357
G01 X12.6917 Y36.7292
G01 X12.5792 Y36.8417
G01 X12.4857 Y36.9704
G01 X12.4135 Y37.1121
G01 X12.3644 Y37.2634
G01 X12.3395 Y37.4205
G01 X12.3395 Y37.5795
G01 X12.3644 Y37.7366
G01 X12.4135 Y37.8879
G01 X12.4857 Y38.0296
G01 X12.5792 Y38.1583
G01 X12.6917 Y38.2708
G01 X12.8204 Y38.3643
G01 X12.9621 Y38.4365
G01 X13.1134 Y38.4856
G01 X13.2705 Y38.5105
G01 X13.4295 Y38.5105
G01 X13.5866 Y38.4856
G01 X13.7379 Y38.4365
G01 X13.8796 Y38.3643
G01 X14.0083 Y38.2708
G01 X14.0138 Y38.2654
G01 X14.0193 Y38.2608
G01 X14.0252 Y38.2565
G01 X14.0313 Y38.2527
G01 X14.0945 Y38.2205
G01 X14.1060 Y38.2162
G01 X14.1179 Y38.2133
G01 X14.1277 Y38.2120
G01 X14.1510 Y38.2105
G01 X15.0914 Y38.2105
G01 X15.0987 Y38.2110
G01 X15.1058 Y38.2119
G01 X15.1176 Y38.2147
G01 X15.1804 Y38.2351
G01 X15.1895 Y38.2388
G01 X15.1961 Y38.2422
G01 X15.2023 Y38.2460
G01 X15.2103 Y38.2518
G01 X15.2259 Y38.2652
G01 X15.2317 Y38.2708
G01 X15.3604 Y38.3643
G01 X15.5021 Y38.4365
G01 X15.6534 Y38.4856
G01 X15.8105 Y38.5105
G01 X15.9695 Y38.5105
G01 X16.1266 Y38.4856
G01 X16.2779 Y38.4365
G01 X16.4196 Y38.3643
G01 X16.5483 Y38.2708
G01 X16.6608 Y38.1583
G01 X16.7543 Y38.0296
G01 X16.8265 Y37.8879
G01 X16.8756 Y37.7366
G01 X16.9005 Y37.5795
G01 X16.9005 Y37.4205
G01 X16.8756 Y37.2634
G01 X16.8265 Y37.1121
G01 X16.7544 Y36.9706
G01 X16.6608 Y36.8417
G01 X16.5483 Y36.7292
G01 X16.4196 Y36.6357
G01 X16.2779 Y36.5635
G01 X16.1266 Y36.5144
G01 X15.9695 Y36.4895
G01 X15.9071 Y36.4895
G01 X15.8998 Y36.4890
G01 X15.8927 Y36.4881
G01 X15.8809 Y36.4853
G01 X15.8204 Y36.4657
G01 X15.8136 Y36.4632
G01 X15.8070 Y36.4602
G01 X15.7985 Y36.4555
G01 X15.7906 Y36.4501
G01 X15.7832 Y36.4438
G01 X15.7765 Y36.4369
G01 X15.7704 Y36.4294
G01 X15.7344 Y36.3799
G01 X15.7290 Y36.3716
G01 X15.7255 Y36.3650
G01 X15.7225 Y36.3582
G01 X15.7200 Y36.3512
G01 X15.7180 Y36.3440
G01 X15.7117 Y36.3061
G01 X15.7106 Y36.2957
G01 X15.7105 Y28.9387
G01 X15.7110 Y28.9290
G01 X15.7124 Y28.9195
G01 X15.7147 Y28.9101
G01 X15.7343 Y28.8496
G01 X15.7377 Y28.8406
G01 X15.7432 Y28.8298
G01 X15.7499 Y28.8198
G01 X15.7578 Y28.8106
G01 X15.7649 Y28.8041
G01 X15.8201 Y28.7636
G01 X15.8261 Y28.7596
G01 X15.8324 Y28.7560
G01 X15.8390 Y28.7529
G01 X15.8457 Y28.7502
G01 X15.8879 Y28.7365
G01 X16.0296 Y28.6643
G01 X16.1583 Y28.5708
G01 X16.2708 Y28.4583
G01 X16.3643 Y28.3296
G01 X16.4365 Y28.1879
G01 X16.4856 Y28.0366
G01 X16.5105 Y27.8795
G01 X16.5105 Y27.7205
G01 X16.4856 Y27.5634
G01 X16.4365 Y27.4121
G01 X16.3643 Y27.2704
G01 X16.2708 Y27.1417
G01 X16.1583 Y27.0292
G01 X16.0296 Y26.9357
G01 X15.8879 Y26.8635
G01 X15.8457 Y26.8498
G01 X15.8390 Y26.8471
G01 X15.8324 Y26.8440
G01 X15.8261 Y26.8404
G01 X15.8201 Y26.8364
G01 X15.7706 Y26.8004
G01 X15.7613 Y26.7927
G01 X15.7530 Y26.7840
G01 X15.7471 Y26.7763
G01 X15.7420 Y26.7681
G01 X15.7368 Y26.7572
G01 X15.7147 Y26.6899
G01 X15.7119 Y26.6781
G01 X15.7106 Y26.6661
G01 X15.7105 Y25.9363
G01 X15.7115 Y25.9242
G01 X15.7140 Y25.9124
G01 X15.7343 Y25.8496
G01 X15.7377 Y25.8406
G01 X15.7420 Y25.8319
G01 X15.7485 Y25.8217
G01 X15.7546 Y25.8142
G01 X15.7613 Y25.8073
G01 X15.7706 Y25.7996
G01 X15.8201 Y25.7636
G01 X15.8282 Y25.7583
G01 X15.8368 Y25.7538
G01 X15.8434 Y25.7510
G01 X15.8879 Y25.7365
G01 X16.0296 Y25.6643
G01 X16.1583 Y25.5708
G01 X16.2708 Y25.4583
G01 X16.3643 Y25.3296
G01 X16.4365 Y25.1879
G01 X16.4856 Y25.0366
G01 X16.5105 Y24.8795
G01 X16.5105 Y24.7205
G01 X16.4856 Y24.5634
G01 X16.4365 Y24.4121
G01 X16.3643 Y24.2704
G01 X16.2708 Y24.1417
G01 X16.1583 Y24.0292
G01 X16.0296 Y23.9357
G01 X15.8879 Y23.8635
G01 X15.8457 Y23.8498
G01 X15.8390 Y23.8471
G01 X15.8324 Y23.8440
G01 X15.8261 Y23.8404
G01 X15.8201 Y23.8364
G01 X15.7706 Y23.8004
G01 X15.7613 Y23.7927
G01 X15.7530 Y23.7840
G01 X15.7471 Y23.7763
G01 X15.7420 Y23.7681
G01 X15.7368 Y23.7572
G01 X15.7147 Y23.6899
G01 X15.7124 Y23.6805
G01 X15.7108 Y23.6686
G01 X15.7105 Y23.6613
G01 X15.7105 Y14.9424
G01 X15.7108 Y14.9352
G01 X15.7115 Y14.9280
G01 X15.7140 Y14.9161
G01 X15.7351 Y14.8510
G01 X15.7378 Y14.8441
G01 X15.7410 Y14.8375
G01 X15.7474 Y14.8270
G01 X15.7534 Y14.8193
G01 X15.7688 Y14.8017
G01 X22.3470 Y8.2234
G01 X22.4498 Y8.0820
G01 X22.5291 Y7.9263
G01 X22.5832 Y7.7600
G01 X22.6111 Y7.5835
G01 X22.6120 Y7.5763
G01 X22.6146 Y7.5643
G01 X22.6177 Y7.5550
G01 X22.6215 Y7.5464
G01 X22.6351 Y7.5047
G01 X22.6387 Y7.4958
G01 X22.6432 Y7.4872
G01 X22.6485 Y7.4791
G01 X22.6546 Y7.4716
G01 X22.6613 Y7.4647
G01 X22.6706 Y7.4570
G01 X22.7263 Y7.4169
G01 X22.7350 Y7.4121
G01 X22.7441 Y7.4082
G01 X22.7535 Y7.4052
G01 X22.7632 Y7.4032
G01 X22.7730 Y7.4021
G01 X22.8229 Y7.3992
G01 X22.8306 Y7.3990
G01 X22.8382 Y7.3995
G01 X22.8458 Y7.4005
G01 X22.8964 Y7.4105
G01 X23.0236 Y7.4105
G01 X23.1483 Y7.3857
G01 X23.2658 Y7.3370
G01 X23.3715 Y7.2664
G01 X23.4546 Y7.1832
G01 X23.4599 Y7.1783
G01 X23.4676 Y7.1723
G01 X23.4736 Y7.1684
G01 X23.4800 Y7.1648
G01 X23.5388 Y7.1350
G01 X23.5455 Y7.1322
G01 X23.5524 Y7.1300
G01 X23.5595 Y7.1283
G01 X23.5666 Y7.1271
G01 X23.5787 Y7.1262
G01 X23.5907 Y7.1268
G01 X23.6584 Y7.1374
G01 X23.6656 Y7.1390
G01 X23.6751 Y7.1420
G01 X23.6820 Y7.1448
G01 X23.6908 Y7.1494
G01 X23.6991 Y7.1548
G01 X23.7241 Y7.1730
G01 X23.7323 Y7.1796
G01 X23.8188 Y7.2660
G01 X23.8800 Y7.3069
G01 X23.8800 Y7.2948
G01 X23.8732 Y7.2902
G01 X23.8272 Y7.2559
G01 X23.7845 Y7.2174
G01 X23.7793 Y7.2123
G01 X23.7391 Y7.1678
G01 X23.7020 Y7.1178
G01 X23.6700 Y7.0643
G01 X23.6433 Y7.0080
G01 X23.6223 Y6.9493
G01 X23.6072 Y6.8889
G01 X23.5981 Y6.8272
G01 X23.5950 Y6.7650
G01 X23.5950 Y5.8350
G01 X23.5981 Y5.7728
G01 X23.6064 Y5.7160
G01 X23.6083 Y5.7063
G01 X23.6223 Y5.6507
G01 X23.6416 Y5.5966
G01 X23.6453 Y5.5875
G01 X23.6700 Y5.5357
G01 X23.7020 Y5.4822
G01 X23.7361 Y5.4360
G01 X23.7407 Y5.4303
G01 X23.7810 Y5.3860
G01 X23.8234 Y5.3473
G01 X23.8310 Y5.3411
G01 X23.8732 Y5.3098
G01 X23.8800 Y5.3052
G01 X23.8800 Y5.2931
G01 X23.8188 Y5.3340
G01 X23.7343 Y5.4185
G01 X23.7270 Y5.4248
G01 X23.7212 Y5.4290
G01 X23.7108 Y5.4352
G01 X23.6562 Y5.4629
G01 X23.6474 Y5.4669
G01 X23.6383 Y5.4700
G01 X23.6289 Y5.4722
G01 X23.6169 Y5.4736
G01 X23.6072 Y5.4738
G01 X23.5952 Y5.4726
G01 X23.5275 Y5.4616
G01 X23.5203 Y5.4596
G01 X23.5110 Y5.4562
G01 X23.5043 Y5.4530
G01 X23.4978 Y5.4493
G01 X23.4666 Y5.4270
G01 X23.4584 Y5.4204
G01 X23.3715 Y5.3336
G01 X23.2658 Y5.2630
G01 X23.1483 Y5.2143
G01 X23.0236 Y5.1895
G01 X22.8964 Y5.1895
G01 X22.7717 Y5.2143
G01 X22.6542 Y5.2630
G01 X22.5485 Y5.3336
G01 X22.5410 Y5.3411
G01 X22.5337 Y5.3474
G01 X22.5258 Y5.3530
G01 X22.5174 Y5.3578
G01 X22.4629 Y5.3856
G01 X22.4541 Y5.3895
G01 X22.4450 Y5.3926
G01 X22.4355 Y5.3948
G01 X22.4260 Y5.3961
G01 X22.4163 Y5.3965
G01 X22.4043 Y5.3956
G01 X22.3390 Y5.3852
G01 X22.3295 Y5.3830
G01 X22.3202 Y5.3798
G01 X22.3091 Y5.3746
G01 X22.2916 Y5.3640
G01 X22.2720 Y5.3502
G01 X22.1163 Y5.2709
G01 X21.9500 Y5.2168
G01 X21.7774 Y5.1895
G01 X21.6026 Y5.1895
G01 X21.4300 Y5.2168
G01 X21.2637 Y5.2709
G01 X21.1080 Y5.3502
G01 X21.0889 Y5.3637
G01 X21.0827 Y5.3673
G01 X21.0761 Y5.3704
G01 X21.0671 Y5.3739
G01 X21.0043 Y5.3942
G01 X20.9972 Y5.3958
G01 X20.9900 Y5.3970
G01 X20.9828 Y5.3976
G01 X20.9756 Y5.3977
G01 X20.9635 Y5.3966
G01 X20.9564 Y5.3953
G01 X20.9494 Y5.3935
G01 X20.8866 Y5.3731
G01 X20.8753 Y5.3683
G01 X20.8647 Y5.3622
G01 X20.8567 Y5.3564
G01 X20.8411 Y5.3430
G01 X20.8315 Y5.3336
G01 X20.7258 Y5.2630
G01 X20.6083 Y5.2143
G01 X20.4836 Y5.1895
G01 X20.3564 Y5.1895
G01 X20.2317 Y5.2143
G01 X20.1142 Y5.2630
G01 X20.0085 Y5.3336
G01 X19.9236 Y5.4185
G01 X19.9182 Y5.4233
G01 X19.9105 Y5.4290
G01 X19.9000 Y5.4352
G01 X19.8455 Y5.4629
G01 X19.8367 Y5.4669
G01 X19.8276 Y5.4700
G01 X19.8182 Y5.4722
G01 X19.8086 Y5.4735
G01 X19.7989 Y5.4738
G01 X19.7917 Y5.4735
G01 X19.7845 Y5.4726
G01 X19.7192 Y5.4621
G01 X19.7096 Y5.4596
G01 X19.7026 Y5.4571
G01 X19.6936 Y5.4530
G01 X19.6871 Y5.4493
G01 X19.6559 Y5.4270
G01 X19.6477 Y5.4204
G01 X19.5612 Y5.3340
G01 X19.5000 Y5.2931
G01 X19.5000 Y5.3052
G01 X19.5068 Y5.3098
G01 X19.5528 Y5.3441
G01 X19.5955 Y5.3826
G01 X19.6007 Y5.3877
G01 X19.6409 Y5.4322
G01 X19.6780 Y5.4822
G01 X19.7100 Y5.5357
G01 X19.7367 Y5.5920
G01 X19.7577 Y5.6507
G01 X19.7728 Y5.7111
G01 X19.7819 Y5.7728
G01 X19.7850 Y5.8350
G01 X19.7850 Y6.7650
G01 X19.7819 Y6.8272
G01 X19.7736 Y6.8840
G01 X19.7717 Y6.8937
G01 X19.7577 Y6.9493
G01 X19.7384 Y7.0034
G01 X19.7347 Y7.0125
G01 X19.7100 Y7.0643
G01 X19.6780 Y7.1178
G01 X19.6439 Y7.1640
G01 X19.6393 Y7.1697
G01 X19.5990 Y7.2140
G01 X19.5566 Y7.2527
G01 X19.5490 Y7.2589
G01 X19.5068 Y7.2902
G01 X19.5000 Y7.2948
G01 X19.5000 Y7.3069
G01 X19.5612 Y7.2660
G01 X19.6474 Y7.1799
G01 X19.6569 Y7.1723
G01 X19.6629 Y7.1684
G01 X19.6691 Y7.1649
G01 X19.6761 Y7.1585
G01 X19.6819 Y7.1541
G01 X19.6922 Y7.1478
G01 X19.7009 Y7.1436
G01 X19.7100 Y7.1403
G01 X19.7169 Y7.1384
G01 X19.7239 Y7.1370
G01 X19.7326 Y7.1331
G01 X19.7417 Y7.1300
G01 X19.7488 Y7.1283
G01 X19.7559 Y7.1271
G01 X19.7631 Y7.1264
G01 X19.7704 Y7.1262
G01 X19.7776 Y7.1265
G01 X19.7846 Y7.1274
G01 X19.7941 Y7.1264
G01 X19.8038 Y7.1262
G01 X19.8158 Y7.1274
G01 X19.8276 Y7.1300
G01 X19.8367 Y7.1331
G01 X19.8454 Y7.1370
G01 X19.8549 Y7.1390
G01 X19.8644 Y7.1420
G01 X19.8713 Y7.1448
G01 X19.8779 Y7.1482
G01 X19.8863 Y7.1534
G01 X19.9134 Y7.1730
G01 X19.9235 Y7.1814
G01 X19.9484 Y7.2065
G01 X19.9531 Y7.2120
G01 X19.9574 Y7.2179
G01 X19.9635 Y7.2283
G01 X19.9923 Y7.2850
G01 X19.9952 Y7.2916
G01 X19.9976 Y7.2985
G01 X19.9995 Y7.3055
G01 X20.0009 Y7.3126
G01 X20.0018 Y7.3198
G01 X20.0022 Y7.3270
G01 X20.0016 Y7.3391
G01 X19.9914 Y7.4043
G01 X19.9893 Y7.4140
G01 X19.9872 Y7.4211
G01 X19.9835 Y7.4303
G01 X19.9802 Y7.4370
G01 X19.9749 Y7.4454
G01 X19.9537 Y7.4746
G01 X19.9451 Y7.4844
G01 X13.7530 Y13.6766
G01 X13.6502 Y13.8180
G01 X13.5709 Y13.9737
G01 X13.5168 Y14.1400
G01 X13.4895 Y14.3126
G01 X13.4895 Y36.2929
G01 X13.4885 Y36.3049
G01 X13.4860 Y36.3168
G01 X13.4657 Y36.3796
G01 X13.4632 Y36.3864
G01 X13.4602 Y36.3930
G01 X13.4568 Y36.3994
G01 X13.4529 Y36.4055
G01 X13.4486 Y36.4113
G01 X13.4438 Y36.4168
G01 X13.4387 Y36.4219
G01 X13.4332 Y36.4267
G01 X13.3799 Y36.4656
G01 X13.3737 Y36.4697
G01 X13.3672 Y36.4734
G01 X13.3582 Y36.4775
G01 X13.3512 Y36.4800
G01 X13.3440 Y36.4820
G01 X13.3367 Y36.4834
G01 X13.2983 Y36.4892
G01 X13.2705 Y36.4895
G01 X13.1134 Y36.5144
G01 X13.0280 Y36.5543
G01 X13.0030 Y36.5503
G00 Z0.6000
G00 X12.8341 Y36.6446
G01 F60.00
G01 Z-0.1996
G01 F120.00
G01 X12.8129 Y36.6412
G00 Z0.6000
G00 X12.6966 Y36.7440
G01 F60.00
G01 Z-0.1996
G01 F120.00
G01 X12.6796 Y36.7413
G01 X12.5934 Y36.8473
G01 X12.5773 Y36.8443
G01 X12.5125 Y36.9543
G01 X12.4992 Y36.9518
G01 X12.4508 Y37.0649
G01 X12.4387 Y37.0626
G01 X12.4042 Y37.1782
G01 X12.3927 Y37.1761
G01 X12.3718 Y37.2943
G01 X12.3598 Y37.2920
G01 X12.3411 Y37.4106
G01 X12.3542 Y37.4130
G01 X12.3395 Y37.5323
G01 X12.3516 Y37.5346
G01 X12.3517 Y37.6567
G01 X12.3637 Y37.6589
G01 X12.3798 Y37.7840
G01 X12.3919 Y37.7862
G00 Z0.6000
G00 X12.4273 Y37.9148
G01 F60.00
G01 Z-0.1996
G01 F120.00
G01 X12.4425 Y37.9177
G01 X12.5000 Y38.0493
G01 X12.5162 Y38.0519
G00 Z0.6000
G00 X12.6093 Y38.1884
G01 F60.00
G01 Z-0.1996
G01 F120.00
G01 X12.6286 Y38.1915
G00 Z0.6000
G00 X12.7844 Y38.3381
G01 F60.00
G01 Z-0.1996
G01 F120.00
G01 X12.8129 Y38.3427
G00 Z0.6000
G00 X13.0918 Y39.0614
G01 F60.00
G01 Z-0.1996
G01 F120.00
G01 X13.1246 Y39.0667
G00 Z0.6000
G00 X12.8823 Y39.1562
G01 F60.00
G01 Z-0.1996
G01 F120.00
G01 X12.8622 Y39.1544
G00 Z0.6000
G00 X12.7161 Y39.2666
G01 F60.00
G01 Z-0.1996
G01 F120.00
G01 X12.6960 Y39.2661
G00 Z0.6000
G00 X12.0738 Y39.3295
G01 F60.00
G01 Z-0.1996
G01 F120.00
G01 X12.0308 Y39.3397
G01 X11.6652 Y39.3295
G01 X11.6397 Y39.3397
G00 Z0.6000
G00 X11.4781 Y39.2783
G01 F60.00
G01 Z-0.1996
G01 F120.00
G01 X11.4641 Y39.2847
G01 X11.3688 Y39.1969
G01 X11.3565 Y39.2029
G01 X11.2421 Y39.1261
G01 X11.2287 Y39.1330
G00 Z0.6000
G00 X11.0935 Y39.0696
G01 F60.00
G01 Z-0.1996
G01 F120.00
G01 X11.0790 Y39.0776
G01 X10.9174 Y39.0339
G01 X10.9005 Y39.0443
G00 Z0.6000
G00 X10.6964 Y39.0349
G01 F60.00
G01 Z-0.1996
G01 F120.00
G01 X10.6740 Y39.0503
G00 Z0.6000
G00 X10.3798 Y39.1251
G01 F60.00
G01 Z-0.1996
G01 F120.00
G01 X10.3435 Y39.1556
G00 Z0.6000
G00 X9.9867 Y39.3295
G01 F60.00
G01 Z-0.1996
G01 F120.00
G01 X9.9772 Y39.3397
G01 X9.8239 Y39.3295
G01 X9.8149 Y39.3397
G01 X9.6651 Y39.3295
G01 X9.6565 Y39.3397
G01 X9.5097 Y39.3295
G01 X9.5015 Y39.3397
G01 X9.3572 Y39.3295
G01 X9.3495 Y39.3397
G01 X9.2073 Y39.3295
G01 X9.1999 Y39.3397
G00 Z0.6000
G00 X9.0599 Y39.3289
G01 F60.00
G01 Z-0.1996
G01 F120.00
G01 X9.0524 Y39.3397
G01 X8.9368 Y39.2962
G01 X8.9450 Y39.2842
G01 X8.8492 Y39.2118
G01 X8.8428 Y39.2211
G01 X8.7468 Y39.1488
G01 X8.7407 Y39.1577
G00 Z0.6000
G00 X8.6370 Y39.0968
G01 F60.00
G01 Z-0.1996
G01 F120.00
G01 X8.6295 Y39.1077
G01 X8.5181 Y39.0581
G01 X8.5097 Y39.0703
G01 X8.3887 Y39.0357
G01 X8.3816 Y39.0467
G00 Z0.6000
G00 X8.2496 Y39.0295
G01 F60.00
G01 Z-0.1996
G01 F120.00
G01 X8.2420 Y39.0413
G01 X8.0990 Y39.0440
G01 X8.0911 Y39.0567
G01 X8.0334 Y39.0544
G01 X8.1905 Y39.0295
G01 X8.3495 Y39.0295
G01 X8.5066 Y39.0544
G01 X8.6579 Y39.1035
G01 X8.7996 Y39.1757
G01 X8.9283 Y39.2692
G01 X8.9341 Y39.2748
G01 X8.9497 Y39.2882
G01 X8.9577 Y39.2940
G01 X8.9639 Y39.2978
G01 X8.9727 Y39.3022
G01 X8.9796 Y39.3049
G01 X9.0424 Y39.3253
G01 X9.0494 Y39.3271
G01 X9.0565 Y39.3285
G01 X9.0637 Y39.3292
G01 X9.0710 Y39.3295
G01 X10.0090 Y39.3295
G01 X10.0323 Y39.3280
G01 X10.0421 Y39.3267
G01 X10.0540 Y39.3238
G01 X10.0655 Y39.3195
G01 X10.1287 Y39.2873
G01 X10.1348 Y39.2835
G01 X10.1407 Y39.2792
G01 X10.1462 Y39.2745
G01 X10.1517 Y39.2692
G01 X10.2804 Y39.1757
G01 X10.4221 Y39.1035
G01 X10.5734 Y39.0544
G01 X10.7305 Y39.0295
G01 X10.8895 Y39.0295
G01 X11.0466 Y39.0544
G01 X11.1979 Y39.1035
G01 X11.3396 Y39.1757
G01 X11.4683 Y39.2692
G01 X11.4741 Y39.2748
G01 X11.4897 Y39.2882
G01 X11.4956 Y39.2926
G01 X11.5039 Y39.2978
G01 X11.5105 Y39.3012
G01 X11.5196 Y39.3049
G01 X11.5824 Y39.3253
G01 X11.5942 Y39.3281
G01 X11.6013 Y39.3290
G01 X11.6086 Y39.3295
G01 X12.5490 Y39.3295
G01 X12.5723 Y39.3280
G01 X12.5821 Y39.3267
G01 X12.5940 Y39.3238
G01 X12.6055 Y39.3195
G01 X12.6687 Y39.2873
G01 X12.6748 Y39.2835
G01 X12.6807 Y39.2792
G01 X12.6862 Y39.2745
G01 X12.6917 Y39.2692
G01 X12.8204 Y39.1757
G01 X12.9621 Y39.1035
G01 X13.1134 Y39.0544
G01 X13.2705 Y39.0295
G01 X13.4295 Y39.0295
G01 X13.5866 Y39.0544
G01 X13.7379 Y39.1035
G01 X13.8796 Y39.1757
G01 X14.0083 Y39.2692
G01 X14.0141 Y39.2748
G01 X14.0297 Y39.2882
G01 X14.0377 Y39.2940
G01 X14.0439 Y39.2978
G01 X14.0527 Y39.3022
G01 X14.0596 Y39.3049
G01 X14.1224 Y39.3253
G01 X14.1342 Y39.3281
G01 X14.1462 Y39.3294
G01 X15.0890 Y39.3295
G01 X15.1123 Y39.3280
G01 X15.1221 Y39.3267
G01 X15.1340 Y39.3238
G01 X15.1455 Y39.3195
G01 X15.2087 Y39.2873
G01 X15.2148 Y39.2835
G01 X15.2207 Y39.2792
G01 X15.2262 Y39.2745
G01 X15.2317 Y39.2692
G01 X15.3604 Y39.1757
G01 X15.5021 Y39.1035
G01 X15.6534 Y39.0544
G01 X15.8105 Y39.0295
G01 X15.9695 Y39.0295
G01 X16.1266 Y39.0544
G01 X16.2779 Y39.1035
G01 X16.4196 Y39.1757
G01 X16.5483 Y39.2692
G01 X16.5541 Y39.2748
G01 X16.5697 Y39.2882
G01 X16.5756 Y39.2926
G01 X16.5839 Y39.2978
G01 X16.5927 Y39.3022
G01 X16.6019 Y39.3057
G01 X16.6624 Y39.3253
G01 X16.6742 Y39.3281
G01 X16.6813 Y39.3290
G01 X16.6910 Y39.3295
G01 X17.6290 Y39.3295
G01 X17.6369 Y39.3292
G01 X17.6597 Y39.3271
G01 X17.6693 Y39.3252
G01 X17.6786 Y39.3223
G01 X17.6899 Y39.3174
G01 X17.7487 Y39.2873
G01 X17.7548 Y39.2835
G01 X17.7607 Y39.2792
G01 X17.7662 Y39.2745
G01 X17.7717 Y39.2692
G01 X17.9004 Y39.1757
G01 X18.0421 Y39.1035
G01 X18.1934 Y39.0544
G01 X18.3505 Y39.0295
G01 X18.5095 Y39.0295
G01 X18.6666 Y39.0544
G01 X18.8179 Y39.1035
G01 X18.9596 Y39.1757
G01 X19.0883 Y39.2692
G01 X19.0941 Y39.2748
G01 X19.1097 Y39.2882
G01 X19.1177 Y39.2940
G01 X19.1239 Y39.2978
G01 X19.1327 Y39.3022
G01 X19.1419 Y39.3057
G01 X19.2024 Y39.3253
G01 X19.2142 Y39.3281
G01 X19.2213 Y39.3290
G01 X19.2310 Y39.3295
G01 X20.1716 Y39.3295
G01 X20.1997 Y39.3271
G01 X20.2093 Y39.3252
G01 X20.2186 Y39.3223
G01 X20.2299 Y39.3174
G01 X20.2865 Y39.2885
G01 X20.2928 Y39.2848
G01 X20.2988 Y39.2807
G01 X20.3044 Y39.2761
G01 X20.3117 Y39.2692
G01 X20.4404 Y39.1757
G01 X20.5821 Y39.1035
G01 X20.7334 Y39.0544
G01 X20.8905 Y39.0295
G01 X21.0495 Y39.0295
G01 X21.2066 Y39.0544
G01 X21.3579 Y39.1035
G01 X21.4996 Y39.1757
G01 X21.6283 Y39.2692
G01 X21.7408 Y39.3817
G01 X21.8343 Y39.5104
G01 X21.9065 Y39.6521
G01 X21.9556 Y39.8034
G01 X21.9805 Y39.9605
G01 X21.9805 Y40.1195
G01 X21.9556 Y40.2766
G01 X21.9065 Y40.4279
G01 X21.8343 Y40.5696
G01 X21.7408 Y40.6983
G01 X21.6283 Y40.8108
G01 X21.4996 Y40.9043
G01 X21.3579 Y40.9765
G01 X21.2066 Y41.0256
G01 X21.0495 Y41.0505
G01 X20.8905 Y41.0505
G01 X20.7334 Y41.0256
G01 X20.5821 Y40.9765
G01 X20.4404 Y40.9043
G01 X20.3117 Y40.8108
G01 X20.3059 Y40.8052
G01 X20.2903 Y40.7918
G01 X20.2823 Y40.7860
G01 X20.2761 Y40.7822
G01 X20.2673 Y40.7778
G01 X20.2604 Y40.7751
G01 X20.1976 Y40.7547
G01 X20.1858 Y40.7519
G01 X20.1738 Y40.7506
G01 X19.2310 Y40.7505
G01 X19.2077 Y40.7520
G01 X19.1979 Y40.7533
G01 X19.1860 Y40.7562
G01 X19.1745 Y40.7605
G01 X19.1113 Y40.7927
G01 X19.1052 Y40.7965
G01 X19.0993 Y40.8008
G01 X19.0938 Y40.8054
G01 X19.0883 Y40.8108
G01 X18.9596 Y40.9043
G01 X18.8179 Y40.9765
G01 X18.6666 Y41.0256
G01 X18.5095 Y41.0505
G01 X18.3505 Y41.0505
G01 X18.1934 Y41.0256
G01 X18.0421 Y40.9765
G01 X17.9004 Y40.9043
G01 X17.7717 Y40.8108
G01 X17.7659 Y40.8052
G01 X17.7503 Y40.7918
G01 X17.7423 Y40.7860
G01 X17.7361 Y40.7822
G01 X17.7273 Y40.7778
G01 X17.7181 Y40.7743
G01 X17.6576 Y40.7547
G01 X17.6482 Y40.7524
G01 X17.6411 Y40.7512
G01 X17.6290 Y40.7505
G01 X16.7995 Y40.7505
G01 X16.7917 Y40.7508
G01 X16.7839 Y40.7517
G01 X16.7484 Y40.7575
G01 X16.7364 Y40.7608
G01 X16.7250 Y40.7655
G01 X16.7163 Y40.7703
G01 X16.7101 Y40.7744
G01 X16.6606 Y40.8104
G01 X16.6513 Y40.8181
G01 X16.6446 Y40.8250
G01 X16.6371 Y40.8345
G01 X16.6309 Y40.8448
G01 X16.6268 Y40.8536
G01 X16.6040 Y40.9232
G01 X16.6015 Y40.9351
G01 X16.6005 Y40.9471
G01 X16.6005 Y42.6405
G01 X16.6010 Y42.6510
G01 X16.6066 Y42.6867
G01 X16.6080 Y42.6940
G01 X16.6116 Y42.7059
G01 X16.6155 Y42.7150
G01 X16.6190 Y42.7216
G01 X16.6244 Y42.7299
G01 X16.6619 Y42.7813
G01 X16.6665 Y42.7869
G01 X16.6715 Y42.7922
G01 X16.6787 Y42.7986
G01 X16.6886 Y42.8055
G01 X16.6992 Y42.8113
G01 X16.7104 Y42.8157
G01 X16.7756 Y42.8366
G01 X16.7875 Y42.8388
G01 X16.8009 Y42.8395
G01 X16.8331 Y42.8459
G01 X16.8697 Y42.8703
G01 X16.8941 Y42.9069
G01 X16.9005 Y42.9391
G01 X16.9005 Y44.7609
G01 X16.8941 Y44.7931
G01 X16.8697 Y44.8297
G01 X16.8331 Y44.8541
G01 X16.8009 Y44.8605
G01 X14.9791 Y44.8605
G01 X14.9469 Y44.8541
G01 X14.9103 Y44.8297
G01 X14.8859 Y44.7931
G01 X14.8795 Y44.7609
G01 X14.8795 Y42.9391
G01 X14.8859 Y42.9069
G01 X14.9103 Y42.8703
G01 X14.9469 Y42.8459
G01 X14.9791 Y42.8395
G01 X14.9857 Y42.8394
G01 X14.9936 Y42.8386
G01 X15.0292 Y42.8330
G01 X15.0412 Y42.8300
G01 X15.0528 Y42.8256
G01 X15.0594 Y42.8222
G01 X15.0678 Y42.8170
G01 X15.1194 Y42.7796
G01 X15.1287 Y42.7719
G01 X15.1370 Y42.7632
G01 X15.1429 Y42.7555
G01 X15.1480 Y42.7473
G01 X15.1523 Y42.7386
G01 X15.1557 Y42.7296
G01 X15.1746 Y42.6714
G01 X15.1766 Y42.6644
G01 X15.1785 Y42.6549
G01 X15.1792 Y42.6477
G01 X15.1795 Y42.6405
G01 X15.1795 Y40.9495
G01 X15.1786 Y40.9364
G01 X15.1730 Y40.9008
G01 X15.1707 Y40.8912
G01 X15.1675 Y40.8818
G01 X15.1634 Y40.8728
G01 X15.1584 Y40.8642
G01 X15.1181 Y40.8087
G01 X15.1103 Y40.7996
G01 X15.1032 Y40.7930
G01 X15.0975 Y40.7885
G01 X15.0894 Y40.7832
G01 X15.0830 Y40.7798
G01 X15.0742 Y40.7759
G01 X15.0091 Y40.7547
G01 X15.0021 Y40.7529
G01 X14.9949 Y40.7515
G01 X14.9877 Y40.7508
G01 X14.9805 Y40.7505
G01 X14.2569 Y40.7505
G01 X14.2439 Y40.7517
G01 X14.2060 Y40.7580
G01 X14.1941 Y40.7616
G01 X14.1872 Y40.7644
G01 X14.1806 Y40.7678
G01 X14.1701 Y40.7744
G01 X14.1168 Y40.8133
G01 X14.1113 Y40.8181
G01 X14.1062 Y40.8232
G01 X14.1014 Y40.8287
G01 X14.0971 Y40.8345
G01 X14.0932 Y40.8406
G01 X14.0898 Y40.8470
G01 X14.0868 Y40.8536
G01 X14.0843 Y40.8604
G01 X14.0640 Y40.9232
G01 X14.0615 Y40.9351
G01 X14.0606 Y40.9447
G01 X14.0606 Y43.0542
G01 X14.0629 Y43.0797
G01 X14.0648 Y43.0893
G01 X14.0677 Y43.0986
G01 X14.0726 Y43.1099
G01 X14.1015 Y43.1665
G01 X14.1052 Y43.1728
G01 X14.1093 Y43.1788
G01 X14.1138 Y43.1844
G01 X14.1208 Y43.1917
G01 X14.2143 Y43.3204
G01 X14.2865 Y43.4621
G01 X14.3356 Y43.6134
G01 X14.3605 Y43.7705
G01 X14.3605 Y43.9295
G01 X14.3356 Y44.0866
G01 X14.2865 Y44.2379
G01 X14.2143 Y44.3796
G01 X14.1208 Y44.5083
G01 X14.0083 Y44.6208
G01 X13.8796 Y44.7143
G01 X13.7379 Y44.7865
G01 X13.5866 Y44.8356
G01 X13.4295 Y44.8605
G01 X13.2705 Y44.8605
G01 X13.1134 Y44.8356
G01 X12.9621 Y44.7865
G01 X12.8204 Y44.7143
G01 X12.6917 Y44.6208
G01 X12.5792 Y44.5083
G01 X12.4857 Y44.3796
G01 X12.4135 Y44.2379
G01 X12.3644 Y44.0866
G01 X12.3395 Y43.9295
G01 X12.3395 Y43.7705
G01 X12.3644 Y43.6134
G01 X12.4135 Y43.4621
G01 X12.4857 Y43.3204
G01 X12.5792 Y43.1917
G01 X12.5848 Y43.1859
G01 X12.5982 Y43.1703
G01 X12.6040 Y43.1623
G01 X12.6078 Y43.1561
G01 X12.6122 Y43.1473
G01 X12.6149 Y43.1404
G01 X12.6346 Y43.0799
G01 X12.6376 Y43.0682
G01 X12.6392 Y43.0563
G01 X12.6395 Y43.0490
G01 X12.6395 Y40.9469
G01 X12.6386 Y40.9364
G01 X12.6325 Y40.8984
G01 X12.6292 Y40.8864
G01 X12.6256 Y40.8772
G01 X12.6210 Y40.8684
G01 X12.6170 Y40.8622
G01 X12.5796 Y40.8106
G01 X12.5735 Y40.8031
G01 X12.5650 Y40.7946
G01 X12.5555 Y40.7871
G01 X12.5473 Y40.7820
G01 X12.5364 Y40.7768
G01 X12.4691 Y40.7547
G01 X12.4573 Y40.7519
G01 X12.4453 Y40.7506
G01 X11.6110 Y40.7505
G01 X11.6031 Y40.7508
G01 X11.5803 Y40.7529
G01 X11.5731 Y40.7543
G01 X11.5660 Y40.7562
G01 X11.5545 Y40.7605
G01 X11.4913 Y40.7927
G01 X11.4852 Y40.7965
G01 X11.4793 Y40.8008
G01 X11.4738 Y40.8054
G01 X11.4683 Y40.8108
G01 X11.3396 Y40.9043
G01 X11.1979 Y40.9765
G01 X11.0466 Y41.0256
G01 X10.8895 Y41.0505
G01 X10.7305 Y41.0505
G01 X10.5734 Y41.0256
G01 X10.4221 Y40.9765
G01 X10.2804 Y40.9043
G01 X10.1517 Y40.8108
G01 X10.1459 Y40.8052
G01 X10.1303 Y40.7918
G01 X10.1244 Y40.7874
G01 X10.1161 Y40.7822
G01 X10.1073 Y40.7778
G01 X10.1004 Y40.7751
G01 X10.0376 Y40.7547
G01 X10.0258 Y40.7519
G01 X10.0187 Y40.7510
G01 X10.0114 Y40.7505
G01 X9.0710 Y40.7505
G01 X9.0477 Y40.7520
G01 X9.0379 Y40.7533
G01 X9.0260 Y40.7562
G01 X9.0145 Y40.7605
G01 X8.9513 Y40.7927
G01 X8.9452 Y40.7965
G01 X8.9393 Y40.8008
G01 X8.9338 Y40.8054
G01 X8.9283 Y40.8108
G01 X8.7996 Y40.9043
G01 X8.6579 Y40.9765
G01 X8.5066 Y41.0256
G01 X8.3495 Y41.0505
G01 X8.1905 Y41.0505
G01 X8.0334 Y41.0256
G01 X7.8821 Y40.9765
G01 X7.7404 Y40.9043
G01 X7.6117 Y40.8108
G01 X7.4992 Y40.6983
G01 X7.4057 Y40.5696
G01 X7.3335 Y40.4279
G01 X7.2844 Y40.2766
G01 X7.2595 Y40.1195
G01 X7.2595 Y39.9605
G01 X7.2844 Y39.8034
G01 X7.3335 Y39.6521
G01 X7.4057 Y39.5104
G01 X7.4992 Y39.3817
G01 X7.6117 Y39.2692
G01 X7.7404 Y39.1757
G01 X7.8821 Y39.1035
G01 X8.0334 Y39.0544
G00 Z0.6000
G00 X7.9332 Y39.0869
G01 F60.00
G01 Z-0.1996
G01 F120.00
G01 X7.9239 Y39.1029
G00 Z0.6000
G00 X7.7470 Y39.1724
G01 F60.00
G01 Z-0.1996
G01 F120.00
G01 X7.7335 Y39.1970
G00 Z0.6000
G00 X7.5103 Y39.3706
G01 F60.00
G01 Z-0.1996
G01 F120.00
G01 X7.4872 Y39.4186
G00 Z0.6000
G00 X7.2767 Y39.9284
G01 F60.00
G01 Z-0.1996
G01 F120.00
G01 X7.2595 Y39.9784
G00 Z0.6000
G00 X7.2951 Y40.2593
G01 F60.00
G01 Z-0.1996
G01 F120.00
G01 X7.2874 Y40.2859
G00 Z0.6000
G00 X7.3637 Y40.4601
G01 F60.00
G01 Z-0.1996
G01 F120.00
G01 X7.3590 Y40.4779
G00 Z0.6000
G00 X7.4497 Y40.6108
G01 F60.00
G01 Z-0.1996
G01 F120.00
G01 X7.4463 Y40.6254
G01 X7.5458 Y40.7284
G01 X7.5429 Y40.7420
G00 Z0.6000
G00 X7.6485 Y40.8227
G01 F60.00
G01 Z-0.1996
G01 F120.00
G01 X7.6458 Y40.8355
G01 X7.7561 Y40.8966
G01 X7.7534 Y40.9109
G01 X7.8673 Y40.9546
G01 X7.8649 Y40.9677
G00 Z0.6000
G00 X7.9814 Y40.9974
G01 F60.00
G01 Z-0.1996
G01 F120.00
G01 X7.9794 Y41.0081
G01 X8.0964 Y41.0356
G01 X8.0984 Y41.0244
G01 X8.2156 Y41.0505
G01 X8.2180 Y41.0376
G01 X8.3377 Y41.0505
G01 X8.3403 Y41.0367
G01 X8.4631 Y41.0325
G01 X8.4653 Y41.0207
G01 X8.5927 Y40.9977
G01 X8.5954 Y40.9845
G01 X8.7280 Y40.9408
G01 X8.7313 Y40.9268
G00 Z0.6000
G00 X8.8740 Y40.8502
G01 F60.00
G01 Z-0.1996
G01 F120.00
G01 X8.8788 Y40.8321
G00 Z0.6000
G00 X9.0250 Y40.7565
G01 F60.00
G01 Z-0.1996
G01 F120.00
G01 X9.0299 Y40.7403
G01 X9.1525 Y40.7505
G01 X9.1557 Y40.7403
G01 X9.2784 Y40.7505
G01 X9.2816 Y40.7403
G01 X9.4049 Y40.7505
G01 X9.4084 Y40.7403
G01 X9.5317 Y40.7505
G01 X9.5353 Y40.7403
G01 X9.6593 Y40.7505
G01 X9.6631 Y40.7403
G01 X9.7873 Y40.7505
