(G-CODE GENERATED BY FLATCAM v8.994 - www.flatcam.org - Version Date: 2020/11/7)

(Name: AE-RELAY4-BOARD_SATA-Ctrl_A.drl_mill_cnc)
(Type: G-code from Geometry)
(Units: MM)

(Created on Monday, 02 March 2026 at 12:09)

(This preprocessor is the default preprocessor used by FlatCAM.)
(It is made to work with MACH3 compatible motion controllers.)

(TOOL DIAMETER: 0.8 mm)
(Feedrate_XY: 120.0 mm/min)
(Feedrate_Z: 60.0 mm/min)
(Feedrate rapids 1500.0 mm/min)

(Z_Cut: -2.4 mm)
(Z_Move: 0.6 mm)
(Z Start: None mm)
(Z End: 15.0 mm)
(X,Y End: None mm)
(Steps per circle: 64)
(Preprocessor Geometry: default)

(X range:    2.3000 ...   94.7000  mm)
(Y range:    2.3000 ...   47.7000  mm)

(Spindle Speed: 7500.0 RPM)
G21
G90
G94

G01 F120.00

M5
G00 Z15.0000
G00 X0.0000 Y0.0000
T1
M6    
(MSG, Change to Tool Dia = 0.8000)
M0
G00 Z15.0000

M03 S7500.0
G01 F120.00
G00 X4.7000 Y3.5000
G01 F60.00
G01 Z-2.4000
G01 F120.00
G01 X4.6942 Y3.3824
G01 X4.6769 Y3.2659
G01 X4.6483 Y3.1517
G01 X4.6087 Y3.0408
G01 X4.5583 Y2.9343
G01 X4.4978 Y2.8333
G01 X4.4276 Y2.7387
G01 X4.3485 Y2.6515
G01 X4.2613 Y2.5724
G01 X4.1667 Y2.5022
G01 X4.0657 Y2.4417
G01 X3.9592 Y2.3913
G01 X3.8483 Y2.3517
G01 X3.7341 Y2.3231
G01 X3.6176 Y2.3058
G01 X3.5000 Y2.3000
G01 X3.3824 Y2.3058
G01 X3.2659 Y2.3231
G01 X3.1517 Y2.3517
G01 X3.0408 Y2.3913
G01 X2.9343 Y2.4417
G01 X2.8333 Y2.5022
G01 X2.7387 Y2.5724
G01 X2.6515 Y2.6515
G01 X2.5724 Y2.7387
G01 X2.5022 Y2.8333
G01 X2.4417 Y2.9343
G01 X2.3913 Y3.0408
G01 X2.3517 Y3.1517
G01 X2.3231 Y3.2659
G01 X2.3058 Y3.3824
G01 X2.3000 Y3.5000
G01 X2.3058 Y3.6176
G01 X2.3231 Y3.7341
G01 X2.3517 Y3.8483
G01 X2.3913 Y3.9592
G01 X2.4417 Y4.0657
G01 X2.5022 Y4.1667
G01 X2.5724 Y4.2613
G01 X2.6515 Y4.3485
G01 X2.7387 Y4.4276
G01 X2.8333 Y4.4978
G01 X2.9343 Y4.5583
G01 X3.0408 Y4.6087
G01 X3.1517 Y4.6483
G01 X3.2659 Y4.6769
G01 X3.3824 Y4.6942
G01 X3.5000 Y4.7000
G01 X3.6176 Y4.6942
G01 X3.7341 Y4.6769
G01 X3.8483 Y4.6483
G01 X3.9592 Y4.6087
G01 X4.0657 Y4.5583
G01 X4.1667 Y4.4978
G01 X4.2613 Y4.4276
G01 X4.3485 Y4.3485
G01 X4.4276 Y4.2613
G01 X4.4978 Y4.1667
G01 X4.5583 Y4.0657
G01 X4.6087 Y3.9592
G01 X4.6483 Y3.8483
G01 X4.6769 Y3.7341
G01 X4.6942 Y3.6176
G01 X4.7000 Y3.5000
G00 Z0.6000
G00 X9.1600 Y6.3000
G01 F60.00
G01 Z-2.4000
G01 F120.00
G01 X9.1590 Y6.2804
G01 X9.1562 Y6.2610
G01 X9.1514 Y6.2419
G01 X9.1448 Y6.2235
G01 X9.1364 Y6.2057
G01 X9.1263 Y6.1889
G01 X9.1146 Y6.1731
G01 X9.1014 Y6.1586
G01 X9.0869 Y6.1454
G01 X9.0711 Y6.1337
G01 X9.0543 Y6.1236
G01 X9.0365 Y6.1152
G01 X9.0181 Y6.1086
G01 X8.9990 Y6.1038
G01 X8.9796 Y6.1010
G01 X8.9600 Y6.1000
G01 X8.9404 Y6.1010
G01 X8.9210 Y6.1038
G01 X8.9019 Y6.1086
G01 X8.8835 Y6.1152
G01 X8.8657 Y6.1236
G01 X8.8489 Y6.1337
G01 X8.8331 Y6.1454
G01 X8.8186 Y6.1586
G01 X8.8054 Y6.1731
G01 X8.7937 Y6.1889
G01 X8.7836 Y6.2057
G01 X8.7752 Y6.2235
G01 X8.7686 Y6.2419
G01 X8.7638 Y6.2610
G01 X8.7610 Y6.2804
G01 X8.7600 Y6.3000
G01 X8.7610 Y6.3196
G01 X8.7638 Y6.3390
G01 X8.7686 Y6.3581
G01 X8.7752 Y6.3765
G01 X8.7836 Y6.3943
G01 X8.7937 Y6.4111
G01 X8.8054 Y6.4269
G01 X8.8186 Y6.4414
G01 X8.8331 Y6.4546
G01 X8.8489 Y6.4663
G01 X8.8657 Y6.4764
G01 X8.8835 Y6.4848
G01 X8.9019 Y6.4914
G01 X8.9210 Y6.4962
G01 X8.9404 Y6.4990
G01 X8.9600 Y6.5000
G01 X8.9796 Y6.4990
G01 X8.9990 Y6.4962
G01 X9.0181 Y6.4914
G01 X9.0365 Y6.4848
G01 X9.0543 Y6.4764
G01 X9.0711 Y6.4663
G01 X9.0869 Y6.4546
G01 X9.1014 Y6.4414
G01 X9.1146 Y6.4269
G01 X9.1263 Y6.4111
G01 X9.1364 Y6.3943
G01 X9.1448 Y6.3765
G01 X9.1514 Y6.3581
G01 X9.1562 Y6.3390
G01 X9.1590 Y6.3196
G01 X9.1600 Y6.3000
G00 Z0.6000
G00 X12.8000 Y6.3000
G01 F60.00
G01 Z-2.4000
G01 F120.00
G01 X12.8000 Y6.3000
G01 X12.8000 Y6.3000
G01 X12.8000 Y6.3000
G01 X12.8000 Y6.3000
G00 Z0.6000
G00 X14.0700 Y6.3000
G01 F60.00
G01 Z-2.4000
G01 F120.00
G01 X14.0700 Y6.3000
G01 X14.0700 Y6.3000
G01 X14.0700 Y6.3000
G01 X14.0700 Y6.3000
G00 Z0.6000
G00 X15.3400 Y6.3000
G01 F60.00
G01 Z-2.4000
G01 F120.00
G01 X15.3400 Y6.3000
G01 X15.3400 Y6.3000
G01 X15.3400 Y6.3000
G01 X15.3400 Y6.3000
G00 Z0.6000
G00 X16.6100 Y6.3000
G01 F60.00
G01 Z-2.4000
G01 F120.00
G01 X16.6100 Y6.3000
G01 X16.6100 Y6.3000
G01 X16.6100 Y6.3000
G01 X16.6100 Y6.3000
G00 Z0.6000
G00 X17.8800 Y6.3000
G01 F60.00
G01 Z-2.4000
G01 F120.00
G01 X17.8800 Y6.3000
G01 X17.8800 Y6.3000
G01 X17.8800 Y6.3000
G01 X17.8800 Y6.3000
G00 Z0.6000
G00 X19.1500 Y6.3000
G01 F60.00
G01 Z-2.4000
G01 F120.00
G01 X19.1500 Y6.3000
G01 X19.1500 Y6.3000
G01 X19.1500 Y6.3000
G01 X19.1500 Y6.3000
G00 Z0.6000
G00 X20.4200 Y6.3000
G01 F60.00
G01 Z-2.4000
G01 F120.00
G01 X20.4200 Y6.3000
G01 X20.4200 Y6.3000
G01 X20.4200 Y6.3000
G01 X20.4200 Y6.3000
G00 Z0.6000
G00 X21.6900 Y6.3000
G01 F60.00
G01 Z-2.4000
G01 F120.00
G01 X21.6900 Y6.3000
G01 X21.6900 Y6.3000
G01 X21.6900 Y6.3000
G01 X21.6900 Y6.3000
G00 Z0.6000
G00 X22.9600 Y6.3000
G01 F60.00
G01 Z-2.4000
G01 F120.00
G01 X22.9600 Y6.3000
G01 X22.9600 Y6.3000
G01 X22.9600 Y6.3000
G01 X22.9600 Y6.3000
G00 Z0.6000
G00 X24.2300 Y6.3000
G01 F60.00
G01 Z-2.4000
G01 F120.00
G01 X24.2300 Y6.3000
G01 X24.2300 Y6.3000
G01 X24.2300 Y6.3000
G01 X24.2300 Y6.3000
G00 Z0.6000
G00 X25.5000 Y6.3000
G01 F60.00
G01 Z-2.4000
G01 F120.00
G01 X25.5000 Y6.3000
G01 X25.5000 Y6.3000
G01 X25.5000 Y6.3000
G01 X25.5000 Y6.3000
G00 Z0.6000
G00 X26.7700 Y6.3000
G01 F60.00
G01 Z-2.4000
G01 F120.00
G01 X26.7700 Y6.3000
G01 X26.7700 Y6.3000
G01 X26.7700 Y6.3000
G01 X26.7700 Y6.3000
G00 Z0.6000
G00 X28.0400 Y6.3000
G01 F60.00
G01 Z-2.4000
G01 F120.00
G01 X28.0400 Y6.3000
G01 X28.0400 Y6.3000
G01 X28.0400 Y6.3000
G01 X28.0400 Y6.3000
G00 Z0.6000
G00 X29.3100 Y6.3000
G01 F60.00
G01 Z-2.4000
G01 F120.00
G01 X29.3100 Y6.3000
G01 X29.3100 Y6.3000
G01 X29.3100 Y6.3000
G01 X29.3100 Y6.3000
G00 Z0.6000
G00 X30.5800 Y6.3000
G01 F60.00
G01 Z-2.4000
G01 F120.00
G01 X30.5800 Y6.3000
G01 X30.5800 Y6.3000
G01 X30.5800 Y6.3000
G01 X30.5800 Y6.3000
G00 Z0.6000
G00 X34.6200 Y6.3000
G01 F60.00
G01 Z-2.4000
G01 F120.00
G01 X34.6190 Y6.2804
G01 X34.6162 Y6.2610
G01 X34.6114 Y6.2419
G01 X34.6048 Y6.2235
G01 X34.5964 Y6.2057
G01 X34.5863 Y6.1889
G01 X34.5746 Y6.1731
G01 X34.5614 Y6.1586
G01 X34.5469 Y6.1454
G01 X34.5311 Y6.1337
G01 X34.5143 Y6.1236
G01 X34.4965 Y6.1152
G01 X34.4781 Y6.1086
G01 X34.4590 Y6.1038
G01 X34.4396 Y6.1010
G01 X34.4200 Y6.1000
G01 X34.4004 Y6.1010
G01 X34.3810 Y6.1038
G01 X34.3619 Y6.1086
G01 X34.3435 Y6.1152
G01 X34.3257 Y6.1236
G01 X34.3089 Y6.1337
G01 X34.2931 Y6.1454
G01 X34.2786 Y6.1586
G01 X34.2654 Y6.1731
G01 X34.2537 Y6.1889
G01 X34.2436 Y6.2057
G01 X34.2352 Y6.2235
G01 X34.2286 Y6.2419
G01 X34.2238 Y6.2610
G01 X34.2210 Y6.2804
G01 X34.2200 Y6.3000
G01 X34.2210 Y6.3196
G01 X34.2238 Y6.3390
G01 X34.2286 Y6.3581
G01 X34.2352 Y6.3765
G01 X34.2436 Y6.3943
G01 X34.2537 Y6.4111
G01 X34.2654 Y6.4269
G01 X34.2786 Y6.4414
G01 X34.2931 Y6.4546
G01 X34.3089 Y6.4663
G01 X34.3257 Y6.4764
G01 X34.3435 Y6.4848
G01 X34.3619 Y6.4914
G01 X34.3810 Y6.4962
G01 X34.4004 Y6.4990
G01 X34.4200 Y6.5000
G01 X34.4396 Y6.4990
G01 X34.4590 Y6.4962
G01 X34.4781 Y6.4914
G01 X34.4965 Y6.4848
G01 X34.5143 Y6.4764
G01 X34.5311 Y6.4663
G01 X34.5469 Y6.4546
G01 X34.5614 Y6.4414
G01 X34.5746 Y6.4269
G01 X34.5863 Y6.4111
G01 X34.5964 Y6.3943
G01 X34.6048 Y6.3765
G01 X34.6114 Y6.3581
G01 X34.6162 Y6.3390
G01 X34.6190 Y6.3196
G01 X34.6200 Y6.3000
G00 Z0.6000
G00 X39.0000 Y6.1900
G01 F60.00
G01 Z-2.4000
G01 F120.00
G01 X39.0000 Y6.1900
G01 X39.0000 Y6.1900
G01 X39.0000 Y6.1900
G01 X39.0000 Y6.1900
G00 Z0.6000
G00 X39.0750 Y3.5000
G01 F60.00
G01 Z-2.4000
G01 F120.00
G01 X39.0746 Y3.4926
G01 X39.0736 Y3.4854
G01 X39.0718 Y3.4782
G01 X39.0693 Y3.4713
G01 X39.0661 Y3.4646
G01 X39.0624 Y3.4583
G01 X39.0580 Y3.4524
G01 X39.0530 Y3.4470
G01 X39.0476 Y3.4420
G01 X39.0417 Y3.4376
G01 X39.0354 Y3.4339
G01 X39.0287 Y3.4307
G01 X39.0218 Y3.4282
G01 X39.0146 Y3.4264
G01 X39.0074 Y3.4254
G01 X39.0000 Y3.4250
G01 X38.9926 Y3.4254
G01 X38.9854 Y3.4264
G01 X38.9782 Y3.4282
G01 X38.9713 Y3.4307
G01 X38.9646 Y3.4339
G01 X38.9583 Y3.4376
G01 X38.9524 Y3.4420
G01 X38.9470 Y3.4470
G01 X38.9420 Y3.4524
G01 X38.9376 Y3.4583
G01 X38.9339 Y3.4646
G01 X38.9307 Y3.4713
G01 X38.9282 Y3.4782
G01 X38.9264 Y3.4854
G01 X38.9254 Y3.4926
G01 X38.9250 Y3.5000
G01 X38.9254 Y3.5074
G01 X38.9264 Y3.5146
G01 X38.9282 Y3.5218
G01 X38.9307 Y3.5287
G01 X38.9339 Y3.5354
G01 X38.9376 Y3.5417
G01 X38.9420 Y3.5476
G01 X38.9470 Y3.5530
G01 X38.9524 Y3.5580
G01 X38.9583 Y3.5624
G01 X38.9646 Y3.5661
G01 X38.9713 Y3.5693
G01 X38.9782 Y3.5718
G01 X38.9854 Y3.5736
G01 X38.9926 Y3.5746
G01 X39.0000 Y3.5750
G01 X39.0074 Y3.5746
G01 X39.0146 Y3.5736
G01 X39.0218 Y3.5718
G01 X39.0287 Y3.5693
G01 X39.0354 Y3.5661
G01 X39.0417 Y3.5624
G01 X39.0476 Y3.5580
G01 X39.0530 Y3.5530
G01 X39.0580 Y3.5476
G01 X39.0624 Y3.5417
G01 X39.0661 Y3.5354
G01 X39.0693 Y3.5287
G01 X39.0718 Y3.5218
G01 X39.0736 Y3.5146
G01 X39.0746 Y3.5074
G01 X39.0750 Y3.5000
G00 Z0.6000
G00 X41.6150 Y3.5000
G01 F60.00
G01 Z-2.4000
G01 F120.00
G01 X41.6146 Y3.4926
G01 X41.6136 Y3.4854
G01 X41.6118 Y3.4782
G01 X41.6093 Y3.4713
G01 X41.6061 Y3.4646
G01 X41.6024 Y3.4583
G01 X41.5980 Y3.4524
G01 X41.5930 Y3.4470
G01 X41.5876 Y3.4420
G01 X41.5817 Y3.4376
G01 X41.5754 Y3.4339
G01 X41.5687 Y3.4307
G01 X41.5618 Y3.4282
G01 X41.5546 Y3.4264
G01 X41.5474 Y3.4254
G01 X41.5400 Y3.4250
G01 X41.5326 Y3.4254
G01 X41.5254 Y3.4264
G01 X41.5182 Y3.4282
G01 X41.5113 Y3.4307
G01 X41.5046 Y3.4339
G01 X41.4983 Y3.4376
G01 X41.4924 Y3.4420
G01 X41.4870 Y3.4470
G01 X41.4820 Y3.4524
G01 X41.4776 Y3.4583
G01 X41.4739 Y3.4646
G01 X41.4707 Y3.4713
G01 X41.4682 Y3.4782
G01 X41.4664 Y3.4854
G01 X41.4654 Y3.4926
G01 X41.4650 Y3.5000
G01 X41.4654 Y3.5074
G01 X41.4664 Y3.5146
G01 X41.4682 Y3.5218
G01 X41.4707 Y3.5287
G01 X41.4739 Y3.5354
G01 X41.4776 Y3.5417
G01 X41.4820 Y3.5476
G01 X41.4870 Y3.5530
G01 X41.4924 Y3.5580
G01 X41.4983 Y3.5624
G01 X41.5046 Y3.5661
G01 X41.5113 Y3.5693
G01 X41.5182 Y3.5718
G01 X41.5254 Y3.5736
G01 X41.5326 Y3.5746
G01 X41.5400 Y3.5750
G01 X41.5474 Y3.5746
G01 X41.5546 Y3.5736
G01 X41.5618 Y3.5718
G01 X41.5687 Y3.5693
G01 X41.5754 Y3.5661
G01 X41.5817 Y3.5624
G01 X41.5876 Y3.5580
G01 X41.5930 Y3.5530
G01 X41.5980 Y3.5476
G01 X41.6024 Y3.5417
G01 X41.6061 Y3.5354
G01 X41.6093 Y3.5287
G01 X41.6118 Y3.5218
G01 X41.6136 Y3.5146
G01 X41.6146 Y3.5074
G01 X41.6150 Y3.5000
G00 Z0.6000
G00 X49.7000 Y3.5000
G01 F60.00
G01 Z-2.4000
G01 F120.00
G01 X49.6942 Y3.3824
G01 X49.6769 Y3.2659
G01 X49.6483 Y3.1517
G01 X49.6087 Y3.0408
G01 X49.5583 Y2.9343
G01 X49.4978 Y2.8333
G01 X49.4276 Y2.7387
G01 X49.3485 Y2.6515
G01 X49.2613 Y2.5724
G01 X49.1667 Y2.5022
G01 X49.0657 Y2.4417
G01 X48.9592 Y2.3913
G01 X48.8483 Y2.3517
G01 X48.7341 Y2.3231
G01 X48.6176 Y2.3058
G01 X48.5000 Y2.3000
G01 X48.3824 Y2.3058
G01 X48.2659 Y2.3231
G01 X48.1517 Y2.3517
G01 X48.0408 Y2.3913
G01 X47.9343 Y2.4417
G01 X47.8333 Y2.5022
G01 X47.7387 Y2.5724
G01 X47.6515 Y2.6515
G01 X47.5724 Y2.7387
G01 X47.5022 Y2.8333
G01 X47.4417 Y2.9343
G01 X47.3913 Y3.0408
G01 X47.3517 Y3.1517
G01 X47.3231 Y3.2659
G01 X47.3058 Y3.3824
G01 X47.3000 Y3.5000
G01 X47.3058 Y3.6176
G01 X47.3231 Y3.7341
G01 X47.3517 Y3.8483
G01 X47.3913 Y3.9592
G01 X47.4417 Y4.0657
G01 X47.5022 Y4.1667
G01 X47.5724 Y4.2613
G01 X47.6515 Y4.3485
G01 X47.7387 Y4.4276
G01 X47.8333 Y4.4978
G01 X47.9343 Y4.5583
G01 X48.0408 Y4.6087
G01 X48.1517 Y4.6483
G01 X48.2659 Y4.6769
G01 X48.3824 Y4.6942
G01 X48.5000 Y4.7000
G01 X48.6176 Y4.6942
G01 X48.7341 Y4.6769
G01 X48.8483 Y4.6483
G01 X48.9592 Y4.6087
G01 X49.0657 Y4.5583
G01 X49.1667 Y4.4978
G01 X49.2613 Y4.4276
G01 X49.3485 Y4.3485
G01 X49.4276 Y4.2613
G01 X49.4978 Y4.1667
G01 X49.5583 Y4.0657
G01 X49.6087 Y3.9592
G01 X49.6483 Y3.8483
G01 X49.6769 Y3.7341
G01 X49.6942 Y3.6176
G01 X49.7000 Y3.5000
G00 Z0.6000
G00 X55.3800 Y2.9800
G01 F60.00
G01 Z-2.4000
G01 F120.00
G01 X55.3800 Y2.9800
G01 X55.3800 Y2.9800
G01 X55.3800 Y2.9800
G01 X55.3800 Y2.9800
G00 Z0.6000
G00 X57.7750 Y3.0000
G01 F60.00
G01 Z-2.4000
G01 F120.00
G01 X57.7746 Y2.9926
G01 X57.7736 Y2.9854
G01 X57.7718 Y2.9782
G01 X57.7693 Y2.9713
G01 X57.7661 Y2.9646
G01 X57.7624 Y2.9583
G01 X57.7580 Y2.9524
G01 X57.7530 Y2.9470
G01 X57.7476 Y2.9420
G01 X57.7417 Y2.9376
G01 X57.7354 Y2.9339
G01 X57.7287 Y2.9307
G01 X57.7218 Y2.9282
G01 X57.7146 Y2.9264
G01 X57.7074 Y2.9254
G01 X57.7000 Y2.9250
G01 X57.6926 Y2.9254
G01 X57.6854 Y2.9264
G01 X57.6782 Y2.9282
G01 X57.6713 Y2.9307
G01 X57.6646 Y2.9339
G01 X57.6583 Y2.9376
G01 X57.6524 Y2.9420
G01 X57.6470 Y2.9470
G01 X57.6420 Y2.9524
G01 X57.6376 Y2.9583
G01 X57.6339 Y2.9646
G01 X57.6307 Y2.9713
G01 X57.6282 Y2.9782
G01 X57.6264 Y2.9854
G01 X57.6254 Y2.9926
G01 X57.6250 Y3.0000
G01 X57.6254 Y3.0074
G01 X57.6264 Y3.0146
G01 X57.6282 Y3.0218
G01 X57.6307 Y3.0287
G01 X57.6339 Y3.0354
G01 X57.6376 Y3.0417
G01 X57.6420 Y3.0476
G01 X57.6470 Y3.0530
G01 X57.6524 Y3.0580
G01 X57.6583 Y3.0624
G01 X57.6646 Y3.0661
G01 X57.6713 Y3.0693
G01 X57.6782 Y3.0718
G01 X57.6854 Y3.0736
G01 X57.6926 Y3.0746
G01 X57.7000 Y3.0750
G01 X57.7074 Y3.0746
G01 X57.7146 Y3.0736
G01 X57.7218 Y3.0718
G01 X57.7287 Y3.0693
G01 X57.7354 Y3.0661
G01 X57.7417 Y3.0624
G01 X57.7476 Y3.0580
G01 X57.7530 Y3.0530
G01 X57.7580 Y3.0476
G01 X57.7624 Y3.0417
G01 X57.7661 Y3.0354
G01 X57.7693 Y3.0287
G01 X57.7718 Y3.0218
G01 X57.7736 Y3.0146
G01 X57.7746 Y3.0074
G01 X57.7750 Y3.0000
G00 Z0.6000
G00 X57.7750 Y5.5400
G01 F60.00
G01 Z-2.4000
G01 F120.00
G01 X57.7746 Y5.5326
G01 X57.7736 Y5.5254
G01 X57.7718 Y5.5182
G01 X57.7693 Y5.5113
G01 X57.7661 Y5.5046
G01 X57.7624 Y5.4983
G01 X57.7580 Y5.4924
G01 X57.7530 Y5.4870
G01 X57.7476 Y5.4820
G01 X57.7417 Y5.4776
G01 X57.7354 Y5.4739
G01 X57.7287 Y5.4707
G01 X57.7218 Y5.4682
G01 X57.7146 Y5.4664
G01 X57.7074 Y5.4654
G01 X57.7000 Y5.4650
G01 X57.6926 Y5.4654
G01 X57.6854 Y5.4664
G01 X57.6782 Y5.4682
G01 X57.6713 Y5.4707
G01 X57.6646 Y5.4739
G01 X57.6583 Y5.4776
G01 X57.6524 Y5.4820
G01 X57.6470 Y5.4870
G01 X57.6420 Y5.4924
G01 X57.6376 Y5.4983
G01 X57.6339 Y5.5046
G01 X57.6307 Y5.5113
G01 X57.6282 Y5.5182
G01 X57.6264 Y5.5254
G01 X57.6254 Y5.5326
G01 X57.6250 Y5.5400
G01 X57.6254 Y5.5474
G01 X57.6264 Y5.5546
G01 X57.6282 Y5.5618
G01 X57.6307 Y5.5687
G01 X57.6339 Y5.5754
G01 X57.6376 Y5.5817
G01 X57.6420 Y5.5876
G01 X57.6470 Y5.5930
G01 X57.6524 Y5.5980
G01 X57.6583 Y5.6024
G01 X57.6646 Y5.6061
G01 X57.6713 Y5.6093
G01 X57.6782 Y5.6118
G01 X57.6854 Y5.6136
G01 X57.6926 Y5.6146
G01 X57.7000 Y5.6150
G01 X57.7074 Y5.6146
G01 X57.7146 Y5.6136
G01 X57.7218 Y5.6118
G01 X57.7287 Y5.6093
G01 X57.7354 Y5.6061
G01 X57.7417 Y5.6024
G01 X57.7476 Y5.5980
G01 X57.7530 Y5.5930
G01 X57.7580 Y5.5876
G01 X57.7624 Y5.5817
G01 X57.7661 Y5.5754
G01 X57.7693 Y5.5687
G01 X57.7718 Y5.5618
G01 X57.7736 Y5.5546
G01 X57.7746 Y5.5474
G01 X57.7750 Y5.5400
G00 Z0.6000
G00 X55.3800 Y5.5200
G01 F60.00
G01 Z-2.4000
G01 F120.00
G01 X55.3800 Y5.5200
G01 X55.3800 Y5.5200
G01 X55.3800 Y5.5200
G01 X55.3800 Y5.5200
G00 Z0.6000
G00 X55.3800 Y8.0600
G01 F60.00
G01 Z-2.4000
G01 F120.00
G01 X55.3800 Y8.0600
G01 X55.3800 Y8.0600
G01 X55.3800 Y8.0600
G01 X55.3800 Y8.0600
G00 Z0.6000
G00 X57.7750 Y8.0800
G01 F60.00
G01 Z-2.4000
G01 F120.00
G01 X57.7746 Y8.0726
G01 X57.7736 Y8.0654
G01 X57.7718 Y8.0582
G01 X57.7693 Y8.0513
G01 X57.7661 Y8.0446
G01 X57.7624 Y8.0383
G01 X57.7580 Y8.0324
G01 X57.7530 Y8.0270
G01 X57.7476 Y8.0220
G01 X57.7417 Y8.0176
G01 X57.7354 Y8.0139
G01 X57.7287 Y8.0107
G01 X57.7218 Y8.0082
G01 X57.7146 Y8.0064
G01 X57.7074 Y8.0054
G01 X57.7000 Y8.0050
G01 X57.6926 Y8.0054
G01 X57.6854 Y8.0064
G01 X57.6782 Y8.0082
G01 X57.6713 Y8.0107
G01 X57.6646 Y8.0139
G01 X57.6583 Y8.0176
G01 X57.6524 Y8.0220
G01 X57.6470 Y8.0270
G01 X57.6420 Y8.0324
G01 X57.6376 Y8.0383
G01 X57.6339 Y8.0446
G01 X57.6307 Y8.0513
G01 X57.6282 Y8.0582
G01 X57.6264 Y8.0654
G01 X57.6254 Y8.0726
G01 X57.6250 Y8.0800
G01 X57.6254 Y8.0874
G01 X57.6264 Y8.0946
G01 X57.6282 Y8.1018
G01 X57.6307 Y8.1087
G01 X57.6339 Y8.1154
G01 X57.6376 Y8.1217
G01 X57.6420 Y8.1276
G01 X57.6470 Y8.1330
G01 X57.6524 Y8.1380
G01 X57.6583 Y8.1424
G01 X57.6646 Y8.1461
G01 X57.6713 Y8.1493
G01 X57.6782 Y8.1518
G01 X57.6854 Y8.1536
G01 X57.6926 Y8.1546
G01 X57.7000 Y8.1550
G01 X57.7074 Y8.1546
G01 X57.7146 Y8.1536
G01 X57.7218 Y8.1518
G01 X57.7287 Y8.1493
G01 X57.7354 Y8.1461
G01 X57.7417 Y8.1424
G01 X57.7476 Y8.1380
G01 X57.7530 Y8.1330
G01 X57.7580 Y8.1276
G01 X57.7624 Y8.1217
G01 X57.7661 Y8.1154
G01 X57.7693 Y8.1087
G01 X57.7718 Y8.1018
G01 X57.7736 Y8.0946
G01 X57.7746 Y8.0874
G01 X57.7750 Y8.0800
G00 Z0.6000
G00 X57.7750 Y10.6200
G01 F60.00
G01 Z-2.4000
G01 F120.00
G01 X57.7746 Y10.6126
G01 X57.7736 Y10.6054
G01 X57.7718 Y10.5982
G01 X57.7693 Y10.5913
G01 X57.7661 Y10.5846
G01 X57.7624 Y10.5783
G01 X57.7580 Y10.5724
G01 X57.7530 Y10.5670
G01 X57.7476 Y10.5620
G01 X57.7417 Y10.5576
G01 X57.7354 Y10.5539
G01 X57.7287 Y10.5507
G01 X57.7218 Y10.5482
G01 X57.7146 Y10.5464
G01 X57.7074 Y10.5454
G01 X57.7000 Y10.5450
G01 X57.6926 Y10.5454
G01 X57.6854 Y10.5464
G01 X57.6782 Y10.5482
G01 X57.6713 Y10.5507
G01 X57.6646 Y10.5539
G01 X57.6583 Y10.5576
G01 X57.6524 Y10.5620
G01 X57.6470 Y10.5670
G01 X57.6420 Y10.5724
G01 X57.6376 Y10.5783
G01 X57.6339 Y10.5846
G01 X57.6307 Y10.5913
G01 X57.6282 Y10.5982
G01 X57.6264 Y10.6054
G01 X57.6254 Y10.6126
G01 X57.6250 Y10.6200
G01 X57.6254 Y10.6274
G01 X57.6264 Y10.6346
G01 X57.6282 Y10.6418
G01 X57.6307 Y10.6487
G01 X57.6339 Y10.6554
G01 X57.6376 Y10.6617
G01 X57.6420 Y10.6676
G01 X57.6470 Y10.6730
G01 X57.6524 Y10.6780
G01 X57.6583 Y10.6824
G01 X57.6646 Y10.6861
G01 X57.6713 Y10.6893
G01 X57.6782 Y10.6918
G01 X57.6854 Y10.6936
G01 X57.6926 Y10.6946
G01 X57.7000 Y10.6950
G01 X57.7074 Y10.6946
G01 X57.7146 Y10.6936
G01 X57.7218 Y10.6918
G01 X57.7287 Y10.6893
G01 X57.7354 Y10.6861
G01 X57.7417 Y10.6824
G01 X57.7476 Y10.6780
G01 X57.7530 Y10.6730
G01 X57.7580 Y10.6676
G01 X57.7624 Y10.6617
G01 X57.7661 Y10.6554
G01 X57.7693 Y10.6487
G01 X57.7718 Y10.6418
G01 X57.7736 Y10.6346
G01 X57.7746 Y10.6274
G01 X57.7750 Y10.6200
G00 Z0.6000
G00 X55.3800 Y10.6000
G01 F60.00
G01 Z-2.4000
G01 F120.00
G01 X55.3800 Y10.6000
G01 X55.3800 Y10.6000
G01 X55.3800 Y10.6000
G01 X55.3800 Y10.6000
G00 Z0.6000
G00 X55.3800 Y13.1400
G01 F60.00
G01 Z-2.4000
G01 F120.00
G01 X55.3800 Y13.1400
G01 X55.3800 Y13.1400
G01 X55.3800 Y13.1400
G01 X55.3800 Y13.1400
G00 Z0.6000
G00 X57.7750 Y13.1600
G01 F60.00
G01 Z-2.4000
G01 F120.00
G01 X57.7746 Y13.1526
G01 X57.7736 Y13.1454
G01 X57.7718 Y13.1382
G01 X57.7693 Y13.1313
G01 X57.7661 Y13.1246
G01 X57.7624 Y13.1183
G01 X57.7580 Y13.1124
G01 X57.7530 Y13.1070
G01 X57.7476 Y13.1020
G01 X57.7417 Y13.0976
G01 X57.7354 Y13.0939
G01 X57.7287 Y13.0907
G01 X57.7218 Y13.0882
G01 X57.7146 Y13.0864
G01 X57.7074 Y13.0854
G01 X57.7000 Y13.0850
G01 X57.6926 Y13.0854
G01 X57.6854 Y13.0864
G01 X57.6782 Y13.0882
G01 X57.6713 Y13.0907
G01 X57.6646 Y13.0939
G01 X57.6583 Y13.0976
G01 X57.6524 Y13.1020
G01 X57.6470 Y13.1070
G01 X57.6420 Y13.1124
G01 X57.6376 Y13.1183
G01 X57.6339 Y13.1246
G01 X57.6307 Y13.1313
G01 X57.6282 Y13.1382
G01 X57.6264 Y13.1454
G01 X57.6254 Y13.1526
G01 X57.6250 Y13.1600
G01 X57.6254 Y13.1674
G01 X57.6264 Y13.1746
G01 X57.6282 Y13.1818
G01 X57.6307 Y13.1887
G01 X57.6339 Y13.1954
G01 X57.6376 Y13.2017
G01 X57.6420 Y13.2076
G01 X57.6470 Y13.2130
G01 X57.6524 Y13.2180
G01 X57.6583 Y13.2224
G01 X57.6646 Y13.2261
G01 X57.6713 Y13.2293
G01 X57.6782 Y13.2318
G01 X57.6854 Y13.2336
G01 X57.6926 Y13.2346
G01 X57.7000 Y13.2350
G01 X57.7074 Y13.2346
G01 X57.7146 Y13.2336
G01 X57.7218 Y13.2318
G01 X57.7287 Y13.2293
G01 X57.7354 Y13.2261
G01 X57.7417 Y13.2224
G01 X57.7476 Y13.2180
G01 X57.7530 Y13.2130
G01 X57.7580 Y13.2076
G01 X57.7624 Y13.2017
G01 X57.7661 Y13.1954
G01 X57.7693 Y13.1887
G01 X57.7718 Y13.1818
G01 X57.7736 Y13.1746
G01 X57.7746 Y13.1674
G01 X57.7750 Y13.1600
G00 Z0.6000
G00 X57.7750 Y15.7000
G01 F60.00
G01 Z-2.4000
G01 F120.00
G01 X57.7746 Y15.6926
G01 X57.7736 Y15.6854
G01 X57.7718 Y15.6782
G01 X57.7693 Y15.6713
G01 X57.7661 Y15.6646
G01 X57.7624 Y15.6583
G01 X57.7580 Y15.6524
G01 X57.7530 Y15.6470
G01 X57.7476 Y15.6420
G01 X57.7417 Y15.6376
G01 X57.7354 Y15.6339
G01 X57.7287 Y15.6307
G01 X57.7218 Y15.6282
G01 X57.7146 Y15.6264
G01 X57.7074 Y15.6254
G01 X57.7000 Y15.6250
G01 X57.6926 Y15.6254
G01 X57.6854 Y15.6264
G01 X57.6782 Y15.6282
G01 X57.6713 Y15.6307
G01 X57.6646 Y15.6339
G01 X57.6583 Y15.6376
G01 X57.6524 Y15.6420
G01 X57.6470 Y15.6470
G01 X57.6420 Y15.6524
G01 X57.6376 Y15.6583
G01 X57.6339 Y15.6646
G01 X57.6307 Y15.6713
G01 X57.6282 Y15.6782
G01 X57.6264 Y15.6854
G01 X57.6254 Y15.6926
G01 X57.6250 Y15.7000
G01 X57.6254 Y15.7074
G01 X57.6264 Y15.7146
G01 X57.6282 Y15.7218
G01 X57.6307 Y15.7287
G01 X57.6339 Y15.7354
G01 X57.6376 Y15.7417
G01 X57.6420 Y15.7476
G01 X57.6470 Y15.7530
G01 X57.6524 Y15.7580
G01 X57.6583 Y15.7624
G01 X57.6646 Y15.7661
G01 X57.6713 Y15.7693
G01 X57.6782 Y15.7718
G01 X57.6854 Y15.7736
G01 X57.6926 Y15.7746
G01 X57.7000 Y15.7750
G01 X57.7074 Y15.7746
G01 X57.7146 Y15.7736
G01 X57.7218 Y15.7718
G01 X57.7287 Y15.7693
G01 X57.7354 Y15.7661
G01 X57.7417 Y15.7624
G01 X57.7476 Y15.7580
G01 X57.7530 Y15.7530
G01 X57.7580 Y15.7476
G01 X57.7624 Y15.7417
G01 X57.7661 Y15.7354
G01 X57.7693 Y15.7287
G01 X57.7718 Y15.7218
G01 X57.7736 Y15.7146
G01 X57.7746 Y15.7074
G01 X57.7750 Y15.7000
G00 Z0.6000
G00 X55.3800 Y15.6800
G01 F60.00
G01 Z-2.4000
G01 F120.00
G01 X55.3800 Y15.6800
G01 X55.3800 Y15.6800
G01 X55.3800 Y15.6800
G01 X55.3800 Y15.6800
G00 Z0.6000
G00 X55.3800 Y18.2200
G01 F60.00
G01 Z-2.4000
G01 F120.00
G01 X55.3800 Y18.2200
G01 X55.3800 Y18.2200
G01 X55.3800 Y18.2200
G01 X55.3800 Y18.2200
G00 Z0.6000
G00 X57.7750 Y18.2400
G01 F60.00
G01 Z-2.4000
G01 F120.00
G01 X57.7746 Y18.2326
G01 X57.7736 Y18.2254
G01 X57.7718 Y18.2182
G01 X57.7693 Y18.2113
G01 X57.7661 Y18.2046
G01 X57.7624 Y18.1983
G01 X57.7580 Y18.1924
G01 X57.7530 Y18.1870
G01 X57.7476 Y18.1820
G01 X57.7417 Y18.1776
G01 X57.7354 Y18.1739
G01 X57.7287 Y18.1707
G01 X57.7218 Y18.1682
G01 X57.7146 Y18.1664
G01 X57.7074 Y18.1654
G01 X57.7000 Y18.1650
G01 X57.6926 Y18.1654
G01 X57.6854 Y18.1664
G01 X57.6782 Y18.1682
G01 X57.6713 Y18.1707
G01 X57.6646 Y18.1739
G01 X57.6583 Y18.1776
G01 X57.6524 Y18.1820
G01 X57.6470 Y18.1870
G01 X57.6420 Y18.1924
G01 X57.6376 Y18.1983
G01 X57.6339 Y18.2046
G01 X57.6307 Y18.2113
G01 X57.6282 Y18.2182
G01 X57.6264 Y18.2254
G01 X57.6254 Y18.2326
G01 X57.6250 Y18.2400
G01 X57.6254 Y18.2474
G01 X57.6264 Y18.2546
G01 X57.6282 Y18.2618
G01 X57.6307 Y18.2687
G01 X57.6339 Y18.2754
G01 X57.6376 Y18.2817
G01 X57.6420 Y18.2876
G01 X57.6470 Y18.2930
G01 X57.6524 Y18.2980
G01 X57.6583 Y18.3024
G01 X57.6646 Y18.3061
G01 X57.6713 Y18.3093
G01 X57.6782 Y18.3118
G01 X57.6854 Y18.3136
G01 X57.6926 Y18.3146
G01 X57.7000 Y18.3150
G01 X57.7074 Y18.3146
G01 X57.7146 Y18.3136
G01 X57.7218 Y18.3118
G01 X57.7287 Y18.3093
G01 X57.7354 Y18.3061
G01 X57.7417 Y18.3024
G01 X57.7476 Y18.2980
G01 X57.7530 Y18.2930
G01 X57.7580 Y18.2876
G01 X57.7624 Y18.2817
G01 X57.7661 Y18.2754
G01 X57.7693 Y18.2687
G01 X57.7718 Y18.2618
G01 X57.7736 Y18.2546
G01 X57.7746 Y18.2474
G01 X57.7750 Y18.2400
G00 Z0.6000
G00 X52.4000 Y18.2000
G01 F60.00
G01 Z-2.4000
G01 F120.00
G01 X52.3995 Y18.1902
G01 X52.3981 Y18.1805
G01 X52.3957 Y18.1710
G01 X52.3924 Y18.1617
G01 X52.3882 Y18.1529
G01 X52.3831 Y18.1444
G01 X52.3773 Y18.1366
G01 X52.3707 Y18.1293
G01 X52.3634 Y18.1227
G01 X52.3556 Y18.1169
G01 X52.3471 Y18.1118
G01 X52.3383 Y18.1076
G01 X52.3290 Y18.1043
G01 X52.3195 Y18.1019
G01 X52.3098 Y18.1005
G01 X52.3000 Y18.1000
G01 X52.2902 Y18.1005
G01 X52.2805 Y18.1019
G01 X52.2710 Y18.1043
G01 X52.2617 Y18.1076
G01 X52.2529 Y18.1118
G01 X52.2444 Y18.1169
G01 X52.2366 Y18.1227
G01 X52.2293 Y18.1293
G01 X52.2227 Y18.1366
G01 X52.2169 Y18.1444
G01 X52.2118 Y18.1529
G01 X52.2076 Y18.1617
G01 X52.2043 Y18.1710
G01 X52.2019 Y18.1805
G01 X52.2005 Y18.1902
G01 X52.2000 Y18.2000
G01 X52.2005 Y18.2098
G01 X52.2019 Y18.2195
G01 X52.2043 Y18.2290
G01 X52.2076 Y18.2383
G01 X52.2118 Y18.2471
G01 X52.2169 Y18.2556
G01 X52.2227 Y18.2634
G01 X52.2293 Y18.2707
G01 X52.2366 Y18.2773
G01 X52.2444 Y18.2831
G01 X52.2529 Y18.2882
G01 X52.2617 Y18.2924
G01 X52.2710 Y18.2957
G01 X52.2805 Y18.2981
G01 X52.2902 Y18.2995
G01 X52.3000 Y18.3000
G01 X52.3098 Y18.2995
G01 X52.3195 Y18.2981
G01 X52.3290 Y18.2957
G01 X52.3383 Y18.2924
G01 X52.3471 Y18.2882
G01 X52.3556 Y18.2831
G01 X52.3634 Y18.2773
G01 X52.3707 Y18.2707
G01 X52.3773 Y18.2634
G01 X52.3831 Y18.2556
G01 X52.3882 Y18.2471
G01 X52.3924 Y18.2383
G01 X52.3957 Y18.2290
G01 X52.3981 Y18.2195
G01 X52.3995 Y18.2098
G01 X52.4000 Y18.2000
G00 Z0.6000
G00 X52.4000 Y15.6600
G01 F60.00
G01 Z-2.4000
G01 F120.00
G01 X52.3995 Y15.6502
G01 X52.3981 Y15.6405
G01 X52.3957 Y15.6310
G01 X52.3924 Y15.6217
G01 X52.3882 Y15.6129
G01 X52.3831 Y15.6044
G01 X52.3773 Y15.5966
G01 X52.3707 Y15.5893
G01 X52.3634 Y15.5827
G01 X52.3556 Y15.5769
G01 X52.3471 Y15.5718
G01 X52.3383 Y15.5676
G01 X52.3290 Y15.5643
G01 X52.3195 Y15.5619
G01 X52.3098 Y15.5605
G01 X52.3000 Y15.5600
G01 X52.2902 Y15.5605
G01 X52.2805 Y15.5619
G01 X52.2710 Y15.5643
G01 X52.2617 Y15.5676
G01 X52.2529 Y15.5718
G01 X52.2444 Y15.5769
G01 X52.2366 Y15.5827
G01 X52.2293 Y15.5893
G01 X52.2227 Y15.5966
G01 X52.2169 Y15.6044
G01 X52.2118 Y15.6129
G01 X52.2076 Y15.6217
G01 X52.2043 Y15.6310
G01 X52.2019 Y15.6405
G01 X52.2005 Y15.6502
G01 X52.2000 Y15.6600
G01 X52.2005 Y15.6698
G01 X52.2019 Y15.6795
G01 X52.2043 Y15.6890
G01 X52.2076 Y15.6983
G01 X52.2118 Y15.7071
G01 X52.2169 Y15.7156
G01 X52.2227 Y15.7234
G01 X52.2293 Y15.7307
G01 X52.2366 Y15.7373
G01 X52.2444 Y15.7431
G01 X52.2529 Y15.7482
G01 X52.2617 Y15.7524
G01 X52.2710 Y15.7557
G01 X52.2805 Y15.7581
G01 X52.2902 Y15.7595
G01 X52.3000 Y15.7600
G01 X52.3098 Y15.7595
G01 X52.3195 Y15.7581
G01 X52.3290 Y15.7557
G01 X52.3383 Y15.7524
G01 X52.3471 Y15.7482
G01 X52.3556 Y15.7431
G01 X52.3634 Y15.7373
G01 X52.3707 Y15.7307
G01 X52.3773 Y15.7234
G01 X52.3831 Y15.7156
G01 X52.3882 Y15.7071
G01 X52.3924 Y15.6983
G01 X52.3957 Y15.6890
G01 X52.3981 Y15.6795
G01 X52.3995 Y15.6698
G01 X52.4000 Y15.6600
G00 Z0.6000
G00 X52.4000 Y13.1200
G01 F60.00
G01 Z-2.4000
G01 F120.00
G01 X52.3995 Y13.1102
G01 X52.3981 Y13.1005
G01 X52.3957 Y13.0910
G01 X52.3924 Y13.0817
G01 X52.3882 Y13.0729
G01 X52.3831 Y13.0644
G01 X52.3773 Y13.0566
G01 X52.3707 Y13.0493
G01 X52.3634 Y13.0427
G01 X52.3556 Y13.0369
G01 X52.3471 Y13.0318
G01 X52.3383 Y13.0276
G01 X52.3290 Y13.0243
G01 X52.3195 Y13.0219
G01 X52.3098 Y13.0205
G01 X52.3000 Y13.0200
G01 X52.2902 Y13.0205
G01 X52.2805 Y13.0219
G01 X52.2710 Y13.0243
G01 X52.2617 Y13.0276
G01 X52.2529 Y13.0318
G01 X52.2444 Y13.0369
G01 X52.2366 Y13.0427
G01 X52.2293 Y13.0493
G01 X52.2227 Y13.0566
G01 X52.2169 Y13.0644
G01 X52.2118 Y13.0729
G01 X52.2076 Y13.0817
G01 X52.2043 Y13.0910
G01 X52.2019 Y13.1005
G01 X52.2005 Y13.1102
G01 X52.2000 Y13.1200
G01 X52.2005 Y13.1298
G01 X52.2019 Y13.1395
G01 X52.2043 Y13.1490
G01 X52.2076 Y13.1583
G01 X52.2118 Y13.1671
G01 X52.2169 Y13.1756
G01 X52.2227 Y13.1834
G01 X52.2293 Y13.1907
G01 X52.2366 Y13.1973
G01 X52.2444 Y13.2031
G01 X52.2529 Y13.2082
G01 X52.2617 Y13.2124
G01 X52.2710 Y13.2157
G01 X52.2805 Y13.2181
G01 X52.2902 Y13.2195
G01 X52.3000 Y13.2200
G01 X52.3098 Y13.2195
G01 X52.3195 Y13.2181
G01 X52.3290 Y13.2157
G01 X52.3383 Y13.2124
G01 X52.3471 Y13.2082
G01 X52.3556 Y13.2031
G01 X52.3634 Y13.1973
G01 X52.3707 Y13.1907
G01 X52.3773 Y13.1834
G01 X52.3831 Y13.1756
G01 X52.3882 Y13.1671
G01 X52.3924 Y13.1583
G01 X52.3957 Y13.1490
G01 X52.3981 Y13.1395
G01 X52.3995 Y13.1298
G01 X52.4000 Y13.1200
G00 Z0.6000
G00 X52.4000 Y10.5800
G01 F60.00
G01 Z-2.4000
G01 F120.00
G01 X52.3995 Y10.5702
G01 X52.3981 Y10.5605
G01 X52.3957 Y10.5510
G01 X52.3924 Y10.5417
G01 X52.3882 Y10.5329
G01 X52.3831 Y10.5244
G01 X52.3773 Y10.5166
G01 X52.3707 Y10.5093
G01 X52.3634 Y10.5027
G01 X52.3556 Y10.4969
G01 X52.3471 Y10.4918
G01 X52.3383 Y10.4876
G01 X52.3290 Y10.4843
G01 X52.3195 Y10.4819
G01 X52.3098 Y10.4805
G01 X52.3000 Y10.4800
G01 X52.2902 Y10.4805
G01 X52.2805 Y10.4819
G01 X52.2710 Y10.4843
G01 X52.2617 Y10.4876
G01 X52.2529 Y10.4918
G01 X52.2444 Y10.4969
G01 X52.2366 Y10.5027
G01 X52.2293 Y10.5093
G01 X52.2227 Y10.5166
G01 X52.2169 Y10.5244
G01 X52.2118 Y10.5329
G01 X52.2076 Y10.5417
G01 X52.2043 Y10.5510
G01 X52.2019 Y10.5605
G01 X52.2005 Y10.5702
G01 X52.2000 Y10.5800
G01 X52.2005 Y10.5898
G01 X52.2019 Y10.5995
G01 X52.2043 Y10.6090
G01 X52.2076 Y10.6183
G01 X52.2118 Y10.6271
G01 X52.2169 Y10.6356
G01 X52.2227 Y10.6434
G01 X52.2293 Y10.6507
G01 X52.2366 Y10.6573
G01 X52.2444 Y10.6631
G01 X52.2529 Y10.6682
G01 X52.2617 Y10.6724
G01 X52.2710 Y10.6757
G01 X52.2805 Y10.6781
G01 X52.2902 Y10.6795
G01 X52.3000 Y10.6800
G01 X52.3098 Y10.6795
G01 X52.3195 Y10.6781
G01 X52.3290 Y10.6757
G01 X52.3383 Y10.6724
G01 X52.3471 Y10.6682
G01 X52.3556 Y10.6631
G01 X52.3634 Y10.6573
G01 X52.3707 Y10.6507
G01 X52.3773 Y10.6434
G01 X52.3831 Y10.6356
G01 X52.3882 Y10.6271
G01 X52.3924 Y10.6183
G01 X52.3957 Y10.6090
G01 X52.3981 Y10.5995
G01 X52.3995 Y10.5898
G01 X52.4000 Y10.5800
G00 Z0.6000
G00 X49.4400 Y13.1000
G01 F60.00
G01 Z-2.4000
G01 F120.00
G01 X49.4400 Y13.1000
G01 X49.4400 Y13.1000
G01 X49.4400 Y13.1000
G01 X49.4400 Y13.1000
G00 Z0.6000
G00 X46.9000 Y13.1000
G01 F60.00
G01 Z-2.4000
G01 F120.00
G01 X46.9000 Y13.1000
G01 X46.9000 Y13.1000
G01 X46.9000 Y13.1000
G01 X46.9000 Y13.1000
G00 Z0.6000
G00 X46.9000 Y16.1000
G01 F60.00
G01 Z-2.4000
G01 F120.00
G01 X46.9000 Y16.1000
G01 X46.9000 Y16.1000
G01 X46.9000 Y16.1000
G01 X46.9000 Y16.1000
G00 Z0.6000
G00 X49.4400 Y16.1000
G01 F60.00
G01 Z-2.4000
G01 F120.00
G01 X49.4400 Y16.1000
G01 X49.4400 Y16.1000
G01 X49.4400 Y16.1000
G01 X49.4400 Y16.1000
G00 Z0.6000
G00 X46.2600 Y24.8000
G01 F60.00
G01 Z-2.4000
G01 F120.00
G01 X46.2600 Y24.8000
G01 X46.2600 Y24.8000
G01 X46.2600 Y24.8000
G01 X46.2600 Y24.8000
G00 Z0.6000
G00 X46.2600 Y27.8000
G01 F60.00
G01 Z-2.4000
G01 F120.00
G01 X46.2600 Y27.8000
G01 X46.2600 Y27.8000
G01 X46.2600 Y27.8000
G01 X46.2600 Y27.8000
G00 Z0.6000
G00 X46.2600 Y30.8000
G01 F60.00
G01 Z-2.4000
G01 F120.00
G01 X46.2600 Y30.8000
G01 X46.2600 Y30.8000
G01 X46.2600 Y30.8000
G01 X46.2600 Y30.8000
G00 Z0.6000
G00 X46.2600 Y33.8000
G01 F60.00
G01 Z-2.4000
G01 F120.00
G01 X46.2600 Y33.8000
G01 X46.2600 Y33.8000
G01 X46.2600 Y33.8000
G01 X46.2600 Y33.8000
G00 Z0.6000
G00 X43.8050 Y37.5000
G01 F60.00
G01 Z-2.4000
G01 F120.00
G01 X43.8046 Y37.4926
G01 X43.8036 Y37.4854
G01 X43.8018 Y37.4782
G01 X43.7993 Y37.4713
G01 X43.7961 Y37.4646
G01 X43.7924 Y37.4583
G01 X43.7880 Y37.4524
G01 X43.7830 Y37.4470
G01 X43.7776 Y37.4420
G01 X43.7717 Y37.4376
G01 X43.7654 Y37.4339
G01 X43.7587 Y37.4307
G01 X43.7518 Y37.4282
G01 X43.7446 Y37.4264
G01 X43.7374 Y37.4254
G01 X43.7300 Y37.4250
G01 X43.7226 Y37.4254
G01 X43.7154 Y37.4264
G01 X43.7082 Y37.4282
G01 X43.7013 Y37.4307
G01 X43.6946 Y37.4339
G01 X43.6883 Y37.4376
G01 X43.6824 Y37.4420
G01 X43.6770 Y37.4470
G01 X43.6720 Y37.4524
G01 X43.6676 Y37.4583
G01 X43.6639 Y37.4646
G01 X43.6607 Y37.4713
G01 X43.6582 Y37.4782
G01 X43.6564 Y37.4854
G01 X43.6554 Y37.4926
G01 X43.6550 Y37.5000
G01 X43.6554 Y37.5074
G01 X43.6564 Y37.5146
G01 X43.6582 Y37.5218
G01 X43.6607 Y37.5287
G01 X43.6639 Y37.5354
G01 X43.6676 Y37.5417
G01 X43.6720 Y37.5476
G01 X43.6770 Y37.5530
G01 X43.6824 Y37.5580
G01 X43.6883 Y37.5624
G01 X43.6946 Y37.5661
G01 X43.7013 Y37.5693
G01 X43.7082 Y37.5718
G01 X43.7154 Y37.5736
G01 X43.7226 Y37.5746
G01 X43.7300 Y37.5750
G01 X43.7374 Y37.5746
G01 X43.7446 Y37.5736
G01 X43.7518 Y37.5718
G01 X43.7587 Y37.5693
G01 X43.7654 Y37.5661
G01 X43.7717 Y37.5624
G01 X43.7776 Y37.5580
G01 X43.7830 Y37.5530
G01 X43.7880 Y37.5476
G01 X43.7924 Y37.5417
G01 X43.7961 Y37.5354
G01 X43.7993 Y37.5287
G01 X43.8018 Y37.5218
G01 X43.8036 Y37.5146
G01 X43.8046 Y37.5074
G01 X43.8050 Y37.5000
G00 Z0.6000
G00 X41.2650 Y37.5000
G01 F60.00
G01 Z-2.4000
G01 F120.00
G01 X41.2646 Y37.4926
G01 X41.2636 Y37.4854
G01 X41.2618 Y37.4782
G01 X41.2593 Y37.4713
G01 X41.2561 Y37.4646
G01 X41.2524 Y37.4583
G01 X41.2480 Y37.4524
G01 X41.2430 Y37.4470
G01 X41.2376 Y37.4420
G01 X41.2317 Y37.4376
G01 X41.2254 Y37.4339
G01 X41.2187 Y37.4307
G01 X41.2118 Y37.4282
G01 X41.2046 Y37.4264
G01 X41.1974 Y37.4254
G01 X41.1900 Y37.4250
G01 X41.1826 Y37.4254
G01 X41.1754 Y37.4264
G01 X41.1682 Y37.4282
G01 X41.1613 Y37.4307
G01 X41.1546 Y37.4339
G01 X41.1483 Y37.4376
G01 X41.1424 Y37.4420
G01 X41.1370 Y37.4470
G01 X41.1320 Y37.4524
G01 X41.1276 Y37.4583
G01 X41.1239 Y37.4646
G01 X41.1207 Y37.4713
G01 X41.1182 Y37.4782
G01 X41.1164 Y37.4854
G01 X41.1154 Y37.4926
G01 X41.1150 Y37.5000
G01 X41.1154 Y37.5074
G01 X41.1164 Y37.5146
G01 X41.1182 Y37.5218
G01 X41.1207 Y37.5287
G01 X41.1239 Y37.5354
G01 X41.1276 Y37.5417
G01 X41.1320 Y37.5476
G01 X41.1370 Y37.5530
G01 X41.1424 Y37.5580
G01 X41.1483 Y37.5624
G01 X41.1546 Y37.5661
G01 X41.1613 Y37.5693
G01 X41.1682 Y37.5718
G01 X41.1754 Y37.5736
G01 X41.1826 Y37.5746
G01 X41.1900 Y37.5750
G01 X41.1974 Y37.5746
G01 X41.2046 Y37.5736
G01 X41.2118 Y37.5718
G01 X41.2187 Y37.5693
G01 X41.2254 Y37.5661
G01 X41.2317 Y37.5624
G01 X41.2376 Y37.5580
G01 X41.2430 Y37.5530
G01 X41.2480 Y37.5476
G01 X41.2524 Y37.5417
G01 X41.2561 Y37.5354
G01 X41.2593 Y37.5287
G01 X41.2618 Y37.5218
G01 X41.2636 Y37.5146
G01 X41.2646 Y37.5074
G01 X41.2650 Y37.5000
G00 Z0.6000
G00 X38.7250 Y37.5000
G01 F60.00
G01 Z-2.4000
G01 F120.00
G01 X38.7246 Y37.4926
G01 X38.7236 Y37.4854
G01 X38.7218 Y37.4782
G01 X38.7193 Y37.4713
G01 X38.7161 Y37.4646
G01 X38.7124 Y37.4583
G01 X38.7080 Y37.4524
G01 X38.7030 Y37.4470
G01 X38.6976 Y37.4420
G01 X38.6917 Y37.4376
G01 X38.6854 Y37.4339
G01 X38.6787 Y37.4307
G01 X38.6718 Y37.4282
G01 X38.6646 Y37.4264
G01 X38.6574 Y37.4254
G01 X38.6500 Y37.4250
G01 X38.6426 Y37.4254
G01 X38.6354 Y37.4264
G01 X38.6282 Y37.4282
G01 X38.6213 Y37.4307
G01 X38.6146 Y37.4339
G01 X38.6083 Y37.4376
G01 X38.6024 Y37.4420
G01 X38.5970 Y37.4470
G01 X38.5920 Y37.4524
G01 X38.5876 Y37.4583
G01 X38.5839 Y37.4646
G01 X38.5807 Y37.4713
G01 X38.5782 Y37.4782
G01 X38.5764 Y37.4854
G01 X38.5754 Y37.4926
G01 X38.5750 Y37.5000
G01 X38.5754 Y37.5074
G01 X38.5764 Y37.5146
G01 X38.5782 Y37.5218
G01 X38.5807 Y37.5287
G01 X38.5839 Y37.5354
G01 X38.5876 Y37.5417
G01 X38.5920 Y37.5476
G01 X38.5970 Y37.5530
G01 X38.6024 Y37.5580
G01 X38.6083 Y37.5624
G01 X38.6146 Y37.5661
G01 X38.6213 Y37.5693
G01 X38.6282 Y37.5718
G01 X38.6354 Y37.5736
G01 X38.6426 Y37.5746
G01 X38.6500 Y37.5750
G01 X38.6574 Y37.5746
G01 X38.6646 Y37.5736
G01 X38.6718 Y37.5718
G01 X38.6787 Y37.5693
G01 X38.6854 Y37.5661
G01 X38.6917 Y37.5624
G01 X38.6976 Y37.5580
G01 X38.7030 Y37.5530
G01 X38.7080 Y37.5476
G01 X38.7124 Y37.5417
G01 X38.7161 Y37.5354
G01 X38.7193 Y37.5287
G01 X38.7218 Y37.5218
G01 X38.7236 Y37.5146
G01 X38.7246 Y37.5074
G01 X38.7250 Y37.5000
G00 Z0.6000
G00 X36.1850 Y37.5000
G01 F60.00
G01 Z-2.4000
G01 F120.00
G01 X36.1846 Y37.4926
G01 X36.1836 Y37.4854
G01 X36.1818 Y37.4782
G01 X36.1793 Y37.4713
G01 X36.1761 Y37.4646
G01 X36.1724 Y37.4583
G01 X36.1680 Y37.4524
G01 X36.1630 Y37.4470
G01 X36.1576 Y37.4420
G01 X36.1517 Y37.4376
G01 X36.1454 Y37.4339
G01 X36.1387 Y37.4307
G01 X36.1318 Y37.4282
G01 X36.1246 Y37.4264
G01 X36.1174 Y37.4254
G01 X36.1100 Y37.4250
G01 X36.1026 Y37.4254
G01 X36.0954 Y37.4264
G01 X36.0882 Y37.4282
G01 X36.0813 Y37.4307
G01 X36.0746 Y37.4339
G01 X36.0683 Y37.4376
G01 X36.0624 Y37.4420
G01 X36.0570 Y37.4470
G01 X36.0520 Y37.4524
G01 X36.0476 Y37.4583
G01 X36.0439 Y37.4646
G01 X36.0407 Y37.4713
G01 X36.0382 Y37.4782
G01 X36.0364 Y37.4854
G01 X36.0354 Y37.4926
G01 X36.0350 Y37.5000
G01 X36.0354 Y37.5074
G01 X36.0364 Y37.5146
G01 X36.0382 Y37.5218
G01 X36.0407 Y37.5287
G01 X36.0439 Y37.5354
G01 X36.0476 Y37.5417
G01 X36.0520 Y37.5476
G01 X36.0570 Y37.5530
G01 X36.0624 Y37.5580
G01 X36.0683 Y37.5624
G01 X36.0746 Y37.5661
G01 X36.0813 Y37.5693
G01 X36.0882 Y37.5718
G01 X36.0954 Y37.5736
G01 X36.1026 Y37.5746
G01 X36.1100 Y37.5750
G01 X36.1174 Y37.5746
G01 X36.1246 Y37.5736
G01 X36.1318 Y37.5718
G01 X36.1387 Y37.5693
G01 X36.1454 Y37.5661
G01 X36.1517 Y37.5624
G01 X36.1576 Y37.5580
G01 X36.1630 Y37.5530
G01 X36.1680 Y37.5476
G01 X36.1724 Y37.5417
G01 X36.1761 Y37.5354
G01 X36.1793 Y37.5287
G01 X36.1818 Y37.5218
G01 X36.1836 Y37.5146
G01 X36.1846 Y37.5074
G01 X36.1850 Y37.5000
G00 Z0.6000
G00 X33.6450 Y37.5000
G01 F60.00
G01 Z-2.4000
G01 F120.00
G01 X33.6446 Y37.4926
G01 X33.6436 Y37.4854
G01 X33.6418 Y37.4782
G01 X33.6393 Y37.4713
G01 X33.6361 Y37.4646
G01 X33.6324 Y37.4583
G01 X33.6280 Y37.4524
G01 X33.6230 Y37.4470
G01 X33.6176 Y37.4420
G01 X33.6117 Y37.4376
G01 X33.6054 Y37.4339
G01 X33.5987 Y37.4307
G01 X33.5918 Y37.4282
G01 X33.5846 Y37.4264
G01 X33.5774 Y37.4254
G01 X33.5700 Y37.4250
G01 X33.5626 Y37.4254
G01 X33.5554 Y37.4264
G01 X33.5482 Y37.4282
G01 X33.5413 Y37.4307
G01 X33.5346 Y37.4339
G01 X33.5283 Y37.4376
G01 X33.5224 Y37.4420
G01 X33.5170 Y37.4470
G01 X33.5120 Y37.4524
G01 X33.5076 Y37.4583
G01 X33.5039 Y37.4646
G01 X33.5007 Y37.4713
G01 X33.4982 Y37.4782
G01 X33.4964 Y37.4854
G01 X33.4954 Y37.4926
G01 X33.4950 Y37.5000
G01 X33.4954 Y37.5074
G01 X33.4964 Y37.5146
G01 X33.4982 Y37.5218
G01 X33.5007 Y37.5287
G01 X33.5039 Y37.5354
G01 X33.5076 Y37.5417
G01 X33.5120 Y37.5476
G01 X33.5170 Y37.5530
G01 X33.5224 Y37.5580
G01 X33.5283 Y37.5624
G01 X33.5346 Y37.5661
G01 X33.5413 Y37.5693
G01 X33.5482 Y37.5718
G01 X33.5554 Y37.5736
G01 X33.5626 Y37.5746
G01 X33.5700 Y37.5750
G01 X33.5774 Y37.5746
G01 X33.5846 Y37.5736
G01 X33.5918 Y37.5718
G01 X33.5987 Y37.5693
G01 X33.6054 Y37.5661
G01 X33.6117 Y37.5624
G01 X33.6176 Y37.5580
G01 X33.6230 Y37.5530
G01 X33.6280 Y37.5476
G01 X33.6324 Y37.5417
G01 X33.6361 Y37.5354
G01 X33.6393 Y37.5287
G01 X33.6418 Y37.5218
G01 X33.6436 Y37.5146
G01 X33.6446 Y37.5074
G01 X33.6450 Y37.5000
G00 Z0.6000
G00 X33.6450 Y40.0400
G01 F60.00
G01 Z-2.4000
G01 F120.00
G01 X33.6446 Y40.0326
G01 X33.6436 Y40.0254
G01 X33.6418 Y40.0182
G01 X33.6393 Y40.0113
G01 X33.6361 Y40.0046
G01 X33.6324 Y39.9983
G01 X33.6280 Y39.9924
G01 X33.6230 Y39.9870
G01 X33.6176 Y39.9820
G01 X33.6117 Y39.9776
G01 X33.6054 Y39.9739
G01 X33.5987 Y39.9707
G01 X33.5918 Y39.9682
G01 X33.5846 Y39.9664
G01 X33.5774 Y39.9654
G01 X33.5700 Y39.9650
G01 X33.5626 Y39.9654
G01 X33.5554 Y39.9664
G01 X33.5482 Y39.9682
G01 X33.5413 Y39.9707
G01 X33.5346 Y39.9739
G01 X33.5283 Y39.9776
G01 X33.5224 Y39.9820
G01 X33.5170 Y39.9870
G01 X33.5120 Y39.9924
G01 X33.5076 Y39.9983
G01 X33.5039 Y40.0046
G01 X33.5007 Y40.0113
G01 X33.4982 Y40.0182
G01 X33.4964 Y40.0254
G01 X33.4954 Y40.0326
G01 X33.4950 Y40.0400
G01 X33.4954 Y40.0474
G01 X33.4964 Y40.0546
G01 X33.4982 Y40.0618
G01 X33.5007 Y40.0687
G01 X33.5039 Y40.0754
G01 X33.5076 Y40.0817
G01 X33.5120 Y40.0876
G01 X33.5170 Y40.0930
G01 X33.5224 Y40.0980
G01 X33.5283 Y40.1024
G01 X33.5346 Y40.1061
G01 X33.5413 Y40.1093
G01 X33.5482 Y40.1118
G01 X33.5554 Y40.1136
G01 X33.5626 Y40.1146
G01 X33.5700 Y40.1150
G01 X33.5774 Y40.1146
G01 X33.5846 Y40.1136
G01 X33.5918 Y40.1118
G01 X33.5987 Y40.1093
G01 X33.6054 Y40.1061
G01 X33.6117 Y40.1024
G01 X33.6176 Y40.0980
G01 X33.6230 Y40.0930
G01 X33.6280 Y40.0876
G01 X33.6324 Y40.0817
G01 X33.6361 Y40.0754
G01 X33.6393 Y40.0687
G01 X33.6418 Y40.0618
G01 X33.6436 Y40.0546
G01 X33.6446 Y40.0474
G01 X33.6450 Y40.0400
G00 Z0.6000
G00 X36.1850 Y40.0400
G01 F60.00
G01 Z-2.4000
G01 F120.00
G01 X36.1846 Y40.0326
G01 X36.1836 Y40.0254
G01 X36.1818 Y40.0182
G01 X36.1793 Y40.0113
G01 X36.1761 Y40.0046
G01 X36.1724 Y39.9983
G01 X36.1680 Y39.9924
G01 X36.1630 Y39.9870
G01 X36.1576 Y39.9820
G01 X36.1517 Y39.9776
G01 X36.1454 Y39.9739
G01 X36.1387 Y39.9707
G01 X36.1318 Y39.9682
G01 X36.1246 Y39.9664
G01 X36.1174 Y39.9654
G01 X36.1100 Y39.9650
G01 X36.1026 Y39.9654
G01 X36.0954 Y39.9664
G01 X36.0882 Y39.9682
G01 X36.0813 Y39.9707
G01 X36.0746 Y39.9739
G01 X36.0683 Y39.9776
G01 X36.0624 Y39.9820
G01 X36.0570 Y39.9870
G01 X36.0520 Y39.9924
G01 X36.0476 Y39.9983
G01 X36.0439 Y40.0046
G01 X36.0407 Y40.0113
G01 X36.0382 Y40.0182
G01 X36.0364 Y40.0254
G01 X36.0354 Y40.0326
G01 X36.0350 Y40.0400
G01 X36.0354 Y40.0474
G01 X36.0364 Y40.0546
G01 X36.0382 Y40.0618
G01 X36.0407 Y40.0687
G01 X36.0439 Y40.0754
G01 X36.0476 Y40.0817
G01 X36.0520 Y40.0876
G01 X36.0570 Y40.0930
G01 X36.0624 Y40.0980
G01 X36.0683 Y40.1024
G01 X36.0746 Y40.1061
G01 X36.0813 Y40.1093
G01 X36.0882 Y40.1118
G01 X36.0954 Y40.1136
G01 X36.1026 Y40.1146
G01 X36.1100 Y40.1150
G01 X36.1174 Y40.1146
G01 X36.1246 Y40.1136
G01 X36.1318 Y40.1118
G01 X36.1387 Y40.1093
G01 X36.1454 Y40.1061
G01 X36.1517 Y40.1024
G01 X36.1576 Y40.0980
G01 X36.1630 Y40.0930
G01 X36.1680 Y40.0876
G01 X36.1724 Y40.0817
G01 X36.1761 Y40.0754
G01 X36.1793 Y40.0687
G01 X36.1818 Y40.0618
G01 X36.1836 Y40.0546
G01 X36.1846 Y40.0474
G01 X36.1850 Y40.0400
G00 Z0.6000
G00 X38.7250 Y40.0400
G01 F60.00
G01 Z-2.4000
G01 F120.00
G01 X38.7246 Y40.0326
G01 X38.7236 Y40.0254
G01 X38.7218 Y40.0182
G01 X38.7193 Y40.0113
G01 X38.7161 Y40.0046
G01 X38.7124 Y39.9983
G01 X38.7080 Y39.9924
G01 X38.7030 Y39.9870
G01 X38.6976 Y39.9820
G01 X38.6917 Y39.9776
G01 X38.6854 Y39.9739
G01 X38.6787 Y39.9707
G01 X38.6718 Y39.9682
G01 X38.6646 Y39.9664
G01 X38.6574 Y39.9654
G01 X38.6500 Y39.9650
G01 X38.6426 Y39.9654
G01 X38.6354 Y39.9664
G01 X38.6282 Y39.9682
G01 X38.6213 Y39.9707
G01 X38.6146 Y39.9739
G01 X38.6083 Y39.9776
G01 X38.6024 Y39.9820
G01 X38.5970 Y39.9870
G01 X38.5920 Y39.9924
G01 X38.5876 Y39.9983
G01 X38.5839 Y40.0046
G01 X38.5807 Y40.0113
G01 X38.5782 Y40.0182
G01 X38.5764 Y40.0254
G01 X38.5754 Y40.0326
G01 X38.5750 Y40.0400
G01 X38.5754 Y40.0474
G01 X38.5764 Y40.0546
G01 X38.5782 Y40.0618
G01 X38.5807 Y40.0687
G01 X38.5839 Y40.0754
G01 X38.5876 Y40.0817
G01 X38.5920 Y40.0876
G01 X38.5970 Y40.0930
G01 X38.6024 Y40.0980
G01 X38.6083 Y40.1024
G01 X38.6146 Y40.1061
G01 X38.6213 Y40.1093
G01 X38.6282 Y40.1118
G01 X38.6354 Y40.1136
G01 X38.6426 Y40.1146
G01 X38.6500 Y40.1150
G01 X38.6574 Y40.1146
G01 X38.6646 Y40.1136
G01 X38.6718 Y40.1118
G01 X38.6787 Y40.1093
G01 X38.6854 Y40.1061
G01 X38.6917 Y40.1024
G01 X38.6976 Y40.0980
G01 X38.7030 Y40.0930
G01 X38.7080 Y40.0876
G01 X38.7124 Y40.0817
G01 X38.7161 Y40.0754
G01 X38.7193 Y40.0687
G01 X38.7218 Y40.0618
G01 X38.7236 Y40.0546
G01 X38.7246 Y40.0474
G01 X38.7250 Y40.0400
G00 Z0.6000
G00 X41.2650 Y40.0400
G01 F60.00
G01 Z-2.4000
G01 F120.00
G01 X41.2646 Y40.0326
G01 X41.2636 Y40.0254
G01 X41.2618 Y40.0182
G01 X41.2593 Y40.0113
G01 X41.2561 Y40.0046
G01 X41.2524 Y39.9983
G01 X41.2480 Y39.9924
G01 X41.2430 Y39.9870
G01 X41.2376 Y39.9820
G01 X41.2317 Y39.9776
G01 X41.2254 Y39.9739
G01 X41.2187 Y39.9707
G01 X41.2118 Y39.9682
G01 X41.2046 Y39.9664
G01 X41.1974 Y39.9654
G01 X41.1900 Y39.9650
G01 X41.1826 Y39.9654
G01 X41.1754 Y39.9664
G01 X41.1682 Y39.9682
G01 X41.1613 Y39.9707
G01 X41.1546 Y39.9739
G01 X41.1483 Y39.9776
G01 X41.1424 Y39.9820
G01 X41.1370 Y39.9870
G01 X41.1320 Y39.9924
G01 X41.1276 Y39.9983
G01 X41.1239 Y40.0046
G01 X41.1207 Y40.0113
G01 X41.1182 Y40.0182
G01 X41.1164 Y40.0254
G01 X41.1154 Y40.0326
G01 X41.1150 Y40.0400
G01 X41.1154 Y40.0474
G01 X41.1164 Y40.0546
G01 X41.1182 Y40.0618
G01 X41.1207 Y40.0687
G01 X41.1239 Y40.0754
G01 X41.1276 Y40.0817
G01 X41.1320 Y40.0876
G01 X41.1370 Y40.0930
G01 X41.1424 Y40.0980
G01 X41.1483 Y40.1024
G01 X41.1546 Y40.1061
G01 X41.1613 Y40.1093
G01 X41.1682 Y40.1118
G01 X41.1754 Y40.1136
G01 X41.1826 Y40.1146
G01 X41.1900 Y40.1150
G01 X41.1974 Y40.1146
G01 X41.2046 Y40.1136
G01 X41.2118 Y40.1118
G01 X41.2187 Y40.1093
G01 X41.2254 Y40.1061
G01 X41.2317 Y40.1024
G01 X41.2376 Y40.0980
G01 X41.2430 Y40.0930
G01 X41.2480 Y40.0876
G01 X41.2524 Y40.0817
G01 X41.2561 Y40.0754
G01 X41.2593 Y40.0687
G01 X41.2618 Y40.0618
G01 X41.2636 Y40.0546
G01 X41.2646 Y40.0474
G01 X41.2650 Y40.0400
G00 Z0.6000
G00 X43.8050 Y40.0400
G01 F60.00
G01 Z-2.4000
G01 F120.00
G01 X43.8046 Y40.0326
G01 X43.8036 Y40.0254
G01 X43.8018 Y40.0182
G01 X43.7993 Y40.0113
G01 X43.7961 Y40.0046
G01 X43.7924 Y39.9983
G01 X43.7880 Y39.9924
G01 X43.7830 Y39.9870
G01 X43.7776 Y39.9820
G01 X43.7717 Y39.9776
G01 X43.7654 Y39.9739
G01 X43.7587 Y39.9707
G01 X43.7518 Y39.9682
G01 X43.7446 Y39.9664
G01 X43.7374 Y39.9654
G01 X43.7300 Y39.9650
G01 X43.7226 Y39.9654
G01 X43.7154 Y39.9664
G01 X43.7082 Y39.9682
G01 X43.7013 Y39.9707
G01 X43.6946 Y39.9739
G01 X43.6883 Y39.9776
G01 X43.6824 Y39.9820
G01 X43.6770 Y39.9870
G01 X43.6720 Y39.9924
G01 X43.6676 Y39.9983
G01 X43.6639 Y40.0046
G01 X43.6607 Y40.0113
G01 X43.6582 Y40.0182
G01 X43.6564 Y40.0254
G01 X43.6554 Y40.0326
G01 X43.6550 Y40.0400
G01 X43.6554 Y40.0474
G01 X43.6564 Y40.0546
G01 X43.6582 Y40.0618
G01 X43.6607 Y40.0687
G01 X43.6639 Y40.0754
G01 X43.6676 Y40.0817
G01 X43.6720 Y40.0876
G01 X43.6770 Y40.0930
G01 X43.6824 Y40.0980
G01 X43.6883 Y40.1024
G01 X43.6946 Y40.1061
G01 X43.7013 Y40.1093
G01 X43.7082 Y40.1118
G01 X43.7154 Y40.1136
G01 X43.7226 Y40.1146
G01 X43.7300 Y40.1150
G01 X43.7374 Y40.1146
G01 X43.7446 Y40.1136
G01 X43.7518 Y40.1118
G01 X43.7587 Y40.1093
G01 X43.7654 Y40.1061
G01 X43.7717 Y40.1024
G01 X43.7776 Y40.0980
G01 X43.7830 Y40.0930
G01 X43.7880 Y40.0876
G01 X43.7924 Y40.0817
G01 X43.7961 Y40.0754
G01 X43.7993 Y40.0687
G01 X43.8018 Y40.0618
G01 X43.8036 Y40.0546
G01 X43.8046 Y40.0474
G01 X43.8050 Y40.0400
G00 Z0.6000
G00 X38.7250 Y43.8500
G01 F60.00
G01 Z-2.4000
G01 F120.00
G01 X38.7246 Y43.8426
G01 X38.7236 Y43.8354
G01 X38.7218 Y43.8282
G01 X38.7193 Y43.8213
G01 X38.7161 Y43.8146
G01 X38.7124 Y43.8083
G01 X38.7080 Y43.8024
G01 X38.7030 Y43.7970
G01 X38.6976 Y43.7920
G01 X38.6917 Y43.7876
G01 X38.6854 Y43.7839
G01 X38.6787 Y43.7807
G01 X38.6718 Y43.7782
G01 X38.6646 Y43.7764
G01 X38.6574 Y43.7754
G01 X38.6500 Y43.7750
G01 X38.6426 Y43.7754
G01 X38.6354 Y43.7764
G01 X38.6282 Y43.7782
G01 X38.6213 Y43.7807
G01 X38.6146 Y43.7839
G01 X38.6083 Y43.7876
G01 X38.6024 Y43.7920
G01 X38.5970 Y43.7970
G01 X38.5920 Y43.8024
G01 X38.5876 Y43.8083
G01 X38.5839 Y43.8146
G01 X38.5807 Y43.8213
G01 X38.5782 Y43.8282
G01 X38.5764 Y43.8354
G01 X38.5754 Y43.8426
G01 X38.5750 Y43.8500
G01 X38.5754 Y43.8574
G01 X38.5764 Y43.8646
G01 X38.5782 Y43.8718
G01 X38.5807 Y43.8787
G01 X38.5839 Y43.8854
G01 X38.5876 Y43.8917
G01 X38.5920 Y43.8976
G01 X38.5970 Y43.9030
G01 X38.6024 Y43.9080
G01 X38.6083 Y43.9124
G01 X38.6146 Y43.9161
G01 X38.6213 Y43.9193
G01 X38.6282 Y43.9218
G01 X38.6354 Y43.9236
G01 X38.6426 Y43.9246
G01 X38.6500 Y43.9250
G01 X38.6574 Y43.9246
G01 X38.6646 Y43.9236
G01 X38.6718 Y43.9218
G01 X38.6787 Y43.9193
G01 X38.6854 Y43.9161
G01 X38.6917 Y43.9124
G01 X38.6976 Y43.9080
G01 X38.7030 Y43.9030
G01 X38.7080 Y43.8976
G01 X38.7124 Y43.8917
G01 X38.7161 Y43.8854
G01 X38.7193 Y43.8787
G01 X38.7218 Y43.8718
G01 X38.7236 Y43.8646
G01 X38.7246 Y43.8574
G01 X38.7250 Y43.8500
G00 Z0.6000
G00 X36.1850 Y43.8500
G01 F60.00
G01 Z-2.4000
G01 F120.00
G01 X36.1846 Y43.8426
G01 X36.1836 Y43.8354
G01 X36.1818 Y43.8282
G01 X36.1793 Y43.8213
G01 X36.1761 Y43.8146
G01 X36.1724 Y43.8083
G01 X36.1680 Y43.8024
G01 X36.1630 Y43.7970
G01 X36.1576 Y43.7920
G01 X36.1517 Y43.7876
G01 X36.1454 Y43.7839
G01 X36.1387 Y43.7807
G01 X36.1318 Y43.7782
G01 X36.1246 Y43.7764
G01 X36.1174 Y43.7754
G01 X36.1100 Y43.7750
G01 X36.1026 Y43.7754
G01 X36.0954 Y43.7764
G01 X36.0882 Y43.7782
G01 X36.0813 Y43.7807
G01 X36.0746 Y43.7839
G01 X36.0683 Y43.7876
G01 X36.0624 Y43.7920
G01 X36.0570 Y43.7970
G01 X36.0520 Y43.8024
G01 X36.0476 Y43.8083
G01 X36.0439 Y43.8146
G01 X36.0407 Y43.8213
G01 X36.0382 Y43.8282
G01 X36.0364 Y43.8354
G01 X36.0354 Y43.8426
G01 X36.0350 Y43.8500
G01 X36.0354 Y43.8574
G01 X36.0364 Y43.8646
G01 X36.0382 Y43.8718
G01 X36.0407 Y43.8787
G01 X36.0439 Y43.8854
G01 X36.0476 Y43.8917
G01 X36.0520 Y43.8976
G01 X36.0570 Y43.9030
G01 X36.0624 Y43.9080
G01 X36.0683 Y43.9124
G01 X36.0746 Y43.9161
G01 X36.0813 Y43.9193
G01 X36.0882 Y43.9218
G01 X36.0954 Y43.9236
G01 X36.1026 Y43.9246
G01 X36.1100 Y43.9250
G01 X36.1174 Y43.9246
G01 X36.1246 Y43.9236
G01 X36.1318 Y43.9218
G01 X36.1387 Y43.9193
G01 X36.1454 Y43.9161
G01 X36.1517 Y43.9124
G01 X36.1576 Y43.9080
G01 X36.1630 Y43.9030
G01 X36.1680 Y43.8976
G01 X36.1724 Y43.8917
G01 X36.1761 Y43.8854
G01 X36.1793 Y43.8787
G01 X36.1818 Y43.8718
G01 X36.1836 Y43.8646
G01 X36.1846 Y43.8574
G01 X36.1850 Y43.8500
G00 Z0.6000
G00 X31.1050 Y40.0400
G01 F60.00
G01 Z-2.4000
G01 F120.00
G01 X31.1046 Y40.0326
G01 X31.1036 Y40.0254
G01 X31.1018 Y40.0182
G01 X31.0993 Y40.0113
G01 X31.0961 Y40.0046
G01 X31.0924 Y39.9983
G01 X31.0880 Y39.9924
G01 X31.0830 Y39.9870
G01 X31.0776 Y39.9820
G01 X31.0717 Y39.9776
G01 X31.0654 Y39.9739
G01 X31.0587 Y39.9707
G01 X31.0518 Y39.9682
G01 X31.0446 Y39.9664
G01 X31.0374 Y39.9654
G01 X31.0300 Y39.9650
G01 X31.0226 Y39.9654
G01 X31.0154 Y39.9664
G01 X31.0082 Y39.9682
G01 X31.0013 Y39.9707
G01 X30.9946 Y39.9739
G01 X30.9883 Y39.9776
G01 X30.9824 Y39.9820
G01 X30.9770 Y39.9870
G01 X30.9720 Y39.9924
G01 X30.9676 Y39.9983
G01 X30.9639 Y40.0046
G01 X30.9607 Y40.0113
G01 X30.9582 Y40.0182
G01 X30.9564 Y40.0254
G01 X30.9554 Y40.0326
G01 X30.9550 Y40.0400
G01 X30.9554 Y40.0474
G01 X30.9564 Y40.0546
G01 X30.9582 Y40.0618
G01 X30.9607 Y40.0687
G01 X30.9639 Y40.0754
G01 X30.9676 Y40.0817
G01 X30.9720 Y40.0876
G01 X30.9770 Y40.0930
G01 X30.9824 Y40.0980
G01 X30.9883 Y40.1024
G01 X30.9946 Y40.1061
G01 X31.0013 Y40.1093
G01 X31.0082 Y40.1118
G01 X31.0154 Y40.1136
G01 X31.0226 Y40.1146
G01 X31.0300 Y40.1150
G01 X31.0374 Y40.1146
G01 X31.0446 Y40.1136
G01 X31.0518 Y40.1118
G01 X31.0587 Y40.1093
G01 X31.0654 Y40.1061
G01 X31.0717 Y40.1024
G01 X31.0776 Y40.0980
G01 X31.0830 Y40.0930
G01 X31.0880 Y40.0876
G01 X31.0924 Y40.0817
G01 X31.0961 Y40.0754
G01 X31.0993 Y40.0687
G01 X31.1018 Y40.0618
G01 X31.1036 Y40.0546
G01 X31.1046 Y40.0474
G01 X31.1050 Y40.0400
G00 Z0.6000
G00 X31.1050 Y37.5000
G01 F60.00
G01 Z-2.4000
G01 F120.00
G01 X31.1046 Y37.4926
G01 X31.1036 Y37.4854
G01 X31.1018 Y37.4782
G01 X31.0993 Y37.4713
G01 X31.0961 Y37.4646
G01 X31.0924 Y37.4583
G01 X31.0880 Y37.4524
G01 X31.0830 Y37.4470
G01 X31.0776 Y37.4420
G01 X31.0717 Y37.4376
G01 X31.0654 Y37.4339
G01 X31.0587 Y37.4307
G01 X31.0518 Y37.4282
G01 X31.0446 Y37.4264
G01 X31.0374 Y37.4254
G01 X31.0300 Y37.4250
G01 X31.0226 Y37.4254
G01 X31.0154 Y37.4264
G01 X31.0082 Y37.4282
G01 X31.0013 Y37.4307
G01 X30.9946 Y37.4339
G01 X30.9883 Y37.4376
G01 X30.9824 Y37.4420
G01 X30.9770 Y37.4470
G01 X30.9720 Y37.4524
G01 X30.9676 Y37.4583
G01 X30.9639 Y37.4646
G01 X30.9607 Y37.4713
G01 X30.9582 Y37.4782
G01 X30.9564 Y37.4854
G01 X30.9554 Y37.4926
G01 X30.9550 Y37.5000
G01 X30.9554 Y37.5074
G01 X30.9564 Y37.5146
G01 X30.9582 Y37.5218
G01 X30.9607 Y37.5287
G01 X30.9639 Y37.5354
G01 X30.9676 Y37.5417
G01 X30.9720 Y37.5476
G01 X30.9770 Y37.5530
G01 X30.9824 Y37.5580
G01 X30.9883 Y37.5624
G01 X30.9946 Y37.5661
G01 X31.0013 Y37.5693
G01 X31.0082 Y37.5718
G01 X31.0154 Y37.5736
G01 X31.0226 Y37.5746
G01 X31.0300 Y37.5750
G01 X31.0374 Y37.5746
G01 X31.0446 Y37.5736
G01 X31.0518 Y37.5718
G01 X31.0587 Y37.5693
G01 X31.0654 Y37.5661
G01 X31.0717 Y37.5624
G01 X31.0776 Y37.5580
G01 X31.0830 Y37.5530
G01 X31.0880 Y37.5476
G01 X31.0924 Y37.5417
G01 X31.0961 Y37.5354
G01 X31.0993 Y37.5287
G01 X31.1018 Y37.5218
G01 X31.1036 Y37.5146
G01 X31.1046 Y37.5074
G01 X31.1050 Y37.5000
G00 Z0.6000
G00 X27.3450 Y37.5000
G01 F60.00
G01 Z-2.4000
G01 F120.00
G01 X27.3446 Y37.4926
G01 X27.3436 Y37.4854
G01 X27.3418 Y37.4782
G01 X27.3393 Y37.4713
G01 X27.3361 Y37.4646
G01 X27.3324 Y37.4583
G01 X27.3280 Y37.4524
G01 X27.3230 Y37.4470
G01 X27.3176 Y37.4420
G01 X27.3117 Y37.4376
G01 X27.3054 Y37.4339
G01 X27.2987 Y37.4307
G01 X27.2918 Y37.4282
G01 X27.2846 Y37.4264
G01 X27.2774 Y37.4254
G01 X27.2700 Y37.4250
G01 X27.2626 Y37.4254
G01 X27.2554 Y37.4264
G01 X27.2482 Y37.4282
G01 X27.2413 Y37.4307
G01 X27.2346 Y37.4339
G01 X27.2283 Y37.4376
G01 X27.2224 Y37.4420
G01 X27.2170 Y37.4470
G01 X27.2120 Y37.4524
G01 X27.2076 Y37.4583
G01 X27.2039 Y37.4646
G01 X27.2007 Y37.4713
G01 X27.1982 Y37.4782
G01 X27.1964 Y37.4854
G01 X27.1954 Y37.4926
G01 X27.1950 Y37.5000
G01 X27.1954 Y37.5074
G01 X27.1964 Y37.5146
G01 X27.1982 Y37.5218
G01 X27.2007 Y37.5287
G01 X27.2039 Y37.5354
G01 X27.2076 Y37.5417
G01 X27.2120 Y37.5476
G01 X27.2170 Y37.5530
G01 X27.2224 Y37.5580
G01 X27.2283 Y37.5624
G01 X27.2346 Y37.5661
G01 X27.2413 Y37.5693
G01 X27.2482 Y37.5718
G01 X27.2554 Y37.5736
G01 X27.2626 Y37.5746
G01 X27.2700 Y37.5750
G01 X27.2774 Y37.5746
G01 X27.2846 Y37.5736
G01 X27.2918 Y37.5718
G01 X27.2987 Y37.5693
G01 X27.3054 Y37.5661
G01 X27.3117 Y37.5624
G01 X27.3176 Y37.5580
G01 X27.3230 Y37.5530
G01 X27.3280 Y37.5476
G01 X27.3324 Y37.5417
G01 X27.3361 Y37.5354
G01 X27.3393 Y37.5287
G01 X27.3418 Y37.5218
G01 X27.3436 Y37.5146
G01 X27.3446 Y37.5074
G01 X27.3450 Y37.5000
G00 Z0.6000
G00 X24.8050 Y37.5000
G01 F60.00
G01 Z-2.4000
G01 F120.00
G01 X24.8046 Y37.4926
G01 X24.8036 Y37.4854
G01 X24.8018 Y37.4782
G01 X24.7993 Y37.4713
G01 X24.7961 Y37.4646
G01 X24.7924 Y37.4583
G01 X24.7880 Y37.4524
G01 X24.7830 Y37.4470
G01 X24.7776 Y37.4420
G01 X24.7717 Y37.4376
G01 X24.7654 Y37.4339
G01 X24.7587 Y37.4307
G01 X24.7518 Y37.4282
G01 X24.7446 Y37.4264
G01 X24.7374 Y37.4254
G01 X24.7300 Y37.4250
G01 X24.7226 Y37.4254
G01 X24.7154 Y37.4264
G01 X24.7082 Y37.4282
G01 X24.7013 Y37.4307
G01 X24.6946 Y37.4339
G01 X24.6883 Y37.4376
G01 X24.6824 Y37.4420
G01 X24.6770 Y37.4470
G01 X24.6720 Y37.4524
G01 X24.6676 Y37.4583
G01 X24.6639 Y37.4646
G01 X24.6607 Y37.4713
G01 X24.6582 Y37.4782
G01 X24.6564 Y37.4854
G01 X24.6554 Y37.4926
G01 X24.6550 Y37.5000
G01 X24.6554 Y37.5074
G01 X24.6564 Y37.5146
G01 X24.6582 Y37.5218
G01 X24.6607 Y37.5287
G01 X24.6639 Y37.5354
G01 X24.6676 Y37.5417
G01 X24.6720 Y37.5476
G01 X24.6770 Y37.5530
G01 X24.6824 Y37.5580
G01 X24.6883 Y37.5624
G01 X24.6946 Y37.5661
G01 X24.7013 Y37.5693
G01 X24.7082 Y37.5718
G01 X24.7154 Y37.5736
G01 X24.7226 Y37.5746
G01 X24.7300 Y37.5750
G01 X24.7374 Y37.5746
G01 X24.7446 Y37.5736
G01 X24.7518 Y37.5718
G01 X24.7587 Y37.5693
G01 X24.7654 Y37.5661
G01 X24.7717 Y37.5624
G01 X24.7776 Y37.5580
G01 X24.7830 Y37.5530
G01 X24.7880 Y37.5476
G01 X24.7924 Y37.5417
G01 X24.7961 Y37.5354
G01 X24.7993 Y37.5287
G01 X24.8018 Y37.5218
G01 X24.8036 Y37.5146
G01 X24.8046 Y37.5074
G01 X24.8050 Y37.5000
G00 Z0.6000
G00 X24.8050 Y40.0400
G01 F60.00
G01 Z-2.4000
G01 F120.00
G01 X24.8046 Y40.0326
G01 X24.8036 Y40.0254
G01 X24.8018 Y40.0182
G01 X24.7993 Y40.0113
G01 X24.7961 Y40.0046
G01 X24.7924 Y39.9983
G01 X24.7880 Y39.9924
G01 X24.7830 Y39.9870
G01 X24.7776 Y39.9820
G01 X24.7717 Y39.9776
G01 X24.7654 Y39.9739
G01 X24.7587 Y39.9707
G01 X24.7518 Y39.9682
G01 X24.7446 Y39.9664
G01 X24.7374 Y39.9654
G01 X24.7300 Y39.9650
G01 X24.7226 Y39.9654
G01 X24.7154 Y39.9664
G01 X24.7082 Y39.9682
G01 X24.7013 Y39.9707
G01 X24.6946 Y39.9739
G01 X24.6883 Y39.9776
G01 X24.6824 Y39.9820
G01 X24.6770 Y39.9870
G01 X24.6720 Y39.9924
G01 X24.6676 Y39.9983
G01 X24.6639 Y40.0046
G01 X24.6607 Y40.0113
G01 X24.6582 Y40.0182
G01 X24.6564 Y40.0254
G01 X24.6554 Y40.0326
G01 X24.6550 Y40.0400
G01 X24.6554 Y40.0474
G01 X24.6564 Y40.0546
G01 X24.6582 Y40.0618
G01 X24.6607 Y40.0687
G01 X24.6639 Y40.0754
G01 X24.6676 Y40.0817
G01 X24.6720 Y40.0876
G01 X24.6770 Y40.0930
G01 X24.6824 Y40.0980
G01 X24.6883 Y40.1024
G01 X24.6946 Y40.1061
G01 X24.7013 Y40.1093
G01 X24.7082 Y40.1118
G01 X24.7154 Y40.1136
G01 X24.7226 Y40.1146
G01 X24.7300 Y40.1150
G01 X24.7374 Y40.1146
G01 X24.7446 Y40.1136
G01 X24.7518 Y40.1118
G01 X24.7587 Y40.1093
G01 X24.7654 Y40.1061
G01 X24.7717 Y40.1024
G01 X24.7776 Y40.0980
G01 X24.7830 Y40.0930
G01 X24.7880 Y40.0876
G01 X24.7924 Y40.0817
G01 X24.7961 Y40.0754
G01 X24.7993 Y40.0687
G01 X24.8018 Y40.0618
G01 X24.8036 Y40.0546
G01 X24.8046 Y40.0474
G01 X24.8050 Y40.0400
G00 Z0.6000
G00 X27.3450 Y40.0400
G01 F60.00
G01 Z-2.4000
G01 F120.00
G01 X27.3446 Y40.0326
G01 X27.3436 Y40.0254
G01 X27.3418 Y40.0182
G01 X27.3393 Y40.0113
G01 X27.3361 Y40.0046
G01 X27.3324 Y39.9983
G01 X27.3280 Y39.9924
G01 X27.3230 Y39.9870
G01 X27.3176 Y39.9820
G01 X27.3117 Y39.9776
G01 X27.3054 Y39.9739
G01 X27.2987 Y39.9707
G01 X27.2918 Y39.9682
G01 X27.2846 Y39.9664
G01 X27.2774 Y39.9654
G01 X27.2700 Y39.9650
G01 X27.2626 Y39.9654
G01 X27.2554 Y39.9664
G01 X27.2482 Y39.9682
G01 X27.2413 Y39.9707
G01 X27.2346 Y39.9739
G01 X27.2283 Y39.9776
G01 X27.2224 Y39.9820
G01 X27.2170 Y39.9870
G01 X27.2120 Y39.9924
G01 X27.2076 Y39.9983
G01 X27.2039 Y40.0046
G01 X27.2007 Y40.0113
G01 X27.1982 Y40.0182
G01 X27.1964 Y40.0254
G01 X27.1954 Y40.0326
G01 X27.1950 Y40.0400
G01 X27.1954 Y40.0474
G01 X27.1964 Y40.0546
G01 X27.1982 Y40.0618
G01 X27.2007 Y40.0687
G01 X27.2039 Y40.0754
G01 X27.2076 Y40.0817
G01 X27.2120 Y40.0876
G01 X27.2170 Y40.0930
G01 X27.2224 Y40.0980
G01 X27.2283 Y40.1024
G01 X27.2346 Y40.1061
G01 X27.2413 Y40.1093
G01 X27.2482 Y40.1118
G01 X27.2554 Y40.1136
G01 X27.2626 Y40.1146
G01 X27.2700 Y40.1150
G01 X27.2774 Y40.1146
G01 X27.2846 Y40.1136
G01 X27.2918 Y40.1118
G01 X27.2987 Y40.1093
G01 X27.3054 Y40.1061
G01 X27.3117 Y40.1024
G01 X27.3176 Y40.0980
G01 X27.3230 Y40.0930
G01 X27.3280 Y40.0876
G01 X27.3324 Y40.0817
G01 X27.3361 Y40.0754
G01 X27.3393 Y40.0687
G01 X27.3418 Y40.0618
G01 X27.3436 Y40.0546
G01 X27.3446 Y40.0474
G01 X27.3450 Y40.0400
G00 Z0.6000
G00 X28.7900 Y46.0000
G01 F60.00
G01 Z-2.4000
G01 F120.00
G01 X28.7888 Y45.9755
G01 X28.7852 Y45.9512
G01 X28.7792 Y45.9274
G01 X28.7710 Y45.9043
G01 X28.7605 Y45.8822
G01 X28.7479 Y45.8611
G01 X28.7333 Y45.8414
G01 X28.7168 Y45.8232
G01 X28.6986 Y45.8067
G01 X28.6789 Y45.7921
G01 X28.6578 Y45.7795
G01 X28.6357 Y45.7690
G01 X28.6126 Y45.7608
G01 X28.5888 Y45.7548
G01 X28.5645 Y45.7512
G01 X28.5400 Y45.7500
G01 X28.5155 Y45.7512
G01 X28.4912 Y45.7548
G01 X28.4674 Y45.7608
G01 X28.4443 Y45.7690
G01 X28.4222 Y45.7795
G01 X28.4011 Y45.7921
G01 X28.3814 Y45.8067
G01 X28.3632 Y45.8232
G01 X28.3467 Y45.8414
G01 X28.3321 Y45.8611
G01 X28.3195 Y45.8822
G01 X28.3090 Y45.9043
G01 X28.3008 Y45.9274
G01 X28.2948 Y45.9512
G01 X28.2912 Y45.9755
G01 X28.2900 Y46.0000
G01 X28.2912 Y46.0245
G01 X28.2948 Y46.0488
G01 X28.3008 Y46.0726
G01 X28.3090 Y46.0957
G01 X28.3195 Y46.1178
G01 X28.3321 Y46.1389
G01 X28.3467 Y46.1586
G01 X28.3632 Y46.1768
G01 X28.3814 Y46.1933
G01 X28.4011 Y46.2079
G01 X28.4222 Y46.2205
G01 X28.4443 Y46.2310
G01 X28.4674 Y46.2392
G01 X28.4912 Y46.2452
G01 X28.5155 Y46.2488
G01 X28.5400 Y46.2500
G01 X28.5645 Y46.2488
G01 X28.5888 Y46.2452
G01 X28.6126 Y46.2392
G01 X28.6357 Y46.2310
G01 X28.6578 Y46.2205
G01 X28.6789 Y46.2079
G01 X28.6986 Y46.1933
G01 X28.7168 Y46.1768
G01 X28.7333 Y46.1586
G01 X28.7479 Y46.1389
G01 X28.7605 Y46.1178
G01 X28.7710 Y46.0957
G01 X28.7792 Y46.0726
G01 X28.7852 Y46.0488
G01 X28.7888 Y46.0245
G01 X28.7900 Y46.0000
G00 Z0.6000
G00 X23.7100 Y46.0000
G01 F60.00
G01 Z-2.4000
G01 F120.00
G01 X23.7088 Y45.9755
G01 X23.7052 Y45.9512
G01 X23.6992 Y45.9274
G01 X23.6910 Y45.9043
G01 X23.6805 Y45.8822
G01 X23.6679 Y45.8611
G01 X23.6533 Y45.8414
G01 X23.6368 Y45.8232
G01 X23.6186 Y45.8067
G01 X23.5989 Y45.7921
G01 X23.5778 Y45.7795
G01 X23.5557 Y45.7690
G01 X23.5326 Y45.7608
G01 X23.5088 Y45.7548
G01 X23.4845 Y45.7512
G01 X23.4600 Y45.7500
G01 X23.4355 Y45.7512
G01 X23.4112 Y45.7548
G01 X23.3874 Y45.7608
G01 X23.3643 Y45.7690
G01 X23.3422 Y45.7795
G01 X23.3211 Y45.7921
G01 X23.3014 Y45.8067
G01 X23.2832 Y45.8232
G01 X23.2667 Y45.8414
G01 X23.2521 Y45.8611
G01 X23.2395 Y45.8822
G01 X23.2290 Y45.9043
G01 X23.2208 Y45.9274
G01 X23.2148 Y45.9512
G01 X23.2112 Y45.9755
G01 X23.2100 Y46.0000
G01 X23.2112 Y46.0245
G01 X23.2148 Y46.0488
G01 X23.2208 Y46.0726
G01 X23.2290 Y46.0957
G01 X23.2395 Y46.1178
G01 X23.2521 Y46.1389
G01 X23.2667 Y46.1586
G01 X23.2832 Y46.1768
G01 X23.3014 Y46.1933
G01 X23.3211 Y46.2079
G01 X23.3422 Y46.2205
G01 X23.3643 Y46.2310
G01 X23.3874 Y46.2392
G01 X23.4112 Y46.2452
G01 X23.4355 Y46.2488
G01 X23.4600 Y46.2500
G01 X23.4845 Y46.2488
G01 X23.5088 Y46.2452
G01 X23.5326 Y46.2392
G01 X23.5557 Y46.2310
G01 X23.5778 Y46.2205
G01 X23.5989 Y46.2079
G01 X23.6186 Y46.1933
G01 X23.6368 Y46.1768
G01 X23.6533 Y46.1586
G01 X23.6679 Y46.1389
G01 X23.6805 Y46.1178
G01 X23.6910 Y46.0957
G01 X23.6992 Y46.0726
G01 X23.7052 Y46.0488
G01 X23.7088 Y46.0245
G01 X23.7100 Y46.0000
G00 Z0.6000
G00 X21.0450 Y40.0400
G01 F60.00
G01 Z-2.4000
G01 F120.00
G01 X21.0446 Y40.0326
G01 X21.0436 Y40.0254
G01 X21.0418 Y40.0182
G01 X21.0393 Y40.0113
G01 X21.0361 Y40.0046
G01 X21.0324 Y39.9983
G01 X21.0280 Y39.9924
G01 X21.0230 Y39.9870
G01 X21.0176 Y39.9820
G01 X21.0117 Y39.9776
G01 X21.0054 Y39.9739
G01 X20.9987 Y39.9707
G01 X20.9918 Y39.9682
G01 X20.9846 Y39.9664
G01 X20.9774 Y39.9654
G01 X20.9700 Y39.9650
G01 X20.9626 Y39.9654
G01 X20.9554 Y39.9664
G01 X20.9482 Y39.9682
G01 X20.9413 Y39.9707
G01 X20.9346 Y39.9739
G01 X20.9283 Y39.9776
G01 X20.9224 Y39.9820
G01 X20.9170 Y39.9870
G01 X20.9120 Y39.9924
G01 X20.9076 Y39.9983
G01 X20.9039 Y40.0046
G01 X20.9007 Y40.0113
G01 X20.8982 Y40.0182
G01 X20.8964 Y40.0254
G01 X20.8954 Y40.0326
G01 X20.8950 Y40.0400
G01 X20.8954 Y40.0474
G01 X20.8964 Y40.0546
G01 X20.8982 Y40.0618
G01 X20.9007 Y40.0687
G01 X20.9039 Y40.0754
G01 X20.9076 Y40.0817
G01 X20.9120 Y40.0876
G01 X20.9170 Y40.0930
G01 X20.9224 Y40.0980
G01 X20.9283 Y40.1024
G01 X20.9346 Y40.1061
G01 X20.9413 Y40.1093
G01 X20.9482 Y40.1118
G01 X20.9554 Y40.1136
G01 X20.9626 Y40.1146
G01 X20.9700 Y40.1150
G01 X20.9774 Y40.1146
G01 X20.9846 Y40.1136
G01 X20.9918 Y40.1118
G01 X20.9987 Y40.1093
G01 X21.0054 Y40.1061
G01 X21.0117 Y40.1024
G01 X21.0176 Y40.0980
G01 X21.0230 Y40.0930
G01 X21.0280 Y40.0876
G01 X21.0324 Y40.0817
G01 X21.0361 Y40.0754
G01 X21.0393 Y40.0687
G01 X21.0418 Y40.0618
G01 X21.0436 Y40.0546
G01 X21.0446 Y40.0474
G01 X21.0450 Y40.0400
G00 Z0.6000
G00 X18.5050 Y40.0400
G01 F60.00
G01 Z-2.4000
G01 F120.00
G01 X18.5046 Y40.0326
G01 X18.5036 Y40.0254
G01 X18.5018 Y40.0182
G01 X18.4993 Y40.0113
G01 X18.4961 Y40.0046
G01 X18.4924 Y39.9983
G01 X18.4880 Y39.9924
G01 X18.4830 Y39.9870
G01 X18.4776 Y39.9820
G01 X18.4717 Y39.9776
G01 X18.4654 Y39.9739
G01 X18.4587 Y39.9707
G01 X18.4518 Y39.9682
G01 X18.4446 Y39.9664
G01 X18.4374 Y39.9654
G01 X18.4300 Y39.9650
G01 X18.4226 Y39.9654
G01 X18.4154 Y39.9664
G01 X18.4082 Y39.9682
G01 X18.4013 Y39.9707
G01 X18.3946 Y39.9739
G01 X18.3883 Y39.9776
G01 X18.3824 Y39.9820
G01 X18.3770 Y39.9870
G01 X18.3720 Y39.9924
G01 X18.3676 Y39.9983
G01 X18.3639 Y40.0046
G01 X18.3607 Y40.0113
G01 X18.3582 Y40.0182
G01 X18.3564 Y40.0254
G01 X18.3554 Y40.0326
G01 X18.3550 Y40.0400
G01 X18.3554 Y40.0474
G01 X18.3564 Y40.0546
G01 X18.3582 Y40.0618
G01 X18.3607 Y40.0687
G01 X18.3639 Y40.0754
G01 X18.3676 Y40.0817
G01 X18.3720 Y40.0876
G01 X18.3770 Y40.0930
G01 X18.3824 Y40.0980
G01 X18.3883 Y40.1024
G01 X18.3946 Y40.1061
G01 X18.4013 Y40.1093
G01 X18.4082 Y40.1118
G01 X18.4154 Y40.1136
G01 X18.4226 Y40.1146
G01 X18.4300 Y40.1150
G01 X18.4374 Y40.1146
G01 X18.4446 Y40.1136
G01 X18.4518 Y40.1118
G01 X18.4587 Y40.1093
G01 X18.4654 Y40.1061
G01 X18.4717 Y40.1024
G01 X18.4776 Y40.0980
G01 X18.4830 Y40.0930
G01 X18.4880 Y40.0876
G01 X18.4924 Y40.0817
G01 X18.4961 Y40.0754
G01 X18.4993 Y40.0687
G01 X18.5018 Y40.0618
G01 X18.5036 Y40.0546
G01 X18.5046 Y40.0474
G01 X18.5050 Y40.0400
G00 Z0.6000
G00 X18.5050 Y37.5000
G01 F60.00
G01 Z-2.4000
G01 F120.00
G01 X18.5046 Y37.4926
G01 X18.5036 Y37.4854
G01 X18.5018 Y37.4782
G01 X18.4993 Y37.4713
G01 X18.4961 Y37.4646
G01 X18.4924 Y37.4583
G01 X18.4880 Y37.4524
G01 X18.4830 Y37.4470
G01 X18.4776 Y37.4420
G01 X18.4717 Y37.4376
G01 X18.4654 Y37.4339
G01 X18.4587 Y37.4307
G01 X18.4518 Y37.4282
G01 X18.4446 Y37.4264
G01 X18.4374 Y37.4254
G01 X18.4300 Y37.4250
G01 X18.4226 Y37.4254
G01 X18.4154 Y37.4264
G01 X18.4082 Y37.4282
G01 X18.4013 Y37.4307
G01 X18.3946 Y37.4339
G01 X18.3883 Y37.4376
G01 X18.3824 Y37.4420
G01 X18.3770 Y37.4470
G01 X18.3720 Y37.4524
G01 X18.3676 Y37.4583
G01 X18.3639 Y37.4646
G01 X18.3607 Y37.4713
G01 X18.3582 Y37.4782
G01 X18.3564 Y37.4854
G01 X18.3554 Y37.4926
G01 X18.3550 Y37.5000
G01 X18.3554 Y37.5074
G01 X18.3564 Y37.5146
G01 X18.3582 Y37.5218
G01 X18.3607 Y37.5287
G01 X18.3639 Y37.5354
G01 X18.3676 Y37.5417
G01 X18.3720 Y37.5476
G01 X18.3770 Y37.5530
G01 X18.3824 Y37.5580
G01 X18.3883 Y37.5624
G01 X18.3946 Y37.5661
G01 X18.4013 Y37.5693
G01 X18.4082 Y37.5718
G01 X18.4154 Y37.5736
G01 X18.4226 Y37.5746
G01 X18.4300 Y37.5750
G01 X18.4374 Y37.5746
G01 X18.4446 Y37.5736
G01 X18.4518 Y37.5718
G01 X18.4587 Y37.5693
G01 X18.4654 Y37.5661
G01 X18.4717 Y37.5624
G01 X18.4776 Y37.5580
G01 X18.4830 Y37.5530
G01 X18.4880 Y37.5476
G01 X18.4924 Y37.5417
G01 X18.4961 Y37.5354
G01 X18.4993 Y37.5287
G01 X18.5018 Y37.5218
G01 X18.5036 Y37.5146
G01 X18.5046 Y37.5074
G01 X18.5050 Y37.5000
G00 Z0.6000
G00 X21.0450 Y37.5000
G01 F60.00
G01 Z-2.4000
G01 F120.00
G01 X21.0446 Y37.4926
G01 X21.0436 Y37.4854
G01 X21.0418 Y37.4782
G01 X21.0393 Y37.4713
G01 X21.0361 Y37.4646
G01 X21.0324 Y37.4583
G01 X21.0280 Y37.4524
G01 X21.0230 Y37.4470
G01 X21.0176 Y37.4420
G01 X21.0117 Y37.4376
G01 X21.0054 Y37.4339
G01 X20.9987 Y37.4307
G01 X20.9918 Y37.4282
G01 X20.9846 Y37.4264
G01 X20.9774 Y37.4254
G01 X20.9700 Y37.4250
G01 X20.9626 Y37.4254
G01 X20.9554 Y37.4264
G01 X20.9482 Y37.4282
G01 X20.9413 Y37.4307
G01 X20.9346 Y37.4339
G01 X20.9283 Y37.4376
G01 X20.9224 Y37.4420
G01 X20.9170 Y37.4470
G01 X20.9120 Y37.4524
G01 X20.9076 Y37.4583
G01 X20.9039 Y37.4646
G01 X20.9007 Y37.4713
G01 X20.8982 Y37.4782
G01 X20.8964 Y37.4854
G01 X20.8954 Y37.4926
G01 X20.8950 Y37.5000
G01 X20.8954 Y37.5074
G01 X20.8964 Y37.5146
G01 X20.8982 Y37.5218
G01 X20.9007 Y37.5287
G01 X20.9039 Y37.5354
G01 X20.9076 Y37.5417
G01 X20.9120 Y37.5476
G01 X20.9170 Y37.5530
G01 X20.9224 Y37.5580
G01 X20.9283 Y37.5624
G01 X20.9346 Y37.5661
G01 X20.9413 Y37.5693
G01 X20.9482 Y37.5718
G01 X20.9554 Y37.5736
G01 X20.9626 Y37.5746
G01 X20.9700 Y37.5750
G01 X20.9774 Y37.5746
G01 X20.9846 Y37.5736
G01 X20.9918 Y37.5718
G01 X20.9987 Y37.5693
G01 X21.0054 Y37.5661
G01 X21.0117 Y37.5624
G01 X21.0176 Y37.5580
G01 X21.0230 Y37.5530
G01 X21.0280 Y37.5476
G01 X21.0324 Y37.5417
G01 X21.0361 Y37.5354
G01 X21.0393 Y37.5287
G01 X21.0418 Y37.5218
G01 X21.0436 Y37.5146
G01 X21.0446 Y37.5074
G01 X21.0450 Y37.5000
G00 Z0.6000
G00 X22.0600 Y33.8000
G01 F60.00
G01 Z-2.4000
G01 F120.00
G01 X22.0600 Y33.8000
G01 X22.0600 Y33.8000
G01 X22.0600 Y33.8000
G01 X22.0600 Y33.8000
G00 Z0.6000
G00 X22.0600 Y30.8000
G01 F60.00
G01 Z-2.4000
G01 F120.00
G01 X22.0600 Y30.8000
G01 X22.0600 Y30.8000
G01 X22.0600 Y30.8000
G01 X22.0600 Y30.8000
G00 Z0.6000
G00 X25.6600 Y27.8000
G01 F60.00
G01 Z-2.4000
G01 F120.00
G01 X25.6600 Y27.8000
G01 X25.6600 Y27.8000
G01 X25.6600 Y27.8000
G01 X25.6600 Y27.8000
G00 Z0.6000
G00 X25.6600 Y24.8000
G01 F60.00
G01 Z-2.4000
G01 F120.00
G01 X25.6600 Y24.8000
G01 X25.6600 Y24.8000
G01 X25.6600 Y24.8000
G01 X25.6600 Y24.8000
G00 Z0.6000
G00 X15.5000 Y24.8000
G01 F60.00
G01 Z-2.4000
G01 F120.00
G01 X15.5000 Y24.8000
G01 X15.5000 Y24.8000
G01 X15.5000 Y24.8000
G01 X15.5000 Y24.8000
G00 Z0.6000
G00 X15.5000 Y27.8000
G01 F60.00
G01 Z-2.4000
G01 F120.00
G01 X15.5000 Y27.8000
G01 X15.5000 Y27.8000
G01 X15.5000 Y27.8000
G01 X15.5000 Y27.8000
G00 Z0.6000
G00 X11.9000 Y30.8000
G01 F60.00
G01 Z-2.4000
G01 F120.00
G01 X11.9000 Y30.8000
G01 X11.9000 Y30.8000
G01 X11.9000 Y30.8000
G01 X11.9000 Y30.8000
G00 Z0.6000
G00 X11.9000 Y33.8000
G01 F60.00
G01 Z-2.4000
G01 F120.00
G01 X11.9000 Y33.8000
G01 X11.9000 Y33.8000
G01 X11.9000 Y33.8000
G01 X11.9000 Y33.8000
G00 Z0.6000
G00 X10.8850 Y37.5000
G01 F60.00
G01 Z-2.4000
G01 F120.00
G01 X10.8846 Y37.4926
G01 X10.8836 Y37.4854
G01 X10.8818 Y37.4782
G01 X10.8793 Y37.4713
G01 X10.8761 Y37.4646
G01 X10.8724 Y37.4583
G01 X10.8680 Y37.4524
G01 X10.8630 Y37.4470
G01 X10.8576 Y37.4420
G01 X10.8517 Y37.4376
G01 X10.8454 Y37.4339
G01 X10.8387 Y37.4307
G01 X10.8318 Y37.4282
G01 X10.8246 Y37.4264
G01 X10.8174 Y37.4254
G01 X10.8100 Y37.4250
G01 X10.8026 Y37.4254
G01 X10.7954 Y37.4264
G01 X10.7882 Y37.4282
G01 X10.7813 Y37.4307
G01 X10.7746 Y37.4339
G01 X10.7683 Y37.4376
G01 X10.7624 Y37.4420
G01 X10.7570 Y37.4470
G01 X10.7520 Y37.4524
G01 X10.7476 Y37.4583
G01 X10.7439 Y37.4646
G01 X10.7407 Y37.4713
G01 X10.7382 Y37.4782
G01 X10.7364 Y37.4854
G01 X10.7354 Y37.4926
G01 X10.7350 Y37.5000
G01 X10.7354 Y37.5074
G01 X10.7364 Y37.5146
G01 X10.7382 Y37.5218
G01 X10.7407 Y37.5287
G01 X10.7439 Y37.5354
G01 X10.7476 Y37.5417
G01 X10.7520 Y37.5476
G01 X10.7570 Y37.5530
G01 X10.7624 Y37.5580
G01 X10.7683 Y37.5624
G01 X10.7746 Y37.5661
G01 X10.7813 Y37.5693
G01 X10.7882 Y37.5718
G01 X10.7954 Y37.5736
G01 X10.8026 Y37.5746
G01 X10.8100 Y37.5750
G01 X10.8174 Y37.5746
G01 X10.8246 Y37.5736
G01 X10.8318 Y37.5718
G01 X10.8387 Y37.5693
G01 X10.8454 Y37.5661
G01 X10.8517 Y37.5624
G01 X10.8576 Y37.5580
G01 X10.8630 Y37.5530
G01 X10.8680 Y37.5476
G01 X10.8724 Y37.5417
G01 X10.8761 Y37.5354
G01 X10.8793 Y37.5287
G01 X10.8818 Y37.5218
G01 X10.8836 Y37.5146
G01 X10.8846 Y37.5074
G01 X10.8850 Y37.5000
G00 Z0.6000
G00 X13.4250 Y37.5000
G01 F60.00
G01 Z-2.4000
G01 F120.00
G01 X13.4246 Y37.4926
G01 X13.4236 Y37.4854
G01 X13.4218 Y37.4782
G01 X13.4193 Y37.4713
G01 X13.4161 Y37.4646
G01 X13.4124 Y37.4583
G01 X13.4080 Y37.4524
G01 X13.4030 Y37.4470
G01 X13.3976 Y37.4420
G01 X13.3917 Y37.4376
G01 X13.3854 Y37.4339
G01 X13.3787 Y37.4307
G01 X13.3718 Y37.4282
G01 X13.3646 Y37.4264
G01 X13.3574 Y37.4254
G01 X13.3500 Y37.4250
G01 X13.3426 Y37.4254
G01 X13.3354 Y37.4264
G01 X13.3282 Y37.4282
G01 X13.3213 Y37.4307
G01 X13.3146 Y37.4339
G01 X13.3083 Y37.4376
G01 X13.3024 Y37.4420
G01 X13.2970 Y37.4470
G01 X13.2920 Y37.4524
G01 X13.2876 Y37.4583
G01 X13.2839 Y37.4646
G01 X13.2807 Y37.4713
G01 X13.2782 Y37.4782
G01 X13.2764 Y37.4854
G01 X13.2754 Y37.4926
G01 X13.2750 Y37.5000
G01 X13.2754 Y37.5074
G01 X13.2764 Y37.5146
G01 X13.2782 Y37.5218
G01 X13.2807 Y37.5287
G01 X13.2839 Y37.5354
G01 X13.2876 Y37.5417
G01 X13.2920 Y37.5476
G01 X13.2970 Y37.5530
G01 X13.3024 Y37.5580
G01 X13.3083 Y37.5624
G01 X13.3146 Y37.5661
G01 X13.3213 Y37.5693
G01 X13.3282 Y37.5718
G01 X13.3354 Y37.5736
G01 X13.3426 Y37.5746
G01 X13.3500 Y37.5750
G01 X13.3574 Y37.5746
G01 X13.3646 Y37.5736
G01 X13.3718 Y37.5718
G01 X13.3787 Y37.5693
G01 X13.3854 Y37.5661
G01 X13.3917 Y37.5624
G01 X13.3976 Y37.5580
G01 X13.4030 Y37.5530
G01 X13.4080 Y37.5476
G01 X13.4124 Y37.5417
G01 X13.4161 Y37.5354
G01 X13.4193 Y37.5287
G01 X13.4218 Y37.5218
G01 X13.4236 Y37.5146
G01 X13.4246 Y37.5074
G01 X13.4250 Y37.5000
G00 Z0.6000
G00 X13.4250 Y40.0400
G01 F60.00
G01 Z-2.4000
G01 F120.00
G01 X13.4246 Y40.0326
G01 X13.4236 Y40.0254
G01 X13.4218 Y40.0182
G01 X13.4193 Y40.0113
G01 X13.4161 Y40.0046
G01 X13.4124 Y39.9983
G01 X13.4080 Y39.9924
G01 X13.4030 Y39.9870
G01 X13.3976 Y39.9820
G01 X13.3917 Y39.9776
G01 X13.3854 Y39.9739
G01 X13.3787 Y39.9707
G01 X13.3718 Y39.9682
G01 X13.3646 Y39.9664
G01 X13.3574 Y39.9654
G01 X13.3500 Y39.9650
G01 X13.3426 Y39.9654
G01 X13.3354 Y39.9664
G01 X13.3282 Y39.9682
G01 X13.3213 Y39.9707
G01 X13.3146 Y39.9739
G01 X13.3083 Y39.9776
G01 X13.3024 Y39.9820
G01 X13.2970 Y39.9870
G01 X13.2920 Y39.9924
G01 X13.2876 Y39.9983
G01 X13.2839 Y40.0046
G01 X13.2807 Y40.0113
G01 X13.2782 Y40.0182
G01 X13.2764 Y40.0254
G01 X13.2754 Y40.0326
G01 X13.2750 Y40.0400
G01 X13.2754 Y40.0474
G01 X13.2764 Y40.0546
G01 X13.2782 Y40.0618
G01 X13.2807 Y40.0687
G01 X13.2839 Y40.0754
G01 X13.2876 Y40.0817
G01 X13.2920 Y40.0876
G01 X13.2970 Y40.0930
G01 X13.3024 Y40.0980
G01 X13.3083 Y40.1024
G01 X13.3146 Y40.1061
G01 X13.3213 Y40.1093
G01 X13.3282 Y40.1118
G01 X13.3354 Y40.1136
G01 X13.3426 Y40.1146
G01 X13.3500 Y40.1150
G01 X13.3574 Y40.1146
G01 X13.3646 Y40.1136
G01 X13.3718 Y40.1118
G01 X13.3787 Y40.1093
G01 X13.3854 Y40.1061
G01 X13.3917 Y40.1024
G01 X13.3976 Y40.0980
G01 X13.4030 Y40.0930
G01 X13.4080 Y40.0876
G01 X13.4124 Y40.0817
G01 X13.4161 Y40.0754
G01 X13.4193 Y40.0687
G01 X13.4218 Y40.0618
G01 X13.4236 Y40.0546
G01 X13.4246 Y40.0474
G01 X13.4250 Y40.0400
G00 Z0.6000
G00 X10.8850 Y40.0400
G01 F60.00
G01 Z-2.4000
G01 F120.00
G01 X10.8846 Y40.0326
G01 X10.8836 Y40.0254
G01 X10.8818 Y40.0182
G01 X10.8793 Y40.0113
G01 X10.8761 Y40.0046
G01 X10.8724 Y39.9983
G01 X10.8680 Y39.9924
G01 X10.8630 Y39.9870
G01 X10.8576 Y39.9820
G01 X10.8517 Y39.9776
G01 X10.8454 Y39.9739
G01 X10.8387 Y39.9707
G01 X10.8318 Y39.9682
G01 X10.8246 Y39.9664
G01 X10.8174 Y39.9654
G01 X10.8100 Y39.9650
G01 X10.8026 Y39.9654
G01 X10.7954 Y39.9664
G01 X10.7882 Y39.9682
G01 X10.7813 Y39.9707
G01 X10.7746 Y39.9739
G01 X10.7683 Y39.9776
G01 X10.7624 Y39.9820
G01 X10.7570 Y39.9870
G01 X10.7520 Y39.9924
G01 X10.7476 Y39.9983
G01 X10.7439 Y40.0046
G01 X10.7407 Y40.0113
G01 X10.7382 Y40.0182
G01 X10.7364 Y40.0254
G01 X10.7354 Y40.0326
G01 X10.7350 Y40.0400
G01 X10.7354 Y40.0474
G01 X10.7364 Y40.0546
G01 X10.7382 Y40.0618
G01 X10.7407 Y40.0687
G01 X10.7439 Y40.0754
G01 X10.7476 Y40.0817
G01 X10.7520 Y40.0876
G01 X10.7570 Y40.0930
G01 X10.7624 Y40.0980
G01 X10.7683 Y40.1024
G01 X10.7746 Y40.1061
G01 X10.7813 Y40.1093
G01 X10.7882 Y40.1118
G01 X10.7954 Y40.1136
G01 X10.8026 Y40.1146
G01 X10.8100 Y40.1150
G01 X10.8174 Y40.1146
G01 X10.8246 Y40.1136
G01 X10.8318 Y40.1118
G01 X10.8387 Y40.1093
G01 X10.8454 Y40.1061
G01 X10.8517 Y40.1024
G01 X10.8576 Y40.0980
G01 X10.8630 Y40.0930
G01 X10.8680 Y40.0876
G01 X10.8724 Y40.0817
G01 X10.8761 Y40.0754
G01 X10.8793 Y40.0687
G01 X10.8818 Y40.0618
G01 X10.8836 Y40.0546
G01 X10.8846 Y40.0474
G01 X10.8850 Y40.0400
G00 Z0.6000
G00 X8.3450 Y40.0400
G01 F60.00
G01 Z-2.4000
G01 F120.00
G01 X8.3446 Y40.0326
G01 X8.3436 Y40.0254
G01 X8.3418 Y40.0182
G01 X8.3393 Y40.0113
G01 X8.3361 Y40.0046
G01 X8.3324 Y39.9983
G01 X8.3280 Y39.9924
G01 X8.3230 Y39.9870
G01 X8.3176 Y39.9820
G01 X8.3117 Y39.9776
G01 X8.3054 Y39.9739
G01 X8.2987 Y39.9707
G01 X8.2918 Y39.9682
G01 X8.2846 Y39.9664
G01 X8.2774 Y39.9654
G01 X8.2700 Y39.9650
G01 X8.2626 Y39.9654
G01 X8.2554 Y39.9664
G01 X8.2482 Y39.9682
G01 X8.2413 Y39.9707
G01 X8.2346 Y39.9739
G01 X8.2283 Y39.9776
G01 X8.2224 Y39.9820
G01 X8.2170 Y39.9870
G01 X8.2120 Y39.9924
G01 X8.2076 Y39.9983
G01 X8.2039 Y40.0046
G01 X8.2007 Y40.0113
G01 X8.1982 Y40.0182
G01 X8.1964 Y40.0254
G01 X8.1954 Y40.0326
G01 X8.1950 Y40.0400
G01 X8.1954 Y40.0474
G01 X8.1964 Y40.0546
G01 X8.1982 Y40.0618
G01 X8.2007 Y40.0687
G01 X8.2039 Y40.0754
G01 X8.2076 Y40.0817
G01 X8.2120 Y40.0876
G01 X8.2170 Y40.0930
G01 X8.2224 Y40.0980
G01 X8.2283 Y40.1024
G01 X8.2346 Y40.1061
G01 X8.2413 Y40.1093
G01 X8.2482 Y40.1118
G01 X8.2554 Y40.1136
G01 X8.2626 Y40.1146
G01 X8.2700 Y40.1150
G01 X8.2774 Y40.1146
G01 X8.2846 Y40.1136
G01 X8.2918 Y40.1118
G01 X8.2987 Y40.1093
G01 X8.3054 Y40.1061
G01 X8.3117 Y40.1024
G01 X8.3176 Y40.0980
G01 X8.3230 Y40.0930
G01 X8.3280 Y40.0876
G01 X8.3324 Y40.0817
G01 X8.3361 Y40.0754
G01 X8.3393 Y40.0687
G01 X8.3418 Y40.0618
G01 X8.3436 Y40.0546
G01 X8.3446 Y40.0474
G01 X8.3450 Y40.0400
G00 Z0.6000
G00 X8.3450 Y37.5000
G01 F60.00
G01 Z-2.4000
G01 F120.00
G01 X8.3446 Y37.4926
G01 X8.3436 Y37.4854
G01 X8.3418 Y37.4782
G01 X8.3393 Y37.4713
G01 X8.3361 Y37.4646
G01 X8.3324 Y37.4583
G01 X8.3280 Y37.4524
G01 X8.3230 Y37.4470
G01 X8.3176 Y37.4420
G01 X8.3117 Y37.4376
G01 X8.3054 Y37.4339
G01 X8.2987 Y37.4307
G01 X8.2918 Y37.4282
G01 X8.2846 Y37.4264
G01 X8.2774 Y37.4254
G01 X8.2700 Y37.4250
G01 X8.2626 Y37.4254
G01 X8.2554 Y37.4264
G01 X8.2482 Y37.4282
G01 X8.2413 Y37.4307
G01 X8.2346 Y37.4339
G01 X8.2283 Y37.4376
G01 X8.2224 Y37.4420
G01 X8.2170 Y37.4470
G01 X8.2120 Y37.4524
G01 X8.2076 Y37.4583
G01 X8.2039 Y37.4646
G01 X8.2007 Y37.4713
G01 X8.1982 Y37.4782
G01 X8.1964 Y37.4854
G01 X8.1954 Y37.4926
G01 X8.1950 Y37.5000
G01 X8.1954 Y37.5074
G01 X8.1964 Y37.5146
G01 X8.1982 Y37.5218
G01 X8.2007 Y37.5287
G01 X8.2039 Y37.5354
G01 X8.2076 Y37.5417
G01 X8.2120 Y37.5476
G01 X8.2170 Y37.5530
G01 X8.2224 Y37.5580
G01 X8.2283 Y37.5624
G01 X8.2346 Y37.5661
G01 X8.2413 Y37.5693
G01 X8.2482 Y37.5718
G01 X8.2554 Y37.5736
G01 X8.2626 Y37.5746
G01 X8.2700 Y37.5750
G01 X8.2774 Y37.5746
G01 X8.2846 Y37.5736
G01 X8.2918 Y37.5718
G01 X8.2987 Y37.5693
G01 X8.3054 Y37.5661
G01 X8.3117 Y37.5624
G01 X8.3176 Y37.5580
G01 X8.3230 Y37.5530
G01 X8.3280 Y37.5476
G01 X8.3324 Y37.5417
G01 X8.3361 Y37.5354
G01 X8.3393 Y37.5287
G01 X8.3418 Y37.5218
G01 X8.3436 Y37.5146
G01 X8.3446 Y37.5074
G01 X8.3450 Y37.5000
G00 Z0.6000
G00 X15.9650 Y37.5000
G01 F60.00
G01 Z-2.4000
G01 F120.00
G01 X15.9646 Y37.4926
G01 X15.9636 Y37.4854
G01 X15.9618 Y37.4782
G01 X15.9593 Y37.4713
G01 X15.9561 Y37.4646
G01 X15.9524 Y37.4583
G01 X15.9480 Y37.4524
G01 X15.9430 Y37.4470
G01 X15.9376 Y37.4420
G01 X15.9317 Y37.4376
G01 X15.9254 Y37.4339
G01 X15.9187 Y37.4307
G01 X15.9118 Y37.4282
G01 X15.9046 Y37.4264
G01 X15.8974 Y37.4254
G01 X15.8900 Y37.4250
G01 X15.8826 Y37.4254
G01 X15.8754 Y37.4264
G01 X15.8682 Y37.4282
G01 X15.8613 Y37.4307
G01 X15.8546 Y37.4339
G01 X15.8483 Y37.4376
G01 X15.8424 Y37.4420
G01 X15.8370 Y37.4470
G01 X15.8320 Y37.4524
G01 X15.8276 Y37.4583
G01 X15.8239 Y37.4646
G01 X15.8207 Y37.4713
G01 X15.8182 Y37.4782
G01 X15.8164 Y37.4854
G01 X15.8154 Y37.4926
G01 X15.8150 Y37.5000
G01 X15.8154 Y37.5074
G01 X15.8164 Y37.5146
G01 X15.8182 Y37.5218
G01 X15.8207 Y37.5287
G01 X15.8239 Y37.5354
G01 X15.8276 Y37.5417
G01 X15.8320 Y37.5476
G01 X15.8370 Y37.5530
G01 X15.8424 Y37.5580
G01 X15.8483 Y37.5624
G01 X15.8546 Y37.5661
G01 X15.8613 Y37.5693
G01 X15.8682 Y37.5718
G01 X15.8754 Y37.5736
G01 X15.8826 Y37.5746
G01 X15.8900 Y37.5750
G01 X15.8974 Y37.5746
G01 X15.9046 Y37.5736
G01 X15.9118 Y37.5718
G01 X15.9187 Y37.5693
G01 X15.9254 Y37.5661
G01 X15.9317 Y37.5624
G01 X15.9376 Y37.5580
G01 X15.9430 Y37.5530
G01 X15.9480 Y37.5476
G01 X15.9524 Y37.5417
G01 X15.9561 Y37.5354
G01 X15.9593 Y37.5287
G01 X15.9618 Y37.5218
G01 X15.9636 Y37.5146
G01 X15.9646 Y37.5074
G01 X15.9650 Y37.5000
G00 Z0.6000
G00 X15.9650 Y40.0400
G01 F60.00
G01 Z-2.4000
G01 F120.00
G01 X15.9646 Y40.0326
G01 X15.9636 Y40.0254
G01 X15.9618 Y40.0182
G01 X15.9593 Y40.0113
G01 X15.9561 Y40.0046
G01 X15.9524 Y39.9983
G01 X15.9480 Y39.9924
G01 X15.9430 Y39.9870
G01 X15.9376 Y39.9820
G01 X15.9317 Y39.9776
G01 X15.9254 Y39.9739
G01 X15.9187 Y39.9707
G01 X15.9118 Y39.9682
G01 X15.9046 Y39.9664
G01 X15.8974 Y39.9654
G01 X15.8900 Y39.9650
G01 X15.8826 Y39.9654
G01 X15.8754 Y39.9664
G01 X15.8682 Y39.9682
G01 X15.8613 Y39.9707
G01 X15.8546 Y39.9739
G01 X15.8483 Y39.9776
G01 X15.8424 Y39.9820
G01 X15.8370 Y39.9870
G01 X15.8320 Y39.9924
G01 X15.8276 Y39.9983
G01 X15.8239 Y40.0046
G01 X15.8207 Y40.0113
G01 X15.8182 Y40.0182
G01 X15.8164 Y40.0254
G01 X15.8154 Y40.0326
G01 X15.8150 Y40.0400
G01 X15.8154 Y40.0474
G01 X15.8164 Y40.0546
G01 X15.8182 Y40.0618
G01 X15.8207 Y40.0687
G01 X15.8239 Y40.0754
G01 X15.8276 Y40.0817
G01 X15.8320 Y40.0876
G01 X15.8370 Y40.0930
G01 X15.8424 Y40.0980
G01 X15.8483 Y40.1024
G01 X15.8546 Y40.1061
G01 X15.8613 Y40.1093
G01 X15.8682 Y40.1118
G01 X15.8754 Y40.1136
G01 X15.8826 Y40.1146
G01 X15.8900 Y40.1150
G01 X15.8974 Y40.1146
G01 X15.9046 Y40.1136
G01 X15.9118 Y40.1118
G01 X15.9187 Y40.1093
G01 X15.9254 Y40.1061
G01 X15.9317 Y40.1024
G01 X15.9376 Y40.0980
G01 X15.9430 Y40.0930
G01 X15.9480 Y40.0876
G01 X15.9524 Y40.0817
G01 X15.9561 Y40.0754
G01 X15.9593 Y40.0687
G01 X15.9618 Y40.0618
G01 X15.9636 Y40.0546
G01 X15.9646 Y40.0474
G01 X15.9650 Y40.0400
G00 Z0.6000
G00 X15.9650 Y43.8500
G01 F60.00
G01 Z-2.4000
G01 F120.00
G01 X15.9646 Y43.8426
G01 X15.9636 Y43.8354
G01 X15.9618 Y43.8282
G01 X15.9593 Y43.8213
G01 X15.9561 Y43.8146
G01 X15.9524 Y43.8083
G01 X15.9480 Y43.8024
G01 X15.9430 Y43.7970
G01 X15.9376 Y43.7920
G01 X15.9317 Y43.7876
G01 X15.9254 Y43.7839
G01 X15.9187 Y43.7807
G01 X15.9118 Y43.7782
G01 X15.9046 Y43.7764
G01 X15.8974 Y43.7754
G01 X15.8900 Y43.7750
G01 X15.8826 Y43.7754
G01 X15.8754 Y43.7764
G01 X15.8682 Y43.7782
G01 X15.8613 Y43.7807
G01 X15.8546 Y43.7839
G01 X15.8483 Y43.7876
G01 X15.8424 Y43.7920
G01 X15.8370 Y43.7970
G01 X15.8320 Y43.8024
G01 X15.8276 Y43.8083
G01 X15.8239 Y43.8146
G01 X15.8207 Y43.8213
G01 X15.8182 Y43.8282
G01 X15.8164 Y43.8354
G01 X15.8154 Y43.8426
G01 X15.8150 Y43.8500
G01 X15.8154 Y43.8574
G01 X15.8164 Y43.8646
G01 X15.8182 Y43.8718
G01 X15.8207 Y43.8787
G01 X15.8239 Y43.8854
G01 X15.8276 Y43.8917
G01 X15.8320 Y43.8976
G01 X15.8370 Y43.9030
G01 X15.8424 Y43.9080
G01 X15.8483 Y43.9124
G01 X15.8546 Y43.9161
G01 X15.8613 Y43.9193
G01 X15.8682 Y43.9218
G01 X15.8754 Y43.9236
G01 X15.8826 Y43.9246
G01 X15.8900 Y43.9250
G01 X15.8974 Y43.9246
G01 X15.9046 Y43.9236
G01 X15.9118 Y43.9218
G01 X15.9187 Y43.9193
G01 X15.9254 Y43.9161
G01 X15.9317 Y43.9124
G01 X15.9376 Y43.9080
G01 X15.9430 Y43.9030
G01 X15.9480 Y43.8976
G01 X15.9524 Y43.8917
G01 X15.9561 Y43.8854
G01 X15.9593 Y43.8787
G01 X15.9618 Y43.8718
G01 X15.9636 Y43.8646
G01 X15.9646 Y43.8574
G01 X15.9650 Y43.8500
G00 Z0.6000
G00 X13.4250 Y43.8500
G01 F60.00
G01 Z-2.4000
G01 F120.00
G01 X13.4246 Y43.8426
G01 X13.4236 Y43.8354
G01 X13.4218 Y43.8282
G01 X13.4193 Y43.8213
G01 X13.4161 Y43.8146
G01 X13.4124 Y43.8083
G01 X13.4080 Y43.8024
G01 X13.4030 Y43.7970
G01 X13.3976 Y43.7920
G01 X13.3917 Y43.7876
G01 X13.3854 Y43.7839
G01 X13.3787 Y43.7807
G01 X13.3718 Y43.7782
G01 X13.3646 Y43.7764
G01 X13.3574 Y43.7754
G01 X13.3500 Y43.7750
G01 X13.3426 Y43.7754
G01 X13.3354 Y43.7764
G01 X13.3282 Y43.7782
G01 X13.3213 Y43.7807
G01 X13.3146 Y43.7839
G01 X13.3083 Y43.7876
G01 X13.3024 Y43.7920
G01 X13.2970 Y43.7970
G01 X13.2920 Y43.8024
G01 X13.2876 Y43.8083
G01 X13.2839 Y43.8146
G01 X13.2807 Y43.8213
G01 X13.2782 Y43.8282
G01 X13.2764 Y43.8354
G01 X13.2754 Y43.8426
G01 X13.2750 Y43.8500
G01 X13.2754 Y43.8574
G01 X13.2764 Y43.8646
G01 X13.2782 Y43.8718
G01 X13.2807 Y43.8787
G01 X13.2839 Y43.8854
G01 X13.2876 Y43.8917
G01 X13.2920 Y43.8976
G01 X13.2970 Y43.9030
G01 X13.3024 Y43.9080
G01 X13.3083 Y43.9124
G01 X13.3146 Y43.9161
G01 X13.3213 Y43.9193
G01 X13.3282 Y43.9218
G01 X13.3354 Y43.9236
G01 X13.3426 Y43.9246
G01 X13.3500 Y43.9250
G01 X13.3574 Y43.9246
G01 X13.3646 Y43.9236
G01 X13.3718 Y43.9218
G01 X13.3787 Y43.9193
G01 X13.3854 Y43.9161
G01 X13.3917 Y43.9124
G01 X13.3976 Y43.9080
G01 X13.4030 Y43.9030
G01 X13.4080 Y43.8976
G01 X13.4124 Y43.8917
G01 X13.4161 Y43.8854
G01 X13.4193 Y43.8787
G01 X13.4218 Y43.8718
G01 X13.4236 Y43.8646
G01 X13.4246 Y43.8574
G01 X13.4250 Y43.8500
G00 Z0.6000
G00 X4.7000 Y46.5000
G01 F60.00
G01 Z-2.4000
G01 F120.00
G01 X4.6942 Y46.3824
G01 X4.6769 Y46.2659
G01 X4.6483 Y46.1517
G01 X4.6087 Y46.0408
G01 X4.5583 Y45.9343
G01 X4.4978 Y45.8333
G01 X4.4276 Y45.7387
G01 X4.3485 Y45.6515
G01 X4.2613 Y45.5724
G01 X4.1667 Y45.5022
G01 X4.0657 Y45.4417
G01 X3.9592 Y45.3913
G01 X3.8483 Y45.3517
G01 X3.7341 Y45.3231
G01 X3.6176 Y45.3058
G01 X3.5000 Y45.3000
G01 X3.3824 Y45.3058
G01 X3.2659 Y45.3231
G01 X3.1517 Y45.3517
G01 X3.0408 Y45.3913
G01 X2.9343 Y45.4417
G01 X2.8333 Y45.5022
G01 X2.7387 Y45.5724
G01 X2.6515 Y45.6515
G01 X2.5724 Y45.7387
G01 X2.5022 Y45.8333
G01 X2.4417 Y45.9343
G01 X2.3913 Y46.0408
G01 X2.3517 Y46.1517
G01 X2.3231 Y46.2659
G01 X2.3058 Y46.3824
G01 X2.3000 Y46.5000
G01 X2.3058 Y46.6176
G01 X2.3231 Y46.7341
G01 X2.3517 Y46.8483
G01 X2.3913 Y46.9592
G01 X2.4417 Y47.0657
G01 X2.5022 Y47.1667
G01 X2.5724 Y47.2613
G01 X2.6515 Y47.3485
G01 X2.7387 Y47.4276
G01 X2.8333 Y47.4978
G01 X2.9343 Y47.5583
G01 X3.0408 Y47.6087
G01 X3.1517 Y47.6483
G01 X3.2659 Y47.6769
G01 X3.3824 Y47.6942
G01 X3.5000 Y47.7000
G01 X3.6176 Y47.6942
G01 X3.7341 Y47.6769
G01 X3.8483 Y47.6483
G01 X3.9592 Y47.6087
G01 X4.0657 Y47.5583
G01 X4.1667 Y47.4978
G01 X4.2613 Y47.4276
G01 X4.3485 Y47.3485
G01 X4.4276 Y47.2613
G01 X4.4978 Y47.1667
G01 X4.5583 Y47.0657
G01 X4.6087 Y46.9592
G01 X4.6483 Y46.8483
G01 X4.6769 Y46.7341
G01 X4.6942 Y46.6176
G01 X4.7000 Y46.5000
G00 Z0.6000
G00 X36.1000 Y33.8000
G01 F60.00
G01 Z-2.4000
G01 F120.00
G01 X36.1000 Y33.8000
G01 X36.1000 Y33.8000
G01 X36.1000 Y33.8000
G01 X36.1000 Y33.8000
G00 Z0.6000
G00 X36.1000 Y30.8000
G01 F60.00
G01 Z-2.4000
G01 F120.00
G01 X36.1000 Y30.8000
G01 X36.1000 Y30.8000
G01 X36.1000 Y30.8000
G01 X36.1000 Y30.8000
G00 Z0.6000
G00 X36.1000 Y27.8000
G01 F60.00
G01 Z-2.4000
G01 F120.00
G01 X36.1000 Y27.8000
G01 X36.1000 Y27.8000
G01 X36.1000 Y27.8000
G01 X36.1000 Y27.8000
G00 Z0.6000
G00 X36.1000 Y24.8000
G01 F60.00
G01 Z-2.4000
G01 F120.00
G01 X36.1000 Y24.8000
G01 X36.1000 Y24.8000
G01 X36.1000 Y24.8000
G01 X36.1000 Y24.8000
G00 Z0.6000
G00 X39.0000 Y13.8100
G01 F60.00
G01 Z-2.4000
G01 F120.00
G01 X39.0000 Y13.8100
G01 X39.0000 Y13.8100
G01 X39.0000 Y13.8100
G01 X39.0000 Y13.8100
G00 Z0.6000
G00 X58.3000 Y24.8000
G01 F60.00
G01 Z-2.4000
G01 F120.00
G01 X58.3000 Y24.8000
G01 X58.3000 Y24.8000
G01 X58.3000 Y24.8000
G01 X58.3000 Y24.8000
G00 Z0.6000
G00 X58.3000 Y27.8000
G01 F60.00
G01 Z-2.4000
G01 F120.00
G01 X58.3000 Y27.8000
G01 X58.3000 Y27.8000
G01 X58.3000 Y27.8000
G01 X58.3000 Y27.8000
G00 Z0.6000
G00 X58.3000 Y30.8000
G01 F60.00
G01 Z-2.4000
G01 F120.00
G01 X58.3000 Y30.8000
G01 X58.3000 Y30.8000
G01 X58.3000 Y30.8000
G01 X58.3000 Y30.8000
G00 Z0.6000
G00 X58.3000 Y33.8000
G01 F60.00
G01 Z-2.4000
G01 F120.00
G01 X58.3000 Y33.8000
G01 X58.3000 Y33.8000
G01 X58.3000 Y33.8000
G01 X58.3000 Y33.8000
G00 Z0.6000
G00 X58.4250 Y37.5000
G01 F60.00
G01 Z-2.4000
G01 F120.00
G01 X58.4246 Y37.4926
G01 X58.4236 Y37.4854
G01 X58.4218 Y37.4782
G01 X58.4193 Y37.4713
G01 X58.4161 Y37.4646
G01 X58.4124 Y37.4583
G01 X58.4080 Y37.4524
G01 X58.4030 Y37.4470
G01 X58.3976 Y37.4420
G01 X58.3917 Y37.4376
G01 X58.3854 Y37.4339
G01 X58.3787 Y37.4307
G01 X58.3718 Y37.4282
G01 X58.3646 Y37.4264
G01 X58.3574 Y37.4254
G01 X58.3500 Y37.4250
G01 X58.3426 Y37.4254
G01 X58.3354 Y37.4264
G01 X58.3282 Y37.4282
G01 X58.3213 Y37.4307
G01 X58.3146 Y37.4339
G01 X58.3083 Y37.4376
G01 X58.3024 Y37.4420
G01 X58.2970 Y37.4470
G01 X58.2920 Y37.4524
G01 X58.2876 Y37.4583
G01 X58.2839 Y37.4646
G01 X58.2807 Y37.4713
G01 X58.2782 Y37.4782
G01 X58.2764 Y37.4854
G01 X58.2754 Y37.4926
G01 X58.2750 Y37.5000
G01 X58.2754 Y37.5074
G01 X58.2764 Y37.5146
G01 X58.2782 Y37.5218
G01 X58.2807 Y37.5287
G01 X58.2839 Y37.5354
G01 X58.2876 Y37.5417
G01 X58.2920 Y37.5476
G01 X58.2970 Y37.5530
G01 X58.3024 Y37.5580
G01 X58.3083 Y37.5624
G01 X58.3146 Y37.5661
G01 X58.3213 Y37.5693
G01 X58.3282 Y37.5718
G01 X58.3354 Y37.5736
G01 X58.3426 Y37.5746
G01 X58.3500 Y37.5750
G01 X58.3574 Y37.5746
G01 X58.3646 Y37.5736
G01 X58.3718 Y37.5718
G01 X58.3787 Y37.5693
G01 X58.3854 Y37.5661
G01 X58.3917 Y37.5624
G01 X58.3976 Y37.5580
G01 X58.4030 Y37.5530
G01 X58.4080 Y37.5476
G01 X58.4124 Y37.5417
G01 X58.4161 Y37.5354
G01 X58.4193 Y37.5287
G01 X58.4218 Y37.5218
G01 X58.4236 Y37.5146
G01 X58.4246 Y37.5074
G01 X58.4250 Y37.5000
G00 Z0.6000
G00 X60.9650 Y37.5000
G01 F60.00
G01 Z-2.4000
G01 F120.00
G01 X60.9646 Y37.4926
G01 X60.9636 Y37.4854
G01 X60.9618 Y37.4782
G01 X60.9593 Y37.4713
G01 X60.9561 Y37.4646
G01 X60.9524 Y37.4583
G01 X60.9480 Y37.4524
G01 X60.9430 Y37.4470
G01 X60.9376 Y37.4420
G01 X60.9317 Y37.4376
G01 X60.9254 Y37.4339
G01 X60.9187 Y37.4307
G01 X60.9118 Y37.4282
G01 X60.9046 Y37.4264
G01 X60.8974 Y37.4254
G01 X60.8900 Y37.4250
G01 X60.8826 Y37.4254
G01 X60.8754 Y37.4264
G01 X60.8682 Y37.4282
G01 X60.8613 Y37.4307
G01 X60.8546 Y37.4339
G01 X60.8483 Y37.4376
G01 X60.8424 Y37.4420
G01 X60.8370 Y37.4470
G01 X60.8320 Y37.4524
G01 X60.8276 Y37.4583
G01 X60.8239 Y37.4646
G01 X60.8207 Y37.4713
G01 X60.8182 Y37.4782
G01 X60.8164 Y37.4854
G01 X60.8154 Y37.4926
G01 X60.8150 Y37.5000
G01 X60.8154 Y37.5074
G01 X60.8164 Y37.5146
G01 X60.8182 Y37.5218
G01 X60.8207 Y37.5287
G01 X60.8239 Y37.5354
G01 X60.8276 Y37.5417
G01 X60.8320 Y37.5476
G01 X60.8370 Y37.5530
G01 X60.8424 Y37.5580
G01 X60.8483 Y37.5624
G01 X60.8546 Y37.5661
G01 X60.8613 Y37.5693
G01 X60.8682 Y37.5718
G01 X60.8754 Y37.5736
G01 X60.8826 Y37.5746
G01 X60.8900 Y37.5750
G01 X60.8974 Y37.5746
G01 X60.9046 Y37.5736
G01 X60.9118 Y37.5718
G01 X60.9187 Y37.5693
G01 X60.9254 Y37.5661
G01 X60.9317 Y37.5624
G01 X60.9376 Y37.5580
G01 X60.9430 Y37.5530
G01 X60.9480 Y37.5476
G01 X60.9524 Y37.5417
G01 X60.9561 Y37.5354
G01 X60.9593 Y37.5287
G01 X60.9618 Y37.5218
G01 X60.9636 Y37.5146
G01 X60.9646 Y37.5074
G01 X60.9650 Y37.5000
G00 Z0.6000
G00 X63.5050 Y37.5000
G01 F60.00
G01 Z-2.4000
G01 F120.00
G01 X63.5046 Y37.4926
G01 X63.5036 Y37.4854
G01 X63.5018 Y37.4782
G01 X63.4993 Y37.4713
G01 X63.4961 Y37.4646
G01 X63.4924 Y37.4583
G01 X63.4880 Y37.4524
G01 X63.4830 Y37.4470
G01 X63.4776 Y37.4420
G01 X63.4717 Y37.4376
G01 X63.4654 Y37.4339
G01 X63.4587 Y37.4307
G01 X63.4518 Y37.4282
G01 X63.4446 Y37.4264
G01 X63.4374 Y37.4254
G01 X63.4300 Y37.4250
G01 X63.4226 Y37.4254
G01 X63.4154 Y37.4264
G01 X63.4082 Y37.4282
G01 X63.4013 Y37.4307
G01 X63.3946 Y37.4339
G01 X63.3883 Y37.4376
G01 X63.3824 Y37.4420
G01 X63.3770 Y37.4470
G01 X63.3720 Y37.4524
G01 X63.3676 Y37.4583
G01 X63.3639 Y37.4646
G01 X63.3607 Y37.4713
G01 X63.3582 Y37.4782
G01 X63.3564 Y37.4854
G01 X63.3554 Y37.4926
G01 X63.3550 Y37.5000
G01 X63.3554 Y37.5074
G01 X63.3564 Y37.5146
G01 X63.3582 Y37.5218
G01 X63.3607 Y37.5287
G01 X63.3639 Y37.5354
G01 X63.3676 Y37.5417
G01 X63.3720 Y37.5476
G01 X63.3770 Y37.5530
G01 X63.3824 Y37.5580
G01 X63.3883 Y37.5624
G01 X63.3946 Y37.5661
G01 X63.4013 Y37.5693
G01 X63.4082 Y37.5718
G01 X63.4154 Y37.5736
G01 X63.4226 Y37.5746
G01 X63.4300 Y37.5750
G01 X63.4374 Y37.5746
G01 X63.4446 Y37.5736
G01 X63.4518 Y37.5718
G01 X63.4587 Y37.5693
G01 X63.4654 Y37.5661
G01 X63.4717 Y37.5624
G01 X63.4776 Y37.5580
G01 X63.4830 Y37.5530
G01 X63.4880 Y37.5476
G01 X63.4924 Y37.5417
G01 X63.4961 Y37.5354
G01 X63.4993 Y37.5287
G01 X63.5018 Y37.5218
G01 X63.5036 Y37.5146
G01 X63.5046 Y37.5074
G01 X63.5050 Y37.5000
G00 Z0.6000
G00 X66.0450 Y37.5000
G01 F60.00
G01 Z-2.4000
G01 F120.00
G01 X66.0446 Y37.4926
G01 X66.0436 Y37.4854
G01 X66.0418 Y37.4782
G01 X66.0393 Y37.4713
G01 X66.0361 Y37.4646
G01 X66.0324 Y37.4583
G01 X66.0280 Y37.4524
G01 X66.0230 Y37.4470
G01 X66.0176 Y37.4420
G01 X66.0117 Y37.4376
G01 X66.0054 Y37.4339
G01 X65.9987 Y37.4307
G01 X65.9918 Y37.4282
G01 X65.9846 Y37.4264
G01 X65.9774 Y37.4254
G01 X65.9700 Y37.4250
G01 X65.9626 Y37.4254
G01 X65.9554 Y37.4264
G01 X65.9482 Y37.4282
G01 X65.9413 Y37.4307
G01 X65.9346 Y37.4339
G01 X65.9283 Y37.4376
G01 X65.9224 Y37.4420
G01 X65.9170 Y37.4470
G01 X65.9120 Y37.4524
G01 X65.9076 Y37.4583
G01 X65.9039 Y37.4646
G01 X65.9007 Y37.4713
G01 X65.8982 Y37.4782
G01 X65.8964 Y37.4854
G01 X65.8954 Y37.4926
G01 X65.8950 Y37.5000
G01 X65.8954 Y37.5074
G01 X65.8964 Y37.5146
G01 X65.8982 Y37.5218
G01 X65.9007 Y37.5287
G01 X65.9039 Y37.5354
G01 X65.9076 Y37.5417
G01 X65.9120 Y37.5476
G01 X65.9170 Y37.5530
G01 X65.9224 Y37.5580
G01 X65.9283 Y37.5624
G01 X65.9346 Y37.5661
G01 X65.9413 Y37.5693
G01 X65.9482 Y37.5718
G01 X65.9554 Y37.5736
G01 X65.9626 Y37.5746
G01 X65.9700 Y37.5750
G01 X65.9774 Y37.5746
G01 X65.9846 Y37.5736
G01 X65.9918 Y37.5718
G01 X65.9987 Y37.5693
G01 X66.0054 Y37.5661
G01 X66.0117 Y37.5624
G01 X66.0176 Y37.5580
G01 X66.0230 Y37.5530
G01 X66.0280 Y37.5476
G01 X66.0324 Y37.5417
G01 X66.0361 Y37.5354
G01 X66.0393 Y37.5287
G01 X66.0418 Y37.5218
G01 X66.0436 Y37.5146
G01 X66.0446 Y37.5074
G01 X66.0450 Y37.5000
G00 Z0.6000
G00 X66.0450 Y40.0400
G01 F60.00
G01 Z-2.4000
G01 F120.00
G01 X66.0446 Y40.0326
G01 X66.0436 Y40.0254
G01 X66.0418 Y40.0182
G01 X66.0393 Y40.0113
G01 X66.0361 Y40.0046
G01 X66.0324 Y39.9983
G01 X66.0280 Y39.9924
G01 X66.0230 Y39.9870
G01 X66.0176 Y39.9820
G01 X66.0117 Y39.9776
G01 X66.0054 Y39.9739
G01 X65.9987 Y39.9707
G01 X65.9918 Y39.9682
G01 X65.9846 Y39.9664
G01 X65.9774 Y39.9654
G01 X65.9700 Y39.9650
G01 X65.9626 Y39.9654
G01 X65.9554 Y39.9664
G01 X65.9482 Y39.9682
G01 X65.9413 Y39.9707
G01 X65.9346 Y39.9739
G01 X65.9283 Y39.9776
G01 X65.9224 Y39.9820
G01 X65.9170 Y39.9870
G01 X65.9120 Y39.9924
G01 X65.9076 Y39.9983
G01 X65.9039 Y40.0046
G01 X65.9007 Y40.0113
G01 X65.8982 Y40.0182
G01 X65.8964 Y40.0254
G01 X65.8954 Y40.0326
G01 X65.8950 Y40.0400
G01 X65.8954 Y40.0474
G01 X65.8964 Y40.0546
G01 X65.8982 Y40.0618
G01 X65.9007 Y40.0687
G01 X65.9039 Y40.0754
G01 X65.9076 Y40.0817
G01 X65.9120 Y40.0876
G01 X65.9170 Y40.0930
G01 X65.9224 Y40.0980
G01 X65.9283 Y40.1024
G01 X65.9346 Y40.1061
G01 X65.9413 Y40.1093
G01 X65.9482 Y40.1118
G01 X65.9554 Y40.1136
G01 X65.9626 Y40.1146
G01 X65.9700 Y40.1150
G01 X65.9774 Y40.1146
G01 X65.9846 Y40.1136
G01 X65.9918 Y40.1118
G01 X65.9987 Y40.1093
G01 X66.0054 Y40.1061
G01 X66.0117 Y40.1024
G01 X66.0176 Y40.0980
G01 X66.0230 Y40.0930
G01 X66.0280 Y40.0876
G01 X66.0324 Y40.0817
G01 X66.0361 Y40.0754
G01 X66.0393 Y40.0687
G01 X66.0418 Y40.0618
G01 X66.0436 Y40.0546
G01 X66.0446 Y40.0474
G01 X66.0450 Y40.0400
G00 Z0.6000
G00 X63.5050 Y40.0400
G01 F60.00
G01 Z-2.4000
G01 F120.00
G01 X63.5046 Y40.0326
G01 X63.5036 Y40.0254
G01 X63.5018 Y40.0182
G01 X63.4993 Y40.0113
G01 X63.4961 Y40.0046
G01 X63.4924 Y39.9983
G01 X63.4880 Y39.9924
G01 X63.4830 Y39.9870
G01 X63.4776 Y39.9820
G01 X63.4717 Y39.9776
G01 X63.4654 Y39.9739
G01 X63.4587 Y39.9707
G01 X63.4518 Y39.9682
G01 X63.4446 Y39.9664
G01 X63.4374 Y39.9654
G01 X63.4300 Y39.9650
G01 X63.4226 Y39.9654
G01 X63.4154 Y39.9664
G01 X63.4082 Y39.9682
G01 X63.4013 Y39.9707
G01 X63.3946 Y39.9739
G01 X63.3883 Y39.9776
G01 X63.3824 Y39.9820
G01 X63.3770 Y39.9870
G01 X63.3720 Y39.9924
G01 X63.3676 Y39.9983
G01 X63.3639 Y40.0046
G01 X63.3607 Y40.0113
G01 X63.3582 Y40.0182
G01 X63.3564 Y40.0254
G01 X63.3554 Y40.0326
G01 X63.3550 Y40.0400
G01 X63.3554 Y40.0474
G01 X63.3564 Y40.0546
G01 X63.3582 Y40.0618
G01 X63.3607 Y40.0687
G01 X63.3639 Y40.0754
G01 X63.3676 Y40.0817
G01 X63.3720 Y40.0876
G01 X63.3770 Y40.0930
G01 X63.3824 Y40.0980
G01 X63.3883 Y40.1024
G01 X63.3946 Y40.1061
G01 X63.4013 Y40.1093
G01 X63.4082 Y40.1118
G01 X63.4154 Y40.1136
G01 X63.4226 Y40.1146
G01 X63.4300 Y40.1150
G01 X63.4374 Y40.1146
G01 X63.4446 Y40.1136
G01 X63.4518 Y40.1118
G01 X63.4587 Y40.1093
G01 X63.4654 Y40.1061
G01 X63.4717 Y40.1024
G01 X63.4776 Y40.0980
G01 X63.4830 Y40.0930
G01 X63.4880 Y40.0876
G01 X63.4924 Y40.0817
G01 X63.4961 Y40.0754
G01 X63.4993 Y40.0687
G01 X63.5018 Y40.0618
G01 X63.5036 Y40.0546
G01 X63.5046 Y40.0474
G01 X63.5050 Y40.0400
G00 Z0.6000
G00 X60.9650 Y40.0400
G01 F60.00
G01 Z-2.4000
G01 F120.00
G01 X60.9646 Y40.0326
G01 X60.9636 Y40.0254
G01 X60.9618 Y40.0182
G01 X60.9593 Y40.0113
G01 X60.9561 Y40.0046
G01 X60.9524 Y39.9983
G01 X60.9480 Y39.9924
G01 X60.9430 Y39.9870
G01 X60.9376 Y39.9820
G01 X60.9317 Y39.9776
G01 X60.9254 Y39.9739
G01 X60.9187 Y39.9707
G01 X60.9118 Y39.9682
G01 X60.9046 Y39.9664
G01 X60.8974 Y39.9654
G01 X60.8900 Y39.9650
G01 X60.8826 Y39.9654
G01 X60.8754 Y39.9664
G01 X60.8682 Y39.9682
G01 X60.8613 Y39.9707
G01 X60.8546 Y39.9739
G01 X60.8483 Y39.9776
G01 X60.8424 Y39.9820
G01 X60.8370 Y39.9870
G01 X60.8320 Y39.9924
G01 X60.8276 Y39.9983
G01 X60.8239 Y40.0046
G01 X60.8207 Y40.0113
G01 X60.8182 Y40.0182
G01 X60.8164 Y40.0254
G01 X60.8154 Y40.0326
G01 X60.8150 Y40.0400
G01 X60.8154 Y40.0474
G01 X60.8164 Y40.0546
G01 X60.8182 Y40.0618
G01 X60.8207 Y40.0687
G01 X60.8239 Y40.0754
G01 X60.8276 Y40.0817
G01 X60.8320 Y40.0876
G01 X60.8370 Y40.0930
G01 X60.8424 Y40.0980
G01 X60.8483 Y40.1024
G01 X60.8546 Y40.1061
G01 X60.8613 Y40.1093
G01 X60.8682 Y40.1118
G01 X60.8754 Y40.1136
G01 X60.8826 Y40.1146
G01 X60.8900 Y40.1150
G01 X60.8974 Y40.1146
G01 X60.9046 Y40.1136
G01 X60.9118 Y40.1118
G01 X60.9187 Y40.1093
G01 X60.9254 Y40.1061
G01 X60.9317 Y40.1024
G01 X60.9376 Y40.0980
G01 X60.9430 Y40.0930
G01 X60.9480 Y40.0876
G01 X60.9524 Y40.0817
G01 X60.9561 Y40.0754
G01 X60.9593 Y40.0687
G01 X60.9618 Y40.0618
G01 X60.9636 Y40.0546
G01 X60.9646 Y40.0474
G01 X60.9650 Y40.0400
G00 Z0.6000
G00 X58.4250 Y40.0400
G01 F60.00
G01 Z-2.4000
G01 F120.00
G01 X58.4246 Y40.0326
G01 X58.4236 Y40.0254
G01 X58.4218 Y40.0182
G01 X58.4193 Y40.0113
G01 X58.4161 Y40.0046
G01 X58.4124 Y39.9983
G01 X58.4080 Y39.9924
G01 X58.4030 Y39.9870
G01 X58.3976 Y39.9820
G01 X58.3917 Y39.9776
G01 X58.3854 Y39.9739
G01 X58.3787 Y39.9707
G01 X58.3718 Y39.9682
G01 X58.3646 Y39.9664
G01 X58.3574 Y39.9654
G01 X58.3500 Y39.9650
G01 X58.3426 Y39.9654
G01 X58.3354 Y39.9664
G01 X58.3282 Y39.9682
G01 X58.3213 Y39.9707
G01 X58.3146 Y39.9739
G01 X58.3083 Y39.9776
G01 X58.3024 Y39.9820
G01 X58.2970 Y39.9870
G01 X58.2920 Y39.9924
G01 X58.2876 Y39.9983
G01 X58.2839 Y40.0046
G01 X58.2807 Y40.0113
G01 X58.2782 Y40.0182
G01 X58.2764 Y40.0254
G01 X58.2754 Y40.0326
G01 X58.2750 Y40.0400
