(G-CODE GENERATED BY FLATCAM v8.994 - www.flatcam.org - Version Date: 2020/11/7)

(Name: EVBPusher_nano-B_Cu.gbl_ncc_cnc)
(Type: G-code from Geometry)
(Units: MM)

(Created on Monday, 14 April 2025 at 16:32)

(This preprocessor is the default preprocessor used by FlatCAM.)
(It is made to work with MACH3 compatible motion controllers.)

(TOOL DIAMETER: 0.1524 mm)
(Feedrate_XY: 120.0 mm/min)
(Feedrate_Z: 60.0 mm/min)
(Feedrate rapids 1500.0 mm/min)

(Z_Cut: -0.15 mm)
(Z_Move: 2.0 mm)
(Z Start: None mm)
(Z End: 15.0 mm)
(X,Y End: None mm)
(Steps per circle: 64)
(Preprocessor Geometry: default)

(X range:    4.9210 ...   44.7493  mm)
(Y range:    2.0210 ...   71.1743  mm)

(Spindle Speed: 7500.0 RPM)
G21
G90
G94

G01 F120.00

M5
G00 Z15.0000
G00 X0.0000 Y0.0000
T2
M6    
(MSG, Change to Tool Dia = 0.1524)
M0
G00 Z15.0000

M03 S7500.0
G01 F120.00
G00 X7.6556 Y2.5091
G01 F60.00
G01 Z-0.1500
G01 F120.00
G01 X7.6192 Y2.5382
G01 X7.5771 Y2.5736
G01 X7.5507 Y2.5970
G01 X7.5604 Y2.7121
G01 X7.5209 Y2.7505
G01 X7.4870 Y2.7853
G01 X7.5223 Y2.8815
G01 X7.5159 Y2.8883
G01 X7.4825 Y2.9262
G01 X7.4664 Y2.9453
G01 X7.5152 Y3.0297
G01 X7.4905 Y3.0605
G01 X7.4696 Y3.0879
G01 X7.5287 Y3.1617
G01 X7.5078 Y3.1906
G01 X7.4883 Y3.2190
G01 X7.5549 Y3.2724
G01 X7.5527 Y3.2653
G01 X7.5316 Y3.1807
G01 X7.5183 Y3.0908
G01 X7.5138 Y3.0000
G01 X7.5183 Y2.9092
G01 X7.5316 Y2.8193
G01 X7.5537 Y2.7311
G01 X7.5843 Y2.6456
G01 X7.6232 Y2.5634
G01 X7.6699 Y2.4854
G01 X7.7240 Y2.4124
G01 X7.7851 Y2.3451
G01 X7.8524 Y2.2840
G01 X7.9254 Y2.2299
G01 X8.0034 Y2.1832
G01 X8.0856 Y2.1443
G01 X8.1713 Y2.1136
G01 X8.2593 Y2.0916
G01 X8.3492 Y2.0783
G01 X8.4400 Y2.0738
G01 X8.5308 Y2.0783
G01 X8.6207 Y2.0916
G01 X8.7089 Y2.1137
G01 X8.7944 Y2.1443
G01 X8.8766 Y2.1832
G01 X8.9546 Y2.2299
G01 X9.0276 Y2.2840
G01 X9.0949 Y2.3451
G01 X9.1560 Y2.4124
G01 X9.2101 Y2.4854
G01 X9.2568 Y2.5634
G01 X9.2957 Y2.6456
G01 X9.3264 Y2.7313
G01 X9.3484 Y2.8193
G01 X9.3613 Y2.9055
G01 X9.3620 Y2.9129
G01 X9.3662 Y3.0000
G01 X9.3620 Y3.0871
G01 X9.3613 Y3.0945
G01 X9.3484 Y3.1807
G01 X9.3263 Y3.2689
G01 X9.2970 Y3.3510
G01 X9.2942 Y3.3579
G01 X9.2568 Y3.4366
G01 X9.2101 Y3.5146
G01 X9.1560 Y3.5876
G01 X9.0975 Y3.6522
G01 X9.0922 Y3.6575
G01 X9.0304 Y3.7135
G01 X9.0165 Y3.7243
G01 X9.0165 Y4.8157
G01 X9.0304 Y4.8265
G01 X9.0949 Y4.8851
G01 X9.1535 Y4.9496
G01 X9.1583 Y4.9554
G01 X9.2101 Y5.0254
G01 X9.2550 Y5.1001
G01 X9.2585 Y5.1067
G01 X9.2957 Y5.1856
G01 X9.3252 Y5.2679
G01 X9.3273 Y5.2747
G01 X9.3484 Y5.3593
G01 X9.3613 Y5.4455
G01 X9.3620 Y5.4529
G01 X9.3662 Y5.5400
G01 X9.3620 Y5.6271
G01 X9.3613 Y5.6345
G01 X9.3484 Y5.7207
G01 X9.3273 Y5.8053
G01 X9.3251 Y5.8124
G01 X9.2957 Y5.8944
G01 X9.2585 Y5.9733
G01 X9.2550 Y5.9799
G01 X9.2101 Y6.0546
G01 X9.1583 Y6.1246
G01 X9.1535 Y6.1304
G01 X9.0949 Y6.1949
G01 X9.0304 Y6.2535
G01 X9.0246 Y6.2583
G01 X8.9546 Y6.3101
G01 X8.8799 Y6.3550
G01 X8.8733 Y6.3585
G01 X8.7927 Y6.3964
G01 X8.7087 Y6.4264
G01 X8.6207 Y6.4484
G01 X8.5308 Y6.4617
G01 X8.4400 Y6.4662
G01 X8.3492 Y6.4617
G01 X8.2593 Y6.4484
G01 X8.1711 Y6.4263
G01 X8.0856 Y6.3957
G01 X8.0034 Y6.3568
G01 X7.9254 Y6.3101
G01 X7.8524 Y6.2560
G01 X7.7851 Y6.1949
G01 X7.7240 Y6.1276
G01 X7.6699 Y6.0546
G01 X7.6232 Y5.9766
G01 X7.5836 Y5.8927
G01 X7.5536 Y5.8087
G01 X7.5324 Y5.7243
G01 X7.5310 Y5.7170
G01 X7.5187 Y5.6345
G01 X7.5180 Y5.6271
G01 X7.5138 Y5.5400
G01 X7.5183 Y5.4492
G01 X7.5316 Y5.3593
G01 X7.5527 Y5.2747
G01 X7.5549 Y5.2676
G01 X7.5830 Y5.1890
G01 X7.5858 Y5.1821
G01 X7.6232 Y5.1034
G01 X7.6699 Y5.0254
G01 X7.7240 Y4.9524
G01 X7.7825 Y4.8878
G01 X7.7878 Y4.8825
G01 X7.8496 Y4.8265
G01 X7.8635 Y4.8157
G01 X7.8635 Y3.7243
G01 X7.8496 Y3.7135
G01 X7.7878 Y3.6575
G01 X7.7825 Y3.6522
G01 X7.7240 Y3.5876
G01 X7.6699 Y3.5146
G01 X7.6250 Y3.4399
G01 X7.6215 Y3.4333
G01 X7.5843 Y3.3544
G01 X7.5549 Y3.2724
G00 Z2.0000
G00 X7.5575 Y3.2798
G01 F60.00
G01 Z-0.1500
G01 F120.00
G01 X7.5339 Y3.3161
G01 X7.5231 Y3.3337
G01 X7.5987 Y3.3852
G01 X7.5894 Y3.4003
G01 X7.5685 Y3.4363
G01 X7.6489 Y3.4798
G01 X7.6291 Y3.5157
G01 X7.6201 Y3.5330
G01 X7.7068 Y3.5645
G01 X7.6927 Y3.5916
G01 X7.6824 Y3.6127
G01 X7.7711 Y3.6396
G01 X7.7591 Y3.6640
G01 X7.7467 Y3.6911
G01 X7.8407 Y3.7055
G01 X7.8282 Y3.7327
G01 X7.8154 Y3.7626
G01 X7.8082 Y3.7807
G00 Z2.0000
G00 X7.8635 Y3.8976
G01 F60.00
G01 Z-0.1500
G01 F120.00
G01 X7.8507 Y3.9408
G01 X7.8429 Y3.9701
G01 X7.8359 Y3.9995
G01 X7.8297 Y4.0292
G01 X7.8241 Y4.0590
G01 X7.8193 Y4.0889
G01 X7.8157 Y4.1153
G01 X7.8157 Y4.4247
G01 X7.8193 Y4.4511
G01 X7.8241 Y4.4810
G01 X7.8297 Y4.5108
G01 X7.8359 Y4.5405
G01 X7.8429 Y4.5699
G01 X7.8507 Y4.5992
G01 X7.8635 Y4.6424
G01 X7.8055 Y4.7526
G01 X7.8154 Y4.7774
G01 X7.8282 Y4.8073
G01 X7.8407 Y4.8345
G01 X7.7467 Y4.8489
G01 X7.7591 Y4.8760
G01 X7.7711 Y4.9004
G01 X7.6824 Y4.9273
G01 X7.6927 Y4.9484
G01 X7.7068 Y4.9755
G01 X7.6260 Y4.9961
G01 X7.5355 Y5.1653
G01 X7.4798 Y5.3490
G01 X7.4610 Y5.5400
G01 X7.4798 Y5.7310
G01 X7.5355 Y5.9147
G01 X7.6260 Y6.0839
G01 X7.7477 Y6.2323
G01 X7.8961 Y6.3540
G01 X8.0653 Y6.4445
G01 X8.2490 Y6.5002
G01 X8.4400 Y6.5190
G01 X8.6310 Y6.5002
G01 X8.8147 Y6.4445
G01 X8.9839 Y6.3540
G01 X9.1323 Y6.2323
G01 X9.2540 Y6.0839
G01 X9.3445 Y5.9147
G01 X9.4002 Y5.7310
G01 X9.4190 Y5.5400
G01 X9.4002 Y5.3490
G01 X9.3445 Y5.1653
G01 X9.2540 Y4.9961
G01 X9.1323 Y4.8477
G01 X9.1242 Y4.8409
G01 X9.1168 Y4.8327
G01 X9.1125 Y4.8267
G01 X9.0785 Y4.7736
G01 X9.0750 Y4.7670
G01 X9.0728 Y4.7619
G01 X9.0694 Y4.7512
G01 X9.0681 Y4.7438
G01 X9.0649 Y4.7188
G01 X9.0643 Y4.7091
G01 X9.0643 Y3.8309
G01 X9.0645 Y3.8254
G01 X9.0654 Y3.8181
G01 X9.0680 Y3.8074
G01 X9.0875 Y3.7474
G01 X9.0912 Y3.7388
G01 X9.0948 Y3.7323
G01 X9.0991 Y3.7261
G01 X9.1040 Y3.7205
G01 X9.1226 Y3.7007
G01 X9.1323 Y3.6923
G01 X9.2540 Y3.5439
G01 X9.3445 Y3.3747
G01 X9.4002 Y3.1910
G01 X9.4190 Y3.0000
G01 X9.4002 Y2.8090
G01 X9.3445 Y2.6253
G01 X9.2540 Y2.4561
G01 X9.1323 Y2.3077
G01 X8.9839 Y2.1860
G01 X8.8147 Y2.0955
G01 X8.6310 Y2.0398
G01 X8.4400 Y2.0210
G01 X8.2490 Y2.0398
G01 X8.0653 Y2.0955
G01 X7.8961 Y2.1860
G01 X7.7477 Y2.3077
G01 X7.6260 Y2.4561
G01 X7.5355 Y2.6253
G01 X7.4798 Y2.8090
G01 X7.4610 Y3.0000
G01 X7.4798 Y3.1910
G01 X7.5355 Y3.3747
G01 X7.6260 Y3.5439
G01 X7.7477 Y3.6923
G01 X7.7571 Y3.7004
G01 X7.7643 Y3.7088
G01 X7.8024 Y3.7680
G01 X7.8073 Y3.7782
G01 X7.8106 Y3.7889
G01 X7.8119 Y3.7962
G01 X7.8151 Y3.8212
G01 X7.8157 Y3.8309
G01 X7.8157 Y4.7109
G01 X7.8146 Y4.7219
G01 X7.8120 Y4.7326
G01 X7.7925 Y4.7926
G01 X7.7888 Y4.8012
G01 X7.7842 Y4.8093
G01 X7.7773 Y4.8182
G01 X7.7587 Y4.8379
G01 X7.7546 Y4.8420
G01 X7.7477 Y4.8477
G01 X7.6260 Y4.9961
G01 X7.6201 Y5.0070
G01 X7.6291 Y5.0243
G01 X7.6489 Y5.0602
G01 X7.5685 Y5.1037
G01 X7.5685 Y5.1038
G01 X7.5894 Y5.1397
G01 X7.5987 Y5.1548
G01 X7.5231 Y5.2063
G01 X7.5339 Y5.2239
G01 X7.5575 Y5.2602
G01 X7.4883 Y5.3210
G01 X7.5078 Y5.3494
G01 X7.5287 Y5.3783
G01 X7.4696 Y5.4521
G01 X7.4905 Y5.4795
G01 X7.5152 Y5.5103
G01 X7.4664 Y5.5947
G01 X7.4825 Y5.6138
G01 X7.5223 Y5.6585
G01 X7.4870 Y5.7547
G01 X7.5209 Y5.7895
G01 X7.5604 Y5.8279
G01 X7.5507 Y5.9430
G01 X7.5771 Y5.9664
G01 X7.6192 Y6.0018
G01 X7.6556 Y6.0310
G01 X7.7072 Y6.1828
G01 X7.7449 Y6.2088
G01 X7.7929 Y6.2400
G01 X7.8416 Y6.2700
G01 X7.8911 Y6.2988
G01 X7.9412 Y6.3264
G01 X7.9920 Y6.3527
G01 X8.0434 Y6.3779
G01 X8.0955 Y6.4017
G01 X8.1481 Y6.4242
G01 X8.2012 Y6.4455
G01 X8.2548 Y6.4654
G01 X8.3090 Y6.4840
G01 X8.3635 Y6.5013
G01 X8.4166 Y6.5167
G01 X8.5584 Y6.4577
G01 X8.6033 Y6.4672
G01 X8.6574 Y6.4773
G01 X8.6895 Y6.4825
G01 X8.7758 Y6.4025
G01 X8.8298 Y6.4085
G01 X8.8748 Y6.4124
G01 X8.9309 Y6.3244
G01 X8.9899 Y6.3268
G01 X9.0167 Y6.3271
G01 X9.0499 Y6.2358
G01 X9.0886 Y6.2354
G01 X9.1304 Y6.2338
G01 X9.1434 Y6.1416
G01 X9.1783 Y6.1394
G01 X9.2107 Y6.1366
G01 X9.2163 Y6.0444
G01 X9.2586 Y6.0397
G01 X9.2792 Y6.0369
G01 X9.2716 Y5.9456
G01 X9.2886 Y5.9433
G01 X9.3330 Y5.9361
G01 X9.3128 Y5.8468
G01 X9.3526 Y5.8395
G01 X9.3683 Y5.8361
G01 X9.3416 Y5.7483
G01 X9.3709 Y5.7421
G01 X9.3988 Y5.7355
G01 X9.3588 Y5.6510
G01 X9.3848 Y5.6448
G01 X9.4093 Y5.6384
G01 X9.3655 Y5.5554
G01 X9.3940 Y5.5479
G01 X9.4190 Y5.5406
G01 X9.4099 Y5.4477
G01 X9.3987 Y5.4513
G01 X9.3624 Y5.4616
G00 Z2.0000
G00 X9.3501 Y5.3702
G01 F60.00
G01 Z-0.1500
G01 F120.00
G01 X9.3722 Y5.3638
G01 X9.4008 Y5.3547
G01 X9.3753 Y5.2668
G01 X9.3456 Y5.2763
G01 X9.3289 Y5.2811
G00 Z2.0000
G00 X9.2990 Y5.1946
G01 F60.00
G01 Z-0.1500
G01 F120.00
G01 X9.3191 Y5.1888
G01 X9.3487 Y5.1792
G01 X9.3077 Y5.0965
G01 X9.2925 Y5.1013
G01 X9.2602 Y5.1103
G00 Z2.0000
G00 X9.2118 Y5.0281
G01 F60.00
G01 Z-0.1500
G01 F120.00
G01 X9.2292 Y5.0239
G01 X9.2638 Y5.0144
G01 X9.2046 Y4.9358
G01 X9.1742 Y4.9426
G01 X9.1510 Y4.9468
G01 X9.1391 Y4.8561
G01 X9.1131 Y4.8599
G01 X9.0986 Y4.8615
G01 X9.0713 Y4.8635
G01 X9.0774 Y4.7716
G01 X9.0527 Y4.7728
G01 X9.0404 Y4.7729
G01 X9.0165 Y4.7723
G01 X9.0165 Y4.6808
G01 X9.0404 Y4.6815
G01 X9.0643 Y4.6808
G01 X9.0643 Y4.5891
G01 X9.0404 Y4.5900
G01 X9.0165 Y4.5891
G01 X9.0165 Y4.4973
G01 X9.0292 Y4.4983
G01 X9.0404 Y4.4986
G01 X9.0516 Y4.4983
G01 X9.0643 Y4.4973
G01 X9.0643 Y4.4051
G01 X9.0538 Y4.4065
G01 X9.0404 Y4.4072
G01 X9.0269 Y4.4065
G01 X9.0165 Y4.4051
G01 X9.0165 Y4.3090
G01 X9.0218 Y4.3118
G01 X9.0282 Y4.3141
G01 X9.0348 Y4.3154
G01 X9.0404 Y4.3157
G01 X9.0460 Y4.3154
G01 X9.0526 Y4.3141
G01 X9.0589 Y4.3118
G01 X9.0643 Y4.3090
G01 X9.0643 Y4.2310
G01 X9.0589 Y4.2282
G01 X9.0526 Y4.2259
G01 X9.0460 Y4.2246
G01 X9.0404 Y4.2243
G01 X9.0348 Y4.2246
G01 X9.0282 Y4.2259
G01 X9.0218 Y4.2282
G01 X9.0165 Y4.2310
G01 X9.0165 Y4.1349
G01 X9.0269 Y4.1335
G01 X9.0404 Y4.1328
G01 X9.0538 Y4.1335
G01 X9.0643 Y4.1349
G01 X9.0643 Y4.0427
G01 X9.0516 Y4.0417
G01 X9.0404 Y4.0414
G01 X9.0292 Y4.0417
G01 X9.0165 Y4.0427
G01 X9.0165 Y3.9509
G01 X9.0404 Y3.9500
G01 X9.0643 Y3.9509
G01 X9.0643 Y3.8592
G01 X9.0404 Y3.8585
G01 X9.0165 Y3.8592
G01 X9.0165 Y3.7677
G01 X9.0404 Y3.7671
G01 X9.0527 Y3.7672
G01 X9.0806 Y3.7687
G01 X9.0713 Y3.6765
G01 X9.0986 Y3.6785
G01 X9.1131 Y3.6801
G01 X9.1391 Y3.6839
G01 X9.1510 Y3.5932
G01 X9.1742 Y3.5974
G01 X9.2046 Y3.6042
G00 Z2.0000
G00 X9.2118 Y3.5119
G01 F60.00
G01 Z-0.1500
G01 F120.00
G01 X9.2292 Y3.5161
G01 X9.2638 Y3.5256
G01 X9.3077 Y3.4435
G01 X9.2925 Y3.4387
G01 X9.2602 Y3.4297
G00 Z2.0000
G00 X9.2990 Y3.3454
G01 F60.00
G01 Z-0.1500
G01 F120.00
G01 X9.3191 Y3.3512
G01 X9.3487 Y3.3608
G01 X9.3753 Y3.2732
G01 X9.3456 Y3.2637
G01 X9.3289 Y3.2589
G00 Z2.0000
G00 X9.3501 Y3.1698
G01 F60.00
G01 Z-0.1500
G01 F120.00
G01 X9.3722 Y3.1762
G01 X9.4008 Y3.1853
G01 X9.4099 Y3.0923
G01 X9.3987 Y3.0887
G01 X9.3624 Y3.0784
G00 Z2.0000
G00 X9.3655 Y2.9846
G01 F60.00
G01 Z-0.1500
G01 F120.00
G01 X9.3940 Y2.9921
G01 X9.4190 Y2.9994
G01 X9.4093 Y2.9016
G01 X9.3848 Y2.8952
G01 X9.3588 Y2.8890
G01 X9.3988 Y2.8045
G01 X9.3709 Y2.7979
G01 X9.3416 Y2.7917
G01 X9.3683 Y2.7039
G01 X9.3526 Y2.7005
G01 X9.3128 Y2.6932
G01 X9.3330 Y2.6039
G01 X9.2886 Y2.5967
G01 X9.2716 Y2.5944
G01 X9.2792 Y2.5031
G01 X9.2586 Y2.5003
G01 X9.2163 Y2.4956
G01 X9.2107 Y2.4034
G01 X9.1783 Y2.4006
G01 X9.1434 Y2.3984
G01 X9.1304 Y2.3062
G01 X9.0886 Y2.3046
G01 X9.0499 Y2.3042
G01 X9.0167 Y2.2129
G01 X8.9899 Y2.2132
G01 X8.9309 Y2.2156
G01 X8.8748 Y2.1276
G01 X8.8298 Y2.1315
G01 X8.7758 Y2.1375
G01 X8.6895 Y2.0575
G01 X8.6574 Y2.0627
G01 X8.6033 Y2.0728
G01 X8.5584 Y2.0823
G01 X8.4166 Y2.0233
G01 X8.3635 Y2.0387
G01 X8.3090 Y2.0560
G01 X8.2548 Y2.0746
G01 X8.2012 Y2.0945
G01 X8.1481 Y2.1158
G01 X8.0955 Y2.1383
G01 X8.0434 Y2.1622
G01 X7.9920 Y2.1873
G01 X7.9412 Y2.2136
G01 X7.8911 Y2.2412
G01 X7.8416 Y2.2700
G01 X7.7929 Y2.3000
G01 X7.7449 Y2.3312
G01 X7.7072 Y2.3572
G00 Z2.0000
G00 X10.0907 Y2.5970
G01 F60.00
G01 Z-0.1500
G01 F120.00
G01 X10.1171 Y2.5736
G01 X10.1592 Y2.5382
G01 X10.1956 Y2.5091
G01 X10.2472 Y2.3572
G01 X10.2849 Y2.3312
G01 X10.3329 Y2.3000
G01 X10.3816 Y2.2700
G01 X10.4311 Y2.2412
G01 X10.4812 Y2.2136
G01 X10.5320 Y2.1873
G01 X10.5834 Y2.1622
G01 X10.6355 Y2.1383
G01 X10.6881 Y2.1158
G01 X10.7412 Y2.0945
G01 X10.7948 Y2.0746
G01 X10.8490 Y2.0560
G01 X10.9035 Y2.0387
G01 X10.9566 Y2.0233
G01 X11.0984 Y2.0823
G01 X11.1433 Y2.0728
G01 X11.1974 Y2.0627
G01 X11.2295 Y2.0575
G01 X11.3158 Y2.1375
G01 X11.3698 Y2.1315
G01 X11.4148 Y2.1276
G01 X11.4709 Y2.2156
G01 X11.5299 Y2.2132
G01 X11.5567 Y2.2129
G01 X11.5899 Y2.3042
G01 X11.6286 Y2.3046
G01 X11.6704 Y2.3062
G01 X11.6834 Y2.3984
G01 X11.7183 Y2.4006
G01 X11.7507 Y2.4034
G01 X11.7563 Y2.4956
G01 X11.7986 Y2.5003
G01 X11.8192 Y2.5031
G01 X11.8116 Y2.5944
G01 X11.8286 Y2.5967
G01 X11.8730 Y2.6039
G01 X11.8528 Y2.6932
G01 X11.8926 Y2.7005
G01 X11.9083 Y2.7039
G01 X11.8816 Y2.7917
G01 X11.9109 Y2.7979
G01 X11.9388 Y2.8045
G01 X11.8988 Y2.8890
G01 X11.9248 Y2.8952
G01 X11.9493 Y2.9016
G01 X11.9590 Y2.9994
G01 X11.9340 Y2.9921
G01 X11.9055 Y2.9846
G00 Z2.0000
G00 X10.1004 Y2.7121
G01 F60.00
G01 Z-0.1500
G01 F120.00
G01 X10.0609 Y2.7505
G01 X10.0270 Y2.7853
G01 X10.0623 Y2.8815
G01 X10.0559 Y2.8883
G01 X10.0225 Y2.9262
G01 X10.0064 Y2.9453
G01 X10.0552 Y3.0297
G01 X10.0305 Y3.0605
G01 X10.0096 Y3.0879
G01 X10.0687 Y3.1617
G01 X10.0478 Y3.1906
G01 X10.0283 Y3.2190
G01 X10.0949 Y3.2724
G01 X10.0927 Y3.2653
G01 X10.0716 Y3.1807
G01 X10.0583 Y3.0908
G01 X10.0538 Y3.0000
G01 X10.0580 Y2.9129
G01 X10.0587 Y2.9055
G01 X10.0716 Y2.8193
G01 X10.0927 Y2.7347
G01 X10.0949 Y2.7276
G01 X10.1230 Y2.6490
G01 X10.1258 Y2.6421
G01 X10.1632 Y2.5634
G01 X10.2079 Y2.4886
G01 X10.2120 Y2.4824
G01 X10.2617 Y2.4154
G01 X10.2665 Y2.4096
G01 X10.3251 Y2.3451
G01 X10.3896 Y2.2865
G01 X10.3954 Y2.2817
G01 X10.4654 Y2.2299
G01 X10.5434 Y2.1832
G01 X10.6256 Y2.1443
G01 X10.7079 Y2.1148
G01 X10.7147 Y2.1127
G01 X10.7993 Y2.0916
G01 X10.8855 Y2.0787
G01 X10.8929 Y2.0780
G01 X10.9800 Y2.0738
G01 X11.0671 Y2.0780
G01 X11.0745 Y2.0787
G01 X11.1607 Y2.0916
G01 X11.2489 Y2.1137
G01 X11.3344 Y2.1443
G01 X11.4133 Y2.1815
G01 X11.4199 Y2.1850
G01 X11.4914 Y2.2279
G01 X11.4976 Y2.2320
G01 X11.5676 Y2.2840
G01 X11.6349 Y2.3451
G01 X11.6960 Y2.4124
G01 X11.7480 Y2.4824
G01 X11.7521 Y2.4886
G01 X11.7950 Y2.5601
G01 X11.7985 Y2.5667
G01 X11.8357 Y2.6456
G01 X11.8658 Y2.7296
G01 X11.8876 Y2.8157
G01 X11.8890 Y2.8230
G01 X11.9017 Y2.9092
G01 X11.9062 Y3.0000
G01 X11.9020 Y3.0871
G01 X11.9013 Y3.0945
G01 X11.8884 Y3.1807
G01 X11.8663 Y3.2689
G01 X11.8370 Y3.3510
G01 X11.8342 Y3.3579
G01 X11.7968 Y3.4366
G01 X11.7501 Y3.5146
G01 X11.6960 Y3.5876
G01 X11.6375 Y3.6522
G01 X11.6322 Y3.6575
G01 X11.5704 Y3.7135
G01 X11.5565 Y3.7243
G01 X11.5565 Y4.8157
G01 X11.5704 Y4.8265
G01 X11.6349 Y4.8851
G01 X11.6935 Y4.9496
G01 X11.6983 Y4.9554
G01 X11.7501 Y5.0254
G01 X11.7950 Y5.1001
G01 X11.7985 Y5.1067
G01 X11.8357 Y5.1856
G01 X11.8652 Y5.2679
G01 X11.8673 Y5.2747
G01 X11.8884 Y5.3593
G01 X11.9013 Y5.4455
G01 X11.9020 Y5.4529
G01 X11.9062 Y5.5400
G01 X11.9020 Y5.6271
G01 X11.9013 Y5.6345
G01 X11.8884 Y5.7207
G01 X11.8673 Y5.8053
G01 X11.8651 Y5.8124
G01 X11.8357 Y5.8944
G01 X11.7985 Y5.9733
G01 X11.7950 Y5.9799
G01 X11.7501 Y6.0546
G01 X11.6983 Y6.1246
G01 X11.6935 Y6.1304
G01 X11.6349 Y6.1949
G01 X11.5704 Y6.2535
G01 X11.5646 Y6.2583
G01 X11.4946 Y6.3101
G01 X11.4199 Y6.3550
G01 X11.4133 Y6.3585
G01 X11.3327 Y6.3964
G01 X11.2487 Y6.4264
G01 X11.1607 Y6.4484
G01 X11.0708 Y6.4617
G01 X10.9800 Y6.4662
G01 X10.8892 Y6.4617
G01 X10.7993 Y6.4484
G01 X10.7111 Y6.4263
G01 X10.6256 Y6.3957
G01 X10.5434 Y6.3568
G01 X10.4654 Y6.3101
G01 X10.3924 Y6.2560
G01 X10.3251 Y6.1949
G01 X10.2640 Y6.1276
G01 X10.2099 Y6.0546
G01 X10.1632 Y5.9766
G01 X10.1236 Y5.8927
G01 X10.0936 Y5.8087
G01 X10.0724 Y5.7243
G01 X10.0710 Y5.7170
G01 X10.0587 Y5.6345
G01 X10.0580 Y5.6271
G01 X10.0538 Y5.5400
G01 X10.0583 Y5.4492
G01 X10.0716 Y5.3593
G01 X10.0927 Y5.2747
G01 X10.0949 Y5.2676
G01 X10.1230 Y5.1890
G01 X10.1258 Y5.1821
G01 X10.1632 Y5.1034
G01 X10.2099 Y5.0254
G01 X10.2640 Y4.9524
G01 X10.3225 Y4.8878
G01 X10.3278 Y4.8825
G01 X10.3896 Y4.8265
G01 X10.4035 Y4.8157
G01 X10.4035 Y3.7243
G01 X10.3896 Y3.7135
G01 X10.3278 Y3.6575
G01 X10.3225 Y3.6522
G01 X10.2640 Y3.5876
G01 X10.2099 Y3.5146
G01 X10.1650 Y3.4399
G01 X10.1615 Y3.4333
G01 X10.1243 Y3.3544
G01 X10.0949 Y3.2724
G00 Z2.0000
G00 X10.0975 Y3.2798
G01 F60.00
G01 Z-0.1500
G01 F120.00
G01 X10.0739 Y3.3161
G01 X10.0631 Y3.3337
G01 X10.1387 Y3.3852
G01 X10.1294 Y3.4003
G01 X10.1085 Y3.4363
G01 X10.1889 Y3.4798
G01 X10.1691 Y3.5157
G01 X10.1601 Y3.5330
G01 X10.2468 Y3.5645
G01 X10.2327 Y3.5916
G01 X10.2224 Y3.6127
G01 X10.3111 Y3.6396
G01 X10.2991 Y3.6640
G01 X10.2867 Y3.6911
G01 X10.3807 Y3.7055
G01 X10.3682 Y3.7327
G01 X10.3554 Y3.7626
G01 X10.3482 Y3.7807
G00 Z2.0000
G00 X10.4035 Y3.8976
G01 F60.00
G01 Z-0.1500
G01 F120.00
G01 X10.3907 Y3.9408
G01 X10.3829 Y3.9701
G01 X10.3759 Y3.9995
G01 X10.3697 Y4.0292
G01 X10.3641 Y4.0590
G01 X10.3593 Y4.0889
G01 X10.3557 Y4.1153
G01 X10.3557 Y4.4247
G01 X10.3593 Y4.4511
G01 X10.3641 Y4.4810
G01 X10.3697 Y4.5108
G01 X10.3759 Y4.5405
G01 X10.3829 Y4.5699
G01 X10.3907 Y4.5992
G01 X10.4035 Y4.6424
G01 X10.3455 Y4.7526
G01 X10.3554 Y4.7774
G01 X10.3682 Y4.8073
G01 X10.3807 Y4.8345
G01 X10.2867 Y4.8489
G01 X10.2991 Y4.8760
G01 X10.3111 Y4.9004
G01 X10.2224 Y4.9273
G01 X10.2327 Y4.9484
G01 X10.2468 Y4.9755
G01 X10.1660 Y4.9961
G01 X10.0755 Y5.1653
G01 X10.0198 Y5.3490
G01 X10.0010 Y5.5400
G01 X10.0198 Y5.7310
G01 X10.0755 Y5.9147
G01 X10.1660 Y6.0839
G01 X10.2877 Y6.2323
G01 X10.4361 Y6.3540
G01 X10.6053 Y6.4445
G01 X10.7890 Y6.5002
G01 X10.9800 Y6.5190
G01 X11.1710 Y6.5002
G01 X11.3547 Y6.4445
G01 X11.5239 Y6.3540
G01 X11.6723 Y6.2323
G01 X11.7940 Y6.0839
G01 X11.8845 Y5.9147
G01 X11.9402 Y5.7310
G01 X11.9590 Y5.5400
G01 X11.9402 Y5.3490
G01 X11.8845 Y5.1653
G01 X11.7940 Y4.9961
G01 X11.6723 Y4.8477
G01 X11.6642 Y4.8409
G01 X11.6568 Y4.8327
G01 X11.6525 Y4.8267
G01 X11.6185 Y4.7736
G01 X11.6150 Y4.7670
G01 X11.6128 Y4.7619
G01 X11.6094 Y4.7512
G01 X11.6081 Y4.7438
G01 X11.6049 Y4.7188
G01 X11.6043 Y4.7091
G01 X11.6043 Y3.8309
G01 X11.6045 Y3.8254
G01 X11.6054 Y3.8181
G01 X11.6080 Y3.8074
G01 X11.6275 Y3.7474
G01 X11.6312 Y3.7388
G01 X11.6348 Y3.7323
G01 X11.6391 Y3.7261
G01 X11.6440 Y3.7205
G01 X11.6626 Y3.7007
G01 X11.6723 Y3.6923
G01 X11.7940 Y3.5439
G01 X11.8845 Y3.3747
G01 X11.9402 Y3.1910
G01 X11.9590 Y3.0000
G01 X11.9402 Y2.8090
G01 X11.8845 Y2.6253
G01 X11.7940 Y2.4561
G01 X11.6723 Y2.3077
G01 X11.5239 Y2.1860
G01 X11.3547 Y2.0955
G01 X11.1710 Y2.0398
G01 X10.9800 Y2.0210
G01 X10.7890 Y2.0398
G01 X10.6053 Y2.0955
G01 X10.4361 Y2.1860
G01 X10.2877 Y2.3077
G01 X10.1660 Y2.4561
G01 X10.0755 Y2.6253
G01 X10.0198 Y2.8090
G01 X10.0010 Y3.0000
G01 X10.0198 Y3.1910
G01 X10.0755 Y3.3747
G01 X10.1660 Y3.5439
G01 X10.2877 Y3.6923
G01 X10.2958 Y3.6991
G01 X10.3032 Y3.7073
G01 X10.3075 Y3.7133
G01 X10.3415 Y3.7664
G01 X10.3442 Y3.7713
G01 X10.3473 Y3.7782
G01 X10.3506 Y3.7889
G01 X10.3519 Y3.7962
G01 X10.3551 Y3.8212
G01 X10.3557 Y3.8290
G01 X10.3557 Y4.7091
G01 X10.3555 Y4.7146
G01 X10.3546 Y4.7219
G01 X10.3520 Y4.7326
G01 X10.3325 Y4.7926
G01 X10.3280 Y4.8029
G01 X10.3231 Y4.8109
G01 X10.3173 Y4.8182
G01 X10.2987 Y4.8379
G01 X10.2946 Y4.8420
G01 X10.2877 Y4.8477
G01 X10.1660 Y4.9961
G00 Z2.0000
G00 X10.1601 Y5.0070
G01 F60.00
G01 Z-0.1500
G01 F120.00
G01 X10.1691 Y5.0243
G01 X10.1889 Y5.0602
G01 X10.1085 Y5.1037
G01 X10.1294 Y5.1397
G01 X10.1387 Y5.1548
G01 X10.0631 Y5.2063
G01 X10.0739 Y5.2239
G01 X10.0975 Y5.2602
G01 X10.0283 Y5.3210
G01 X10.0478 Y5.3494
G01 X10.0687 Y5.3783
G01 X10.0096 Y5.4521
G01 X10.0305 Y5.4795
G01 X10.0552 Y5.5103
G01 X10.0064 Y5.5947
G01 X10.0225 Y5.6138
G01 X10.0623 Y5.6585
G01 X10.0270 Y5.7547
G01 X10.0609 Y5.7895
G01 X10.1004 Y5.8279
G01 X10.0907 Y5.9430
G01 X10.1171 Y5.9664
G01 X10.1592 Y6.0018
G01 X10.1956 Y6.0310
G01 X10.2472 Y6.1828
G01 X10.2849 Y6.2088
G01 X10.3329 Y6.2400
G01 X10.3816 Y6.2700
G01 X10.4311 Y6.2988
G01 X10.4812 Y6.3264
G01 X10.5320 Y6.3527
G01 X10.5834 Y6.3779
G01 X10.6355 Y6.4017
G01 X10.6881 Y6.4242
G01 X10.7412 Y6.4455
G01 X10.7948 Y6.4654
G01 X10.8490 Y6.4840
G01 X10.9035 Y6.5013
G01 X10.9566 Y6.5167
G01 X11.0984 Y6.4577
G01 X11.1433 Y6.4672
G01 X11.1974 Y6.4773
G01 X11.2295 Y6.4825
G01 X11.3158 Y6.4025
G01 X11.3698 Y6.4085
G01 X11.4148 Y6.4124
G01 X11.4709 Y6.3244
G01 X11.5299 Y6.3268
G01 X11.5567 Y6.3271
G01 X11.5899 Y6.2358
G01 X11.6286 Y6.2354
G01 X11.6704 Y6.2338
G01 X11.6834 Y6.1416
G01 X11.7183 Y6.1394
G01 X11.7507 Y6.1366
G01 X11.7563 Y6.0444
G01 X11.7986 Y6.0397
G01 X11.8192 Y6.0369
G01 X11.8116 Y5.9456
G01 X11.8286 Y5.9433
G01 X11.8730 Y5.9361
G01 X11.8528 Y5.8468
G01 X11.8926 Y5.8395
G01 X11.9083 Y5.8361
G01 X11.8816 Y5.7483
G01 X11.9109 Y5.7421
G01 X11.9388 Y5.7355
G01 X11.8988 Y5.6510
G01 X11.9248 Y5.6448
G01 X11.9493 Y5.6384
G01 X11.9055 Y5.5554
G01 X11.9340 Y5.5479
G01 X11.9590 Y5.5406
G01 X11.9499 Y5.4477
G01 X11.9387 Y5.4513
G01 X11.9024 Y5.4616
G00 Z2.0000
G00 X11.8901 Y5.3702
G01 F60.00
G01 Z-0.1500
G01 F120.00
G01 X11.9122 Y5.3638
G01 X11.9408 Y5.3547
G01 X11.9153 Y5.2668
G01 X11.8856 Y5.2763
G01 X11.8689 Y5.2811
G00 Z2.0000
G00 X11.8390 Y5.1946
G01 F60.00
G01 Z-0.1500
G01 F120.00
G01 X11.8591 Y5.1888
G01 X11.8887 Y5.1792
G01 X11.8477 Y5.0965
G01 X11.8325 Y5.1013
G01 X11.8002 Y5.1103
G00 Z2.0000
G00 X11.7518 Y5.0281
G01 F60.00
G01 Z-0.1500
G01 F120.00
G01 X11.7692 Y5.0239
G01 X11.8038 Y5.0144
G01 X11.7446 Y4.9358
G01 X11.7142 Y4.9426
G01 X11.6910 Y4.9468
G01 X11.6791 Y4.8561
G01 X11.6531 Y4.8599
G01 X11.6386 Y4.8615
G01 X11.6113 Y4.8635
G01 X11.6174 Y4.7716
G01 X11.5927 Y4.7728
G01 X11.5804 Y4.7729
G01 X11.5565 Y4.7723
G01 X11.5565 Y4.6808
G01 X11.5804 Y4.6815
G01 X11.6043 Y4.6808
G01 X11.6043 Y4.5891
G01 X11.5804 Y4.5900
G01 X11.5565 Y4.5891
G01 X11.5565 Y4.4973
G01 X11.5692 Y4.4983
G01 X11.5804 Y4.4986
G01 X11.5916 Y4.4983
G01 X11.6043 Y4.4973
G01 X11.6043 Y4.4051
G01 X11.5938 Y4.4065
G01 X11.5804 Y4.4072
G01 X11.5669 Y4.4065
G01 X11.5565 Y4.4051
G01 X11.5565 Y4.3090
G01 X11.5618 Y4.3118
G01 X11.5682 Y4.3141
G01 X11.5748 Y4.3154
G01 X11.5804 Y4.3157
G01 X11.5860 Y4.3154
G01 X11.5926 Y4.3141
G01 X11.5989 Y4.3118
G01 X11.6043 Y4.3090
G01 X11.6043 Y4.2310
G01 X11.5989 Y4.2282
G01 X11.5926 Y4.2259
G01 X11.5860 Y4.2246
G01 X11.5804 Y4.2243
G01 X11.5748 Y4.2246
G01 X11.5682 Y4.2259
G01 X11.5618 Y4.2282
G01 X11.5565 Y4.2310
G01 X11.5565 Y4.1349
G01 X11.5669 Y4.1335
G01 X11.5804 Y4.1328
G01 X11.5938 Y4.1335
G01 X11.6043 Y4.1349
G01 X11.6043 Y4.0427
G01 X11.5916 Y4.0417
G01 X11.5804 Y4.0414
G01 X11.5692 Y4.0417
G01 X11.5565 Y4.0427
G01 X11.5565 Y3.9509
G01 X11.5804 Y3.9500
G01 X11.6043 Y3.9509
G01 X11.6043 Y3.8592
G01 X11.5804 Y3.8585
G01 X11.5565 Y3.8592
G01 X11.5565 Y3.7677
G01 X11.5804 Y3.7671
G01 X11.5927 Y3.7672
G01 X11.6206 Y3.7687
G01 X11.6113 Y3.6765
G01 X11.6386 Y3.6785
G01 X11.6531 Y3.6801
G01 X11.6791 Y3.6839
G01 X11.6910 Y3.5932
G01 X11.7142 Y3.5974
G01 X11.7446 Y3.6042
G00 Z2.0000
G00 X11.7518 Y3.5119
G01 F60.00
G01 Z-0.1500
G01 F120.00
G01 X11.7692 Y3.5161
G01 X11.8038 Y3.5256
G01 X11.8477 Y3.4435
G01 X11.8325 Y3.4387
G01 X11.8002 Y3.4297
G00 Z2.0000
G00 X11.8390 Y3.3454
G01 F60.00
G01 Z-0.1500
G01 F120.00
G01 X11.8591 Y3.3512
G01 X11.8887 Y3.3608
G01 X11.9153 Y3.2732
G01 X11.8856 Y3.2637
G01 X11.8689 Y3.2589
G00 Z2.0000
G00 X11.8901 Y3.1698
G01 F60.00
G01 Z-0.1500
G01 F120.00
G01 X11.9122 Y3.1762
G01 X11.9408 Y3.1853
G01 X11.9499 Y3.0923
G01 X11.9387 Y3.0887
G01 X11.9024 Y3.0784
G00 Z2.0000
G00 X12.6349 Y3.2724
G01 F60.00
G01 Z-0.1500
G01 F120.00
G01 X12.6643 Y3.3544
G01 X12.7015 Y3.4333
G01 X12.7050 Y3.4399
G01 X12.7499 Y3.5146
G01 X12.8040 Y3.5876
G01 X12.8625 Y3.6522
G01 X12.8678 Y3.6575
G01 X12.9296 Y3.7135
G01 X12.9435 Y3.7243
G01 X12.9435 Y4.8157
G01 X12.9296 Y4.8265
G01 X12.8678 Y4.8825
G01 X12.8625 Y4.8878
G01 X12.8040 Y4.9524
G01 X12.7499 Y5.0254
G01 X12.7032 Y5.1034
G01 X12.6658 Y5.1821
G01 X12.6630 Y5.1890
G01 X12.6349 Y5.2676
G01 X12.6327 Y5.2747
G01 X12.6116 Y5.3593
G01 X12.5983 Y5.4492
G01 X12.5938 Y5.5400
G01 X12.5980 Y5.6271
G01 X12.5987 Y5.6345
G01 X12.6110 Y5.7170
G01 X12.6124 Y5.7243
G01 X12.6336 Y5.8087
G01 X12.6636 Y5.8927
G01 X12.7032 Y5.9766
G01 X12.7499 Y6.0546
G01 X12.8040 Y6.1276
G01 X12.8651 Y6.1949
G01 X12.9324 Y6.2560
G01 X13.0054 Y6.3101
G01 X13.0834 Y6.3568
G01 X13.1656 Y6.3957
G01 X13.2511 Y6.4263
G01 X13.3393 Y6.4484
G01 X13.4292 Y6.4617
G01 X13.5200 Y6.4662
G01 X13.6108 Y6.4617
G01 X13.7007 Y6.4484
G01 X13.7887 Y6.4264
G01 X13.8727 Y6.3964
G01 X13.9533 Y6.3585
G01 X13.9599 Y6.3550
G01 X14.0346 Y6.3101
G01 X14.1046 Y6.2583
G01 X14.1104 Y6.2535
G01 X14.1749 Y6.1949
G01 X14.2335 Y6.1304
G01 X14.2383 Y6.1246
G01 X14.2901 Y6.0546
G01 X14.3350 Y5.9799
G01 X14.3385 Y5.9733
G01 X14.3757 Y5.8944
G01 X14.4051 Y5.8124
G01 X14.4073 Y5.8053
G01 X14.4284 Y5.7207
G01 X14.4413 Y5.6345
G01 X14.4420 Y5.6271
G01 X14.4462 Y5.5400
G01 X14.4420 Y5.4529
G01 X14.4413 Y5.4455
G01 X14.4284 Y5.3593
G01 X14.4073 Y5.2747
G01 X14.4052 Y5.2679
G01 X14.3757 Y5.1856
G01 X14.3385 Y5.1067
G01 X14.3350 Y5.1001
G01 X14.2901 Y5.0254
G01 X14.2383 Y4.9554
G01 X14.2335 Y4.9496
G01 X14.1749 Y4.8851
G01 X14.1104 Y4.8265
G01 X14.0965 Y4.8157
G01 X14.0965 Y3.7243
G01 X14.1104 Y3.7135
G01 X14.1722 Y3.6575
G01 X14.1775 Y3.6522
G01 X14.2360 Y3.5876
G01 X14.2901 Y3.5146
G01 X14.3368 Y3.4366
G01 X14.3742 Y3.3579
G01 X14.3770 Y3.3510
G01 X14.4063 Y3.2689
G01 X14.4284 Y3.1807
G01 X14.4413 Y3.0945
G01 X14.4420 Y3.0871
G01 X14.4462 Y3.0000
G01 X14.4417 Y2.9092
G01 X14.4290 Y2.8230
G01 X14.4276 Y2.8157
G01 X14.4058 Y2.7296
G01 X14.3757 Y2.6456
G01 X14.3385 Y2.5667
G01 X14.3350 Y2.5601
G01 X14.2921 Y2.4886
G01 X14.2880 Y2.4824
G01 X14.2360 Y2.4124
G01 X14.1749 Y2.3451
G01 X14.1076 Y2.2840
G01 X14.0376 Y2.2320
G01 X14.0314 Y2.2279
G01 X13.9599 Y2.1850
G01 X13.9533 Y2.1815
G01 X13.8744 Y2.1443
G01 X13.7889 Y2.1137
G01 X13.7007 Y2.0916
G01 X13.6145 Y2.0787
G01 X13.6071 Y2.0780
G01 X13.5200 Y2.0738
G01 X13.4329 Y2.0780
G01 X13.4255 Y2.0787
G01 X13.3393 Y2.0916
G01 X13.2547 Y2.1127
G01 X13.2479 Y2.1148
G01 X13.1656 Y2.1443
G01 X13.0834 Y2.1832
G01 X13.0054 Y2.2299
G01 X12.9354 Y2.2817
G01 X12.9296 Y2.2865
G01 X12.8651 Y2.3451
G01 X12.8065 Y2.4096
G01 X12.8017 Y2.4154
G01 X12.7520 Y2.4824
G01 X12.7479 Y2.4886
G01 X12.7032 Y2.5634
G01 X12.6658 Y2.6421
G01 X12.6630 Y2.6490
G01 X12.6349 Y2.7276
G01 X12.6327 Y2.7347
G01 X12.6116 Y2.8193
G01 X12.5987 Y2.9055
G01 X12.5980 Y2.9129
G01 X12.5938 Y3.0000
G01 X12.5983 Y3.0908
G01 X12.6116 Y3.1807
G01 X12.6327 Y3.2653
G01 X12.6349 Y3.2724
G01 X12.5683 Y3.2190
G01 X12.5878 Y3.1906
G01 X12.6087 Y3.1617
G01 X12.5496 Y3.0879
G01 X12.5705 Y3.0605
G01 X12.5952 Y3.0297
G01 X12.5464 Y2.9453
G01 X12.5625 Y2.9262
G01 X12.6023 Y2.8815
G01 X12.5670 Y2.7853
G01 X12.6009 Y2.7505
G01 X12.6404 Y2.7121
G00 Z2.0000
G00 X12.6375 Y3.2798
G01 F60.00
G01 Z-0.1500
G01 F120.00
G01 X12.6139 Y3.3161
G01 X12.6031 Y3.3337
G01 X12.6787 Y3.3852
G01 X12.6694 Y3.4003
G01 X12.6485 Y3.4363
G01 X12.7289 Y3.4798
G01 X12.7091 Y3.5157
G01 X12.7001 Y3.5330
G01 X12.7868 Y3.5645
G01 X12.7727 Y3.5916
G01 X12.7624 Y3.6127
G01 X12.8511 Y3.6396
G01 X12.8391 Y3.6640
G01 X12.8267 Y3.6911
G01 X12.9207 Y3.7055
G01 X12.9082 Y3.7327
G01 X12.8954 Y3.7626
G01 X12.8882 Y3.7807
G00 Z2.0000
G00 X12.9435 Y3.8976
G01 F60.00
G01 Z-0.1500
G01 F120.00
G01 X12.9307 Y3.9408
G01 X12.9229 Y3.9701
G01 X12.9159 Y3.9995
G01 X12.9097 Y4.0292
G01 X12.9041 Y4.0590
G01 X12.8993 Y4.0889
G01 X12.8957 Y4.1153
G01 X12.8957 Y4.4247
G01 X12.8993 Y4.4511
G01 X12.9041 Y4.4810
G01 X12.9097 Y4.5108
G01 X12.9159 Y4.5405
G01 X12.9229 Y4.5699
G01 X12.9307 Y4.5992
G01 X12.9435 Y4.6424
G01 X12.8855 Y4.7526
G01 X12.8954 Y4.7774
G01 X12.9082 Y4.8073
G01 X12.9207 Y4.8345
G01 X12.8267 Y4.8489
G01 X12.8391 Y4.8760
G01 X12.8511 Y4.9004
G01 X12.7624 Y4.9273
G01 X12.7727 Y4.9484
G01 X12.7868 Y4.9755
G01 X12.7060 Y4.9961
G01 X12.6155 Y5.1653
G01 X12.5598 Y5.3490
G01 X12.5410 Y5.5400
G01 X12.5598 Y5.7310
G01 X12.6155 Y5.9147
G01 X12.7060 Y6.0839
G01 X12.8277 Y6.2323
G01 X12.9761 Y6.3540
G01 X13.1453 Y6.4445
G01 X13.3290 Y6.5002
G01 X13.5200 Y6.5190
G01 X13.7110 Y6.5002
G01 X13.8947 Y6.4445
G01 X14.0639 Y6.3540
G01 X14.2123 Y6.2323
G01 X14.3340 Y6.0839
G01 X14.4245 Y5.9147
G01 X14.4802 Y5.7310
G01 X14.4990 Y5.5400
G01 X14.4802 Y5.3490
G01 X14.4245 Y5.1653
G01 X14.3340 Y4.9961
G01 X14.2123 Y4.8477
G01 X14.2042 Y4.8409
G01 X14.1968 Y4.8327
G01 X14.1925 Y4.8267
G01 X14.1585 Y4.7736
G01 X14.1550 Y4.7670
G01 X14.1528 Y4.7619
G01 X14.1494 Y4.7512
G01 X14.1481 Y4.7438
G01 X14.1449 Y4.7188
G01 X14.1443 Y4.7091
G01 X14.1443 Y3.8309
G01 X14.1445 Y3.8254
G01 X14.1454 Y3.8181
G01 X14.1480 Y3.8074
G01 X14.1675 Y3.7474
G01 X14.1712 Y3.7388
G01 X14.1748 Y3.7323
G01 X14.1791 Y3.7261
G01 X14.1840 Y3.7205
G01 X14.2026 Y3.7007
G01 X14.2123 Y3.6923
G01 X14.3340 Y3.5439
G01 X14.4245 Y3.3747
G01 X14.4802 Y3.1910
G01 X14.4990 Y3.0000
G01 X14.4802 Y2.8090
G01 X14.4245 Y2.6253
G01 X14.3340 Y2.4561
G01 X14.2123 Y2.3077
G01 X14.0639 Y2.1860
G01 X13.8947 Y2.0955
G01 X13.7110 Y2.0398
G01 X13.5200 Y2.0210
G01 X13.3290 Y2.0398
G01 X13.1453 Y2.0955
G01 X12.9761 Y2.1860
G01 X12.8277 Y2.3077
G01 X12.7060 Y2.4561
G01 X12.6155 Y2.6253
G01 X12.5598 Y2.8090
G01 X12.5410 Y3.0000
G01 X12.5598 Y3.1910
G01 X12.6155 Y3.3747
G01 X12.7060 Y3.5439
G01 X12.8277 Y3.6923
G01 X12.8358 Y3.6991
G01 X12.8432 Y3.7073
G01 X12.8475 Y3.7133
G01 X12.8815 Y3.7664
G01 X12.8842 Y3.7713
G01 X12.8873 Y3.7782
G01 X12.8906 Y3.7889
G01 X12.8919 Y3.7962
G01 X12.8951 Y3.8212
G01 X12.8957 Y3.8290
G01 X12.8957 Y4.7091
G01 X12.8955 Y4.7146
G01 X12.8946 Y4.7219
G01 X12.8920 Y4.7326
G01 X12.8725 Y4.7926
G01 X12.8680 Y4.8029
G01 X12.8631 Y4.8109
G01 X12.8573 Y4.8182
G01 X12.8387 Y4.8379
G01 X12.8346 Y4.8420
G01 X12.8277 Y4.8477
G01 X12.7060 Y4.9961
G00 Z2.0000
G00 X12.7001 Y5.0070
G01 F60.00
G01 Z-0.1500
G01 F120.00
G01 X12.7091 Y5.0243
G01 X12.7289 Y5.0602
G01 X12.6485 Y5.1037
G01 X12.6694 Y5.1397
G01 X12.6787 Y5.1548
G01 X12.6031 Y5.2063
G01 X12.6139 Y5.2239
G01 X12.6375 Y5.2602
G01 X12.5683 Y5.3210
G01 X12.5878 Y5.3494
G01 X12.6087 Y5.3783
G01 X12.5496 Y5.4521
G01 X12.5705 Y5.4795
G01 X12.5952 Y5.5103
G01 X12.5464 Y5.5947
G01 X12.5625 Y5.6138
G01 X12.6023 Y5.6585
G01 X12.5670 Y5.7547
G01 X12.6009 Y5.7895
G01 X12.6404 Y5.8279
G01 X12.6307 Y5.9430
G01 X12.6571 Y5.9664
G01 X12.6992 Y6.0018
G01 X12.7356 Y6.0310
G01 X12.7872 Y6.1828
G01 X12.8249 Y6.2088
G01 X12.8729 Y6.2400
G01 X12.9216 Y6.2700
G01 X12.9711 Y6.2988
G01 X13.0212 Y6.3264
G01 X13.0720 Y6.3527
G01 X13.1234 Y6.3779
G01 X13.1755 Y6.4017
G01 X13.2281 Y6.4242
G01 X13.2812 Y6.4455
G01 X13.3348 Y6.4654
G01 X13.3890 Y6.4840
G01 X13.4435 Y6.5013
G01 X13.4966 Y6.5167
G01 X13.6384 Y6.4577
G01 X13.6833 Y6.4672
G01 X13.7374 Y6.4773
G01 X13.7695 Y6.4825
G01 X13.8558 Y6.4025
G01 X13.9098 Y6.4085
G01 X13.9548 Y6.4124
G01 X14.0109 Y6.3244
G01 X14.0699 Y6.3268
G01 X14.0967 Y6.3271
G01 X14.1299 Y6.2358
G01 X14.1686 Y6.2354
G01 X14.2104 Y6.2338
G01 X14.2234 Y6.1416
G01 X14.2583 Y6.1394
G01 X14.2907 Y6.1366
G01 X14.2963 Y6.0444
G01 X14.3386 Y6.0397
G01 X14.3592 Y6.0369
G01 X14.3516 Y5.9456
G01 X14.3686 Y5.9433
G01 X14.4130 Y5.9361
G01 X14.3928 Y5.8468
G01 X14.4326 Y5.8395
G01 X14.4483 Y5.8361
G01 X14.4216 Y5.7483
G01 X14.4509 Y5.7421
G01 X14.4788 Y5.7355
G01 X14.4388 Y5.6510
G01 X14.4648 Y5.6448
G01 X14.4893 Y5.6384
G01 X14.4455 Y5.5554
G01 X14.4740 Y5.5479
G01 X14.4990 Y5.5406
G01 X14.4899 Y5.4477
G01 X14.4787 Y5.4513
G01 X14.4424 Y5.4616
G00 Z2.0000
G00 X14.4301 Y5.3702
G01 F60.00
G01 Z-0.1500
G01 F120.00
G01 X14.4522 Y5.3638
G01 X14.4808 Y5.3547
G01 X14.4553 Y5.2668
G01 X14.4256 Y5.2763
G01 X14.4089 Y5.2811
G00 Z2.0000
G00 X14.3790 Y5.1946
G01 F60.00
G01 Z-0.1500
G01 F120.00
G01 X14.3991 Y5.1888
G01 X14.4287 Y5.1792
G01 X14.3877 Y5.0965
G01 X14.3725 Y5.1013
G01 X14.3402 Y5.1103
G00 Z2.0000
G00 X14.2918 Y5.0281
G01 F60.00
G01 Z-0.1500
G01 F120.00
G01 X14.3092 Y5.0239
G01 X14.3438 Y5.0144
G01 X14.2846 Y4.9358
G01 X14.2542 Y4.9426
G01 X14.2310 Y4.9468
G01 X14.2191 Y4.8561
G01 X14.1931 Y4.8599
G01 X14.1786 Y4.8615
G01 X14.1513 Y4.8635
G01 X14.1574 Y4.7716
G01 X14.1327 Y4.7728
G01 X14.1204 Y4.7729
G01 X14.0965 Y4.7723
G01 X14.0965 Y4.6808
G01 X14.1204 Y4.6815
G01 X14.1443 Y4.6808
G01 X14.1443 Y4.5891
G01 X14.1204 Y4.5900
G01 X14.0965 Y4.5891
G01 X14.0965 Y4.4973
G01 X14.1092 Y4.4983
G01 X14.1204 Y4.4986
G01 X14.1316 Y4.4983
G01 X14.1443 Y4.4973
G01 X14.1443 Y4.4051
G01 X14.1338 Y4.4065
G01 X14.1204 Y4.4072
G01 X14.1069 Y4.4065
G01 X14.0965 Y4.4051
G01 X14.0965 Y4.3090
G01 X14.1018 Y4.3118
G01 X14.1082 Y4.3141
G01 X14.1148 Y4.3154
G01 X14.1204 Y4.3157
G01 X14.1260 Y4.3154
G01 X14.1326 Y4.3141
G01 X14.1389 Y4.3118
G01 X14.1443 Y4.3090
G01 X14.1443 Y4.2310
G01 X14.1389 Y4.2282
G01 X14.1326 Y4.2259
G01 X14.1260 Y4.2246
G01 X14.1204 Y4.2243
G01 X14.1148 Y4.2246
G01 X14.1082 Y4.2259
G01 X14.1018 Y4.2282
G01 X14.0965 Y4.2310
G01 X14.0965 Y4.1349
G01 X14.1069 Y4.1335
G01 X14.1204 Y4.1328
G01 X14.1338 Y4.1335
G01 X14.1443 Y4.1349
G01 X14.1443 Y4.0427
G01 X14.1316 Y4.0417
G01 X14.1204 Y4.0414
G01 X14.1092 Y4.0417
G01 X14.0965 Y4.0427
G01 X14.0965 Y3.9509
G01 X14.1204 Y3.9500
G01 X14.1443 Y3.9509
G01 X14.1443 Y3.8592
G01 X14.1204 Y3.8585
G01 X14.0965 Y3.8592
G01 X14.0965 Y3.7677
G01 X14.1204 Y3.7671
G01 X14.1327 Y3.7672
G01 X14.1606 Y3.7687
G01 X14.1513 Y3.6765
G01 X14.1786 Y3.6785
G01 X14.1931 Y3.6801
G01 X14.2191 Y3.6839
G01 X14.2310 Y3.5932
G01 X14.2542 Y3.5974
G01 X14.2846 Y3.6042
G00 Z2.0000
G00 X14.2918 Y3.5119
G01 F60.00
G01 Z-0.1500
G01 F120.00
G01 X14.3092 Y3.5161
G01 X14.3438 Y3.5256
G01 X14.3877 Y3.4435
G01 X14.3725 Y3.4387
G01 X14.3402 Y3.4297
G00 Z2.0000
G00 X14.3790 Y3.3454
G01 F60.00
G01 Z-0.1500
G01 F120.00
G01 X14.3991 Y3.3512
G01 X14.4287 Y3.3608
G01 X14.4553 Y3.2732
G01 X14.4256 Y3.2637
G01 X14.4089 Y3.2589
G00 Z2.0000
G00 X14.4301 Y3.1698
G01 F60.00
G01 Z-0.1500
G01 F120.00
G01 X14.4522 Y3.1762
G01 X14.4808 Y3.1853
G01 X14.4899 Y3.0923
G01 X14.4787 Y3.0887
G01 X14.4424 Y3.0784
G00 Z2.0000
G00 X14.4455 Y2.9846
G01 F60.00
G01 Z-0.1500
G01 F120.00
G01 X14.4740 Y2.9921
G01 X14.4990 Y2.9994
G01 X14.4893 Y2.9016
G01 X14.4648 Y2.8952
G01 X14.4388 Y2.8890
G01 X14.4788 Y2.8045
G01 X14.4509 Y2.7979
G01 X14.4216 Y2.7917
G01 X14.4483 Y2.7039
G01 X14.4326 Y2.7005
G01 X14.3928 Y2.6932
G01 X14.4130 Y2.6039
G01 X14.3686 Y2.5967
G01 X14.3516 Y2.5944
G01 X14.3592 Y2.5031
G01 X14.3386 Y2.5003
G01 X14.2963 Y2.4956
G01 X14.2907 Y2.4034
G01 X14.2583 Y2.4006
G01 X14.2234 Y2.3984
G01 X14.2104 Y2.3062
G01 X14.1686 Y2.3046
G01 X14.1299 Y2.3042
G01 X14.0967 Y2.2129
G01 X14.0699 Y2.2132
G01 X14.0109 Y2.2156
G01 X13.9548 Y2.1276
G01 X13.9098 Y2.1315
G01 X13.8558 Y2.1375
G01 X13.7695 Y2.0575
G01 X13.7374 Y2.0627
G01 X13.6833 Y2.0728
G01 X13.6384 Y2.0823
G01 X13.4966 Y2.0233
G01 X13.4435 Y2.0387
G01 X13.3890 Y2.0560
G01 X13.3348 Y2.0746
G01 X13.2812 Y2.0945
G01 X13.2281 Y2.1158
G01 X13.1755 Y2.1383
G01 X13.1234 Y2.1622
G01 X13.0720 Y2.1873
G01 X13.0212 Y2.2136
G01 X12.9711 Y2.2412
G01 X12.9216 Y2.2700
G01 X12.8729 Y2.3000
G01 X12.8249 Y2.3312
G01 X12.7872 Y2.3572
G01 X12.7356 Y2.5091
G01 X12.6992 Y2.5382
G01 X12.6571 Y2.5736
G01 X12.6307 Y2.5970
G00 Z2.0000
G00 X15.1707 Y2.5970
G01 F60.00
G01 Z-0.1500
G01 F120.00
G01 X15.1971 Y2.5736
G01 X15.2392 Y2.5382
G01 X15.2756 Y2.5091
G01 X15.3272 Y2.3572
G01 X15.3649 Y2.3312
G01 X15.4129 Y2.3000
G01 X15.4616 Y2.2700
G01 X15.5111 Y2.2412
G01 X15.5612 Y2.2136
G01 X15.6120 Y2.1873
G01 X15.6634 Y2.1622
G01 X15.7155 Y2.1383
G01 X15.7681 Y2.1158
G01 X15.8212 Y2.0945
G01 X15.8748 Y2.0746
G01 X15.9290 Y2.0560
G01 X15.9835 Y2.0387
G01 X16.0366 Y2.0233
G01 X16.1784 Y2.0823
G01 X16.2233 Y2.0728
G01 X16.2774 Y2.0627
G01 X16.3095 Y2.0575
G01 X16.3958 Y2.1375
G01 X16.4498 Y2.1315
G01 X16.4948 Y2.1276
G01 X16.5509 Y2.2156
G01 X16.6099 Y2.2132
G01 X16.6367 Y2.2129
G01 X16.6699 Y2.3042
G01 X16.7086 Y2.3046
G01 X16.7504 Y2.3062
G01 X16.7634 Y2.3984
G01 X16.7983 Y2.4006
G01 X16.8307 Y2.4034
G01 X16.8363 Y2.4956
G01 X16.8786 Y2.5003
G01 X16.8992 Y2.5031
G01 X16.8916 Y2.5944
G01 X16.9086 Y2.5967
G01 X16.9530 Y2.6039
G01 X16.9328 Y2.6932
G01 X16.9726 Y2.7005
G01 X16.9883 Y2.7039
G01 X16.9616 Y2.7917
G01 X16.9909 Y2.7979
G01 X17.0188 Y2.8045
G01 X16.9788 Y2.8890
G01 X17.0048 Y2.8952
G01 X17.0293 Y2.9016
G01 X17.0390 Y2.9994
G01 X17.0140 Y2.9921
G01 X16.9855 Y2.9846
G00 Z2.0000
G00 X15.1804 Y2.7121
G01 F60.00
G01 Z-0.1500
G01 F120.00
G01 X15.1409 Y2.7505
G01 X15.1070 Y2.7853
G01 X15.1423 Y2.8815
G01 X15.1359 Y2.8883
G01 X15.1025 Y2.9262
G01 X15.0864 Y2.9453
G01 X15.1352 Y3.0297
G01 X15.1105 Y3.0605
G01 X15.0896 Y3.0879
G01 X15.1487 Y3.1617
G01 X15.1278 Y3.1906
G01 X15.1083 Y3.2190
G01 X15.1749 Y3.2724
G01 X15.1727 Y3.2653
G01 X15.1516 Y3.1807
G01 X15.1383 Y3.0908
G01 X15.1338 Y3.0000
G01 X15.1380 Y2.9129
G01 X15.1387 Y2.9055
G01 X15.1516 Y2.8193
G01 X15.1727 Y2.7347
G01 X15.1749 Y2.7276
G01 X15.2030 Y2.6490
G01 X15.2058 Y2.6421
G01 X15.2432 Y2.5634
G01 X15.2879 Y2.4886
G01 X15.2920 Y2.4824
G01 X15.3417 Y2.4154
G01 X15.3465 Y2.4096
G01 X15.4051 Y2.3451
G01 X15.4696 Y2.2865
G01 X15.4754 Y2.2817
G01 X15.5454 Y2.2299
G01 X15.6234 Y2.1832
G01 X15.7056 Y2.1443
G01 X15.7879 Y2.1148
G01 X15.7947 Y2.1127
G01 X15.8793 Y2.0916
G01 X15.9655 Y2.0787
G01 X15.9729 Y2.0780
G01 X16.0600 Y2.0738
G01 X16.1471 Y2.0780
G01 X16.1545 Y2.0787
G01 X16.2407 Y2.0916
G01 X16.3289 Y2.1137
G01 X16.4144 Y2.1443
G01 X16.4933 Y2.1815
G01 X16.4999 Y2.1850
G01 X16.5714 Y2.2279
G01 X16.5776 Y2.2320
G01 X16.6476 Y2.2840
G01 X16.7149 Y2.3451
G01 X16.7760 Y2.4124
G01 X16.8280 Y2.4824
G01 X16.8321 Y2.4886
G01 X16.8750 Y2.5601
G01 X16.8785 Y2.5667
G01 X16.9157 Y2.6456
G01 X16.9458 Y2.7296
G01 X16.9676 Y2.8157
G01 X16.9690 Y2.8230
G01 X16.9817 Y2.9092
G01 X16.9862 Y3.0000
G01 X16.9820 Y3.0871
G01 X16.9813 Y3.0945
G01 X16.9684 Y3.1807
G01 X16.9463 Y3.2689
G01 X16.9170 Y3.3510
G01 X16.9142 Y3.3579
G01 X16.8768 Y3.4366
G01 X16.8301 Y3.5146
G01 X16.7760 Y3.5876
G01 X16.7175 Y3.6522
G01 X16.7122 Y3.6575
G01 X16.6504 Y3.7135
G01 X16.6365 Y3.7243
G01 X16.6365 Y4.8157
G01 X16.6504 Y4.8265
G01 X16.7149 Y4.8851
G01 X16.7735 Y4.9496
G01 X16.7783 Y4.9554
G01 X16.8301 Y5.0254
G01 X16.8750 Y5.1001
G01 X16.8785 Y5.1067
G01 X16.9157 Y5.1856
G01 X16.9452 Y5.2679
G01 X16.9473 Y5.2747
G01 X16.9684 Y5.3593
G01 X16.9813 Y5.4455
G01 X16.9820 Y5.4529
G01 X16.9862 Y5.5400
G01 X16.9820 Y5.6271
G01 X16.9813 Y5.6345
G01 X16.9684 Y5.7207
G01 X16.9473 Y5.8053
G01 X16.9451 Y5.8124
G01 X16.9157 Y5.8944
G01 X16.8785 Y5.9733
G01 X16.8750 Y5.9799
G01 X16.8301 Y6.0546
G01 X16.7783 Y6.1246
G01 X16.7735 Y6.1304
G01 X16.7149 Y6.1949
G01 X16.6504 Y6.2535
G01 X16.6446 Y6.2583
G01 X16.5746 Y6.3101
G01 X16.4999 Y6.3550
G01 X16.4933 Y6.3585
G01 X16.4127 Y6.3964
G01 X16.3287 Y6.4264
G01 X16.2407 Y6.4484
G01 X16.1508 Y6.4617
G01 X16.0600 Y6.4662
G01 X15.9692 Y6.4617
G01 X15.8793 Y6.4484
G01 X15.7911 Y6.4263
G01 X15.7056 Y6.3957
G01 X15.6234 Y6.3568
G01 X15.5454 Y6.3101
G01 X15.4724 Y6.2560
G01 X15.4051 Y6.1949
G01 X15.3440 Y6.1276
G01 X15.2899 Y6.0546
G01 X15.2432 Y5.9766
G01 X15.2036 Y5.8927
G01 X15.1736 Y5.8087
G01 X15.1524 Y5.7243
G01 X15.1510 Y5.7170
G01 X15.1387 Y5.6345
G01 X15.1380 Y5.6271
G01 X15.1338 Y5.5400
G01 X15.1383 Y5.4492
G01 X15.1516 Y5.3593
G01 X15.1727 Y5.2747
G01 X15.1749 Y5.2676
G01 X15.2030 Y5.1890
G01 X15.2058 Y5.1821
G01 X15.2432 Y5.1034
G01 X15.2899 Y5.0254
G01 X15.3440 Y4.9524
G01 X15.4025 Y4.8878
G01 X15.4078 Y4.8825
G01 X15.4696 Y4.8265
G01 X15.4835 Y4.8157
G01 X15.4835 Y3.7243
G01 X15.4696 Y3.7135
G01 X15.4078 Y3.6575
G01 X15.4025 Y3.6522
G01 X15.3440 Y3.5876
G01 X15.2899 Y3.5146
G01 X15.2450 Y3.4399
G01 X15.2415 Y3.4333
G01 X15.2043 Y3.3544
G01 X15.1749 Y3.2724
G00 Z2.0000
G00 X15.1775 Y3.2798
G01 F60.00
G01 Z-0.1500
G01 F120.00
G01 X15.1539 Y3.3161
G01 X15.1431 Y3.3337
G01 X15.2187 Y3.3852
G01 X15.2094 Y3.4003
G01 X15.1885 Y3.4363
G01 X15.2689 Y3.4798
G01 X15.2491 Y3.5157
G01 X15.2401 Y3.5330
G01 X15.3268 Y3.5645
G01 X15.3127 Y3.5916
G01 X15.3024 Y3.6127
G01 X15.3911 Y3.6396
G01 X15.3791 Y3.6640
G01 X15.3667 Y3.6911
G01 X15.4607 Y3.7055
G01 X15.4482 Y3.7327
G01 X15.4354 Y3.7626
G01 X15.4282 Y3.7807
G00 Z2.0000
G00 X15.4835 Y3.8976
G01 F60.00
G01 Z-0.1500
G01 F120.00
G01 X15.4707 Y3.9408
G01 X15.4629 Y3.9701
G01 X15.4559 Y3.9995
G01 X15.4497 Y4.0292
G01 X15.4441 Y4.0590
G01 X15.4393 Y4.0889
G01 X15.4357 Y4.1153
G01 X15.4357 Y4.4247
G01 X15.4393 Y4.4511
G01 X15.4441 Y4.4810
G01 X15.4497 Y4.5108
G01 X15.4559 Y4.5405
G01 X15.4629 Y4.5699
G01 X15.4707 Y4.5992
G01 X15.4835 Y4.6424
G01 X15.4255 Y4.7526
G01 X15.4354 Y4.7774
G01 X15.4482 Y4.8073
G01 X15.4607 Y4.8345
G01 X15.3667 Y4.8489
G01 X15.3791 Y4.8760
G01 X15.3911 Y4.9004
G01 X15.3024 Y4.9273
G01 X15.3127 Y4.9484
G01 X15.3268 Y4.9755
G01 X15.2460 Y4.9961
G01 X15.1555 Y5.1653
G01 X15.0998 Y5.3490
G01 X15.0810 Y5.5400
G01 X15.0998 Y5.7310
G01 X15.1555 Y5.9147
G01 X15.2460 Y6.0839
G01 X15.3677 Y6.2323
G01 X15.5161 Y6.3540
G01 X15.6853 Y6.4445
G01 X15.8690 Y6.5002
G01 X16.0600 Y6.5190
G01 X16.2510 Y6.5002
G01 X16.4347 Y6.4445
G01 X16.6039 Y6.3540
G01 X16.7523 Y6.2323
G01 X16.8740 Y6.0839
G01 X16.9645 Y5.9147
G01 X17.0202 Y5.7310
G01 X17.0390 Y5.5400
G01 X17.0202 Y5.3490
G01 X16.9645 Y5.1653
G01 X16.8740 Y4.9961
G01 X16.7523 Y4.8477
G01 X16.7442 Y4.8409
G01 X16.7368 Y4.8327
G01 X16.7325 Y4.8267
G01 X16.6985 Y4.7736
G01 X16.6935 Y4.7636
G01 X16.6909 Y4.7566
G01 X16.6894 Y4.7512
G01 X16.6881 Y4.7438
G01 X16.6849 Y4.7188
G01 X16.6843 Y4.7091
G01 X16.6843 Y3.8309
G01 X16.6845 Y3.8254
G01 X16.6854 Y3.8181
G01 X16.6880 Y3.8074
G01 X16.7075 Y3.7474
G01 X16.7112 Y3.7388
G01 X16.7148 Y3.7323
G01 X16.7191 Y3.7261
G01 X16.7240 Y3.7205
G01 X16.7426 Y3.7007
G01 X16.7523 Y3.6923
G01 X16.8740 Y3.5439
G01 X16.9645 Y3.3747
G01 X17.0202 Y3.1910
G01 X17.0390 Y3.0000
G01 X17.0202 Y2.8090
G01 X16.9645 Y2.6253
G01 X16.8740 Y2.4561
G01 X16.7523 Y2.3077
G01 X16.6039 Y2.1860
G01 X16.4347 Y2.0955
G01 X16.2510 Y2.0398
G01 X16.0600 Y2.0210
G01 X15.8690 Y2.0398
G01 X15.6853 Y2.0955
G01 X15.5161 Y2.1860
G01 X15.3677 Y2.3077
G01 X15.2460 Y2.4561
G01 X15.1555 Y2.6253
G01 X15.0998 Y2.8090
G01 X15.0810 Y3.0000
G01 X15.0998 Y3.1910
G01 X15.1555 Y3.3747
G01 X15.2460 Y3.5439
G01 X15.3677 Y3.6923
G01 X15.3771 Y3.7004
G01 X15.3843 Y3.7088
G01 X15.4224 Y3.7680
G01 X15.4273 Y3.7782
G01 X15.4306 Y3.7889
G01 X15.4319 Y3.7962
G01 X15.4351 Y3.8212
G01 X15.4357 Y3.8309
G01 X15.4357 Y4.7109
G01 X15.4346 Y4.7219
G01 X15.4320 Y4.7326
G01 X15.4125 Y4.7926
G01 X15.4088 Y4.8012
G01 X15.4042 Y4.8093
G01 X15.3973 Y4.8182
G01 X15.3787 Y4.8379
G01 X15.3746 Y4.8420
G01 X15.3677 Y4.8477
G01 X15.2460 Y4.9961
G01 X15.2401 Y5.0070
G01 X15.2491 Y5.0243
G01 X15.2689 Y5.0602
G01 X15.1885 Y5.1037
G01 X15.1885 Y5.1038
G01 X15.2094 Y5.1397
G01 X15.2187 Y5.1548
G01 X15.1431 Y5.2063
G01 X15.1539 Y5.2239
G01 X15.1775 Y5.2602
G01 X15.1083 Y5.3210
G01 X15.1278 Y5.3494
G01 X15.1487 Y5.3783
G01 X15.0896 Y5.4521
G01 X15.1105 Y5.4795
G01 X15.1352 Y5.5103
G01 X15.0864 Y5.5947
G01 X15.1025 Y5.6138
G01 X15.1423 Y5.6585
G01 X15.1070 Y5.7547
G01 X15.1409 Y5.7895
G01 X15.1804 Y5.8279
G01 X15.1707 Y5.9430
G01 X15.1971 Y5.9664
G01 X15.2392 Y6.0018
G01 X15.2756 Y6.0310
G01 X15.3272 Y6.1828
G01 X15.3649 Y6.2088
G01 X15.4129 Y6.2400
G01 X15.4616 Y6.2700
G01 X15.5111 Y6.2988
G01 X15.5612 Y6.3264
G01 X15.6120 Y6.3527
G01 X15.6634 Y6.3779
G01 X15.7155 Y6.4017
G01 X15.7681 Y6.4242
G01 X15.8212 Y6.4455
G01 X15.8748 Y6.4654
G01 X15.9290 Y6.4840
G01 X15.9835 Y6.5013
G01 X16.0366 Y6.5167
G01 X16.1784 Y6.4577
G01 X16.2233 Y6.4672
G01 X16.2774 Y6.4773
G01 X16.3095 Y6.4825
G01 X16.3958 Y6.4025
G01 X16.4498 Y6.4085
G01 X16.4948 Y6.4124
G01 X16.5509 Y6.3244
G01 X16.6099 Y6.3268
G01 X16.6367 Y6.3271
G01 X16.6699 Y6.2358
G01 X16.7086 Y6.2354
G01 X16.7504 Y6.2338
G01 X16.7634 Y6.1416
G01 X16.7983 Y6.1394
G01 X16.8307 Y6.1366
G01 X16.8363 Y6.0444
G01 X16.8786 Y6.0397
G01 X16.8992 Y6.0369
G01 X16.8916 Y5.9456
G01 X16.9086 Y5.9433
G01 X16.9530 Y5.9361
G01 X16.9328 Y5.8468
G01 X16.9726 Y5.8395
G01 X16.9883 Y5.8361
G01 X16.9616 Y5.7483
G01 X16.9909 Y5.7421
G01 X17.0188 Y5.7355
G01 X16.9788 Y5.6510
G01 X17.0048 Y5.6448
G01 X17.0293 Y5.6384
G01 X16.9855 Y5.5554
G01 X17.0140 Y5.5479
G01 X17.0390 Y5.5406
G01 X17.0299 Y5.4477
G01 X17.0187 Y5.4513
G01 X16.9824 Y5.4616
G00 Z2.0000
G00 X16.9701 Y5.3702
G01 F60.00
G01 Z-0.1500
G01 F120.00
G01 X16.9922 Y5.3638
G01 X17.0208 Y5.3547
G01 X16.9953 Y5.2668
G01 X16.9656 Y5.2763
G01 X16.9489 Y5.2811
G00 Z2.0000
G00 X16.9190 Y5.1946
G01 F60.00
G01 Z-0.1500
G01 F120.00
G01 X16.9391 Y5.1888
G01 X16.9687 Y5.1792
G01 X16.9277 Y5.0965
G01 X16.9125 Y5.1013
G01 X16.8802 Y5.1103
G00 Z2.0000
G00 X16.8318 Y5.0281
G01 F60.00
G01 Z-0.1500
G01 F120.00
G01 X16.8492 Y5.0239
G01 X16.8838 Y5.0144
G01 X16.8246 Y4.9358
G01 X16.7942 Y4.9426
G01 X16.7710 Y4.9468
G01 X16.7591 Y4.8561
G01 X16.7331 Y4.8599
G01 X16.7186 Y4.8615
G01 X16.6913 Y4.8635
G01 X16.6974 Y4.7716
G01 X16.6727 Y4.7728
G01 X16.6604 Y4.7729
G01 X16.6365 Y4.7723
G01 X16.6365 Y4.6808
G01 X16.6604 Y4.6815
G01 X16.6843 Y4.6808
G01 X16.6843 Y4.5891
G01 X16.6604 Y4.5900
G01 X16.6365 Y4.5891
G01 X16.6365 Y4.4973
G01 X16.6492 Y4.4983
G01 X16.6604 Y4.4986
G01 X16.6716 Y4.4983
G01 X16.6843 Y4.4973
G01 X16.6843 Y4.4051
G01 X16.6738 Y4.4065
G01 X16.6604 Y4.4072
G01 X16.6469 Y4.4065
G01 X16.6365 Y4.4051
G01 X16.6365 Y4.3090
G01 X16.6418 Y4.3118
G01 X16.6482 Y4.3141
G01 X16.6548 Y4.3154
G01 X16.6604 Y4.3157
G01 X16.6660 Y4.3154
G01 X16.6726 Y4.3141
G01 X16.6789 Y4.3118
G01 X16.6843 Y4.3090
G01 X16.6843 Y4.2310
G01 X16.6789 Y4.2282
G01 X16.6726 Y4.2259
G01 X16.6660 Y4.2246
G01 X16.6604 Y4.2243
G01 X16.6548 Y4.2246
G01 X16.6482 Y4.2259
G01 X16.6418 Y4.2282
G01 X16.6365 Y4.2310
G01 X16.6365 Y4.1349
G01 X16.6469 Y4.1335
G01 X16.6604 Y4.1328
G01 X16.6738 Y4.1335
G01 X16.6843 Y4.1349
G01 X16.6843 Y4.0427
G01 X16.6716 Y4.0417
G01 X16.6604 Y4.0414
G01 X16.6492 Y4.0417
G01 X16.6365 Y4.0427
G01 X16.6365 Y3.9509
G01 X16.6604 Y3.9500
G01 X16.6843 Y3.9509
G01 X16.6843 Y3.8592
G01 X16.6604 Y3.8585
G01 X16.6365 Y3.8592
G01 X16.6365 Y3.7677
G01 X16.6604 Y3.7671
G01 X16.6727 Y3.7672
G01 X16.7006 Y3.7687
G01 X16.6913 Y3.6765
G01 X16.7186 Y3.6785
G01 X16.7331 Y3.6801
G01 X16.7591 Y3.6839
G01 X16.7710 Y3.5932
G01 X16.7942 Y3.5974
G01 X16.8246 Y3.6042
G00 Z2.0000
G00 X16.8318 Y3.5119
G01 F60.00
G01 Z-0.1500
G01 F120.00
G01 X16.8492 Y3.5161
G01 X16.8838 Y3.5256
G01 X16.9277 Y3.4435
G01 X16.9125 Y3.4387
G01 X16.8802 Y3.4297
G00 Z2.0000
G00 X16.9190 Y3.3454
G01 F60.00
G01 Z-0.1500
G01 F120.00
G01 X16.9391 Y3.3512
G01 X16.9687 Y3.3608
G01 X16.9953 Y3.2732
G01 X16.9656 Y3.2637
G01 X16.9489 Y3.2589
G00 Z2.0000
G00 X16.9701 Y3.1698
G01 F60.00
G01 Z-0.1500
G01 F120.00
G01 X16.9922 Y3.1762
G01 X17.0208 Y3.1853
G01 X17.0299 Y3.0923
G01 X17.0187 Y3.0887
G01 X16.9824 Y3.0784
G00 Z2.0000
G00 X17.7149 Y3.2724
G01 F60.00
G01 Z-0.1500
G01 F120.00
G01 X17.7443 Y3.3544
G01 X17.7815 Y3.4333
G01 X17.7850 Y3.4399
G01 X17.8299 Y3.5146
G01 X17.8840 Y3.5876
G01 X17.9425 Y3.6522
G01 X17.9478 Y3.6575
G01 X18.0096 Y3.7135
G01 X18.0235 Y3.7243
G01 X18.0235 Y4.8157
G01 X18.0096 Y4.8265
G01 X17.9478 Y4.8825
G01 X17.9425 Y4.8878
G01 X17.8840 Y4.9524
G01 X17.8299 Y5.0254
G01 X17.7832 Y5.1034
G01 X17.7458 Y5.1821
G01 X17.7430 Y5.1890
G01 X17.7149 Y5.2676
G01 X17.7127 Y5.2747
G01 X17.6916 Y5.3593
G01 X17.6783 Y5.4492
G01 X17.6738 Y5.5400
G01 X17.6780 Y5.6271
G01 X17.6787 Y5.6345
G01 X17.6910 Y5.7170
G01 X17.6924 Y5.7243
G01 X17.7136 Y5.8087
G01 X17.7436 Y5.8927
G01 X17.7832 Y5.9766
G01 X17.8299 Y6.0546
G01 X17.8840 Y6.1276
G01 X17.9451 Y6.1949
G01 X18.0124 Y6.2560
G01 X18.0854 Y6.3101
G01 X18.1634 Y6.3568
G01 X18.2456 Y6.3957
G01 X18.3311 Y6.4263
G01 X18.4193 Y6.4484
G01 X18.5092 Y6.4617
G01 X18.6000 Y6.4662
G01 X18.6908 Y6.4617
G01 X18.7807 Y6.4484
G01 X18.8687 Y6.4264
G01 X18.9527 Y6.3964
G01 X19.0333 Y6.3585
G01 X19.0399 Y6.3550
G01 X19.1146 Y6.3101
G01 X19.1846 Y6.2583
G01 X19.1904 Y6.2535
G01 X19.2549 Y6.1949
G01 X19.3135 Y6.1304
G01 X19.3183 Y6.1246
G01 X19.3701 Y6.0546
G01 X19.4150 Y5.9799
G01 X19.4185 Y5.9733
G01 X19.4557 Y5.8944
G01 X19.4851 Y5.8124
G01 X19.4873 Y5.8053
G01 X19.5084 Y5.7207
G01 X19.5213 Y5.6345
G01 X19.5220 Y5.6271
G01 X19.5262 Y5.5400
G01 X19.5220 Y5.4529
G01 X19.5213 Y5.4455
G01 X19.5084 Y5.3593
G01 X19.4873 Y5.2747
G01 X19.4852 Y5.2679
G01 X19.4557 Y5.1856
G01 X19.4185 Y5.1067
G01 X19.4150 Y5.1001
G01 X19.3701 Y5.0254
G01 X19.3183 Y4.9554
G01 X19.3135 Y4.9496
G01 X19.2549 Y4.8851
G01 X19.1904 Y4.8265
G01 X19.1765 Y4.8157
G01 X19.1765 Y3.7243
G01 X19.1904 Y3.7135
G01 X19.2522 Y3.6575
G01 X19.2575 Y3.6522
G01 X19.3160 Y3.5876
G01 X19.3701 Y3.5146
G01 X19.4168 Y3.4366
G01 X19.4542 Y3.3579
G01 X19.4570 Y3.3510
G01 X19.4863 Y3.2689
G01 X19.5084 Y3.1807
G01 X19.5213 Y3.0945
G01 X19.5220 Y3.0871
G01 X19.5262 Y3.0000
G01 X19.5217 Y2.9092
G01 X19.5090 Y2.8230
G01 X19.5076 Y2.8157
G01 X19.4858 Y2.7296
G01 X19.4557 Y2.6456
G01 X19.4185 Y2.5667
G01 X19.4150 Y2.5601
G01 X19.3721 Y2.4886
G01 X19.3680 Y2.4824
G01 X19.3160 Y2.4124
G01 X19.2549 Y2.3451
G01 X19.1876 Y2.2840
G01 X19.1176 Y2.2320
G01 X19.1114 Y2.2279
G01 X19.0399 Y2.1850
G01 X19.0333 Y2.1815
G01 X18.9544 Y2.1443
G01 X18.8689 Y2.1137
G01 X18.7807 Y2.0916
G01 X18.6945 Y2.0787
G01 X18.6871 Y2.0780
G01 X18.6000 Y2.0738
G01 X18.5129 Y2.0780
G01 X18.5055 Y2.0787
G01 X18.4193 Y2.0916
G01 X18.3347 Y2.1127
G01 X18.3279 Y2.1148
G01 X18.2456 Y2.1443
G01 X18.1634 Y2.1832
G01 X18.0854 Y2.2299
G01 X18.0154 Y2.2817
G01 X18.0096 Y2.2865
G01 X17.9451 Y2.3451
G01 X17.8865 Y2.4096
G01 X17.8817 Y2.4154
G01 X17.8320 Y2.4824
G01 X17.8279 Y2.4886
G01 X17.7832 Y2.5634
G01 X17.7458 Y2.6421
G01 X17.7430 Y2.6490
G01 X17.7149 Y2.7276
G01 X17.7127 Y2.7347
G01 X17.6916 Y2.8193
G01 X17.6787 Y2.9055
G01 X17.6780 Y2.9129
G01 X17.6738 Y3.0000
G01 X17.6783 Y3.0908
G01 X17.6916 Y3.1807
G01 X17.7127 Y3.2653
G01 X17.7149 Y3.2724
G01 X17.6483 Y3.2190
G01 X17.6678 Y3.1906
G01 X17.6887 Y3.1617
G01 X17.6296 Y3.0879
G01 X17.6505 Y3.0605
G01 X17.6752 Y3.0297
G01 X17.6264 Y2.9453
G01 X17.6425 Y2.9262
G01 X17.6823 Y2.8815
G01 X17.6470 Y2.7853
G01 X17.6809 Y2.7505
G01 X17.7204 Y2.7121
G00 Z2.0000
G00 X17.7175 Y3.2798
G01 F60.00
G01 Z-0.1500
G01 F120.00
G01 X17.6939 Y3.3161
G01 X17.6831 Y3.3337
G01 X17.7587 Y3.3852
G01 X17.7494 Y3.4003
G01 X17.7285 Y3.4363
G01 X17.8089 Y3.4798
G01 X17.7891 Y3.5157
G01 X17.7801 Y3.5330
G01 X17.8668 Y3.5645
G01 X17.8527 Y3.5916
G01 X17.8424 Y3.6127
G01 X17.9311 Y3.6396
G01 X17.9191 Y3.6640
G01 X17.9067 Y3.6911
G01 X18.0007 Y3.7055
G01 X17.9882 Y3.7327
G01 X17.9754 Y3.7626
G01 X17.9682 Y3.7807
G00 Z2.0000
G00 X18.0235 Y3.8976
G01 F60.00
G01 Z-0.1500
G01 F120.00
G01 X18.0107 Y3.9408
G01 X18.0029 Y3.9701
G01 X17.9959 Y3.9995
G01 X17.9897 Y4.0292
G01 X17.9841 Y4.0590
G01 X17.9793 Y4.0889
G01 X17.9757 Y4.1153
G01 X17.9757 Y4.4247
G01 X17.9793 Y4.4511
G01 X17.9841 Y4.4810
G01 X17.9897 Y4.5108
G01 X17.9959 Y4.5405
G01 X18.0029 Y4.5699
G01 X18.0107 Y4.5992
G01 X18.0235 Y4.6424
G01 X17.9655 Y4.7526
G01 X17.9754 Y4.7774
G01 X17.9882 Y4.8073
G01 X18.0007 Y4.8345
G01 X17.9067 Y4.8489
G01 X17.9191 Y4.8760
G01 X17.9311 Y4.9004
G01 X17.8424 Y4.9273
G01 X17.8527 Y4.9484
G01 X17.8668 Y4.9755
G01 X17.7860 Y4.9961
G01 X17.6955 Y5.1653
G01 X17.6398 Y5.3490
G01 X17.6210 Y5.5400
G01 X17.6398 Y5.7310
G01 X17.6955 Y5.9147
G01 X17.7860 Y6.0839
G01 X17.9077 Y6.2323
G01 X18.0561 Y6.3540
G01 X18.2253 Y6.4445
G01 X18.4090 Y6.5002
G01 X18.6000 Y6.5190
G01 X18.7910 Y6.5002
G01 X18.9747 Y6.4445
G01 X19.1439 Y6.3540
G01 X19.2923 Y6.2323
G01 X19.4140 Y6.0839
G01 X19.5045 Y5.9147
G01 X19.5602 Y5.7310
G01 X19.5790 Y5.5400
G01 X19.5602 Y5.3490
G01 X19.5045 Y5.1653
G01 X19.4140 Y4.9961
G01 X19.2923 Y4.8477
G01 X19.2842 Y4.8409
G01 X19.2768 Y4.8327
G01 X19.2725 Y4.8267
G01 X19.2385 Y4.7736
G01 X19.2335 Y4.7636
G01 X19.2309 Y4.7566
G01 X19.2294 Y4.7512
G01 X19.2281 Y4.7438
G01 X19.2249 Y4.7188
G01 X19.2243 Y4.7091
G01 X19.2243 Y3.8309
G01 X19.2245 Y3.8254
G01 X19.2254 Y3.8181
G01 X19.2280 Y3.8074
G01 X19.2475 Y3.7474
G01 X19.2512 Y3.7388
G01 X19.2548 Y3.7323
G01 X19.2591 Y3.7261
G01 X19.2640 Y3.7205
G01 X19.2826 Y3.7007
G01 X19.2923 Y3.6923
G01 X19.4140 Y3.5439
G01 X19.5045 Y3.3747
G01 X19.5602 Y3.1910
G01 X19.5790 Y3.0000
G01 X19.5602 Y2.8090
G01 X19.5045 Y2.6253
G01 X19.4140 Y2.4561
G01 X19.2923 Y2.3077
G01 X19.1439 Y2.1860
G01 X18.9747 Y2.0955
G01 X18.7910 Y2.0398
G01 X18.6000 Y2.0210
G01 X18.4090 Y2.0398
G01 X18.2253 Y2.0955
G01 X18.0561 Y2.1860
G01 X17.9077 Y2.3077
G01 X17.7860 Y2.4561
G01 X17.6955 Y2.6253
G01 X17.6398 Y2.8090
G01 X17.6210 Y3.0000
G01 X17.6398 Y3.1910
G01 X17.6955 Y3.3747
G01 X17.7860 Y3.5439
G01 X17.9077 Y3.6923
G01 X17.9171 Y3.7004
G01 X17.9243 Y3.7088
G01 X17.9624 Y3.7680
G01 X17.9673 Y3.7782
G01 X17.9706 Y3.7889
G01 X17.9719 Y3.7962
G01 X17.9751 Y3.8212
G01 X17.9757 Y3.8309
G01 X17.9757 Y4.7109
G01 X17.9746 Y4.7219
G01 X17.9720 Y4.7326
G01 X17.9525 Y4.7926
G01 X17.9488 Y4.8012
G01 X17.9442 Y4.8093
G01 X17.9373 Y4.8182
G01 X17.9187 Y4.8379
G01 X17.9146 Y4.8420
G01 X17.9077 Y4.8477
G01 X17.7860 Y4.9961
G01 X17.7801 Y5.0070
G01 X17.7891 Y5.0243
G01 X17.8089 Y5.0602
G01 X17.7285 Y5.1037
G01 X17.7494 Y5.1397
G01 X17.7587 Y5.1548
G01 X17.6831 Y5.2063
G01 X17.6939 Y5.2239
G01 X17.7175 Y5.2602
G01 X17.6483 Y5.3210
G01 X17.6678 Y5.3494
G01 X17.6887 Y5.3783
G01 X17.6296 Y5.4521
G01 X17.6505 Y5.4795
G01 X17.6752 Y5.5103
G01 X17.6264 Y5.5947
G01 X17.6425 Y5.6138
G01 X17.6823 Y5.6585
G01 X17.6470 Y5.7547
G01 X17.6809 Y5.7895
G01 X17.7204 Y5.8279
G01 X17.7107 Y5.9430
G01 X17.7371 Y5.9664
G01 X17.7792 Y6.0018
G01 X17.8156 Y6.0310
G01 X17.8672 Y6.1828
G01 X17.9049 Y6.2088
G01 X17.9529 Y6.2400
G01 X18.0016 Y6.2700
G01 X18.0511 Y6.2988
G01 X18.1012 Y6.3264
G01 X18.1520 Y6.3527
G01 X18.2034 Y6.3779
G01 X18.2555 Y6.4017
G01 X18.3081 Y6.4242
G01 X18.3612 Y6.4455
G01 X18.4148 Y6.4654
G01 X18.4690 Y6.4840
G01 X18.5235 Y6.5013
G01 X18.5766 Y6.5167
G01 X18.7184 Y6.4577
G01 X18.7633 Y6.4672
G01 X18.8174 Y6.4773
G01 X18.8495 Y6.4825
G01 X18.9358 Y6.4025
G01 X18.9898 Y6.4085
G01 X19.0348 Y6.4124
G01 X19.0909 Y6.3244
G01 X19.1499 Y6.3268
G01 X19.1767 Y6.3271
G01 X19.2099 Y6.2358
G01 X19.2486 Y6.2354
G01 X19.2904 Y6.2338
G01 X19.3034 Y6.1416
G01 X19.3383 Y6.1394
G01 X19.3707 Y6.1366
G01 X19.3763 Y6.0444
G01 X19.4186 Y6.0397
G01 X19.4392 Y6.0369
G01 X19.4316 Y5.9456
G01 X19.4486 Y5.9433
G01 X19.4930 Y5.9361
G01 X19.4728 Y5.8468
G01 X19.5126 Y5.8395
G01 X19.5283 Y5.8361
G01 X19.5016 Y5.7483
G01 X19.5309 Y5.7421
G01 X19.5588 Y5.7355
G01 X19.5188 Y5.6510
G01 X19.5448 Y5.6448
G01 X19.5693 Y5.6384
G01 X19.5255 Y5.5554
G01 X19.5540 Y5.5479
G01 X19.5790 Y5.5406
G01 X19.5699 Y5.4477
G01 X19.5587 Y5.4513
G01 X19.5224 Y5.4616
G00 Z2.0000
G00 X19.5101 Y5.3702
G01 F60.00
G01 Z-0.1500
G01 F120.00
G01 X19.5322 Y5.3638
G01 X19.5608 Y5.3547
G01 X19.5353 Y5.2668
G01 X19.5056 Y5.2763
G01 X19.4889 Y5.2811
G00 Z2.0000
G00 X19.4590 Y5.1946
G01 F60.00
G01 Z-0.1500
G01 F120.00
G01 X19.4791 Y5.1888
G01 X19.5087 Y5.1792
G01 X19.4677 Y5.0965
G01 X19.4525 Y5.1013
G01 X19.4202 Y5.1103
G00 Z2.0000
G00 X19.3718 Y5.0281
G01 F60.00
G01 Z-0.1500
G01 F120.00
G01 X19.3892 Y5.0239
G01 X19.4238 Y5.0144
G01 X19.3646 Y4.9358
G01 X19.3342 Y4.9426
G01 X19.3110 Y4.9468
G01 X19.2991 Y4.8561
G01 X19.2731 Y4.8599
G01 X19.2586 Y4.8615
G01 X19.2313 Y4.8635
G01 X19.2374 Y4.7716
G01 X19.2127 Y4.7728
G01 X19.2004 Y4.7729
G01 X19.1765 Y4.7723
G01 X19.1765 Y4.6808
G01 X19.2004 Y4.6815
G01 X19.2243 Y4.6808
G01 X19.2243 Y4.5891
G01 X19.2004 Y4.5900
G01 X19.1765 Y4.5891
G01 X19.1765 Y4.4973
G01 X19.1892 Y4.4983
G01 X19.2004 Y4.4986
G01 X19.2116 Y4.4983
G01 X19.2243 Y4.4973
G01 X19.2243 Y4.4051
G01 X19.2138 Y4.4065
G01 X19.2004 Y4.4072
G01 X19.1869 Y4.4065
G01 X19.1765 Y4.4051
G01 X19.1765 Y4.3090
G01 X19.1818 Y4.3118
G01 X19.1882 Y4.3141
G01 X19.1948 Y4.3154
G01 X19.2004 Y4.3157
G01 X19.2060 Y4.3154
G01 X19.2126 Y4.3141
G01 X19.2189 Y4.3118
G01 X19.2243 Y4.3090
G01 X19.2243 Y4.2310
G01 X19.2189 Y4.2282
G01 X19.2126 Y4.2259
G01 X19.2060 Y4.2246
G01 X19.2004 Y4.2243
G01 X19.1948 Y4.2246
G01 X19.1882 Y4.2259
G01 X19.1818 Y4.2282
G01 X19.1765 Y4.2310
G01 X19.1765 Y4.1349
G01 X19.1869 Y4.1335
G01 X19.2004 Y4.1328
G01 X19.2138 Y4.1335
G01 X19.2243 Y4.1349
G01 X19.2243 Y4.0427
G01 X19.2116 Y4.0417
G01 X19.2004 Y4.0414
G01 X19.1892 Y4.0417
G01 X19.1765 Y4.0427
G01 X19.1765 Y3.9509
G01 X19.2004 Y3.9500
G01 X19.2243 Y3.9509
G01 X19.2243 Y3.8592
G01 X19.2004 Y3.8585
G01 X19.1765 Y3.8592
G01 X19.1765 Y3.7677
G01 X19.2004 Y3.7671
G01 X19.2127 Y3.7672
G01 X19.2406 Y3.7687
G01 X19.2313 Y3.6765
G01 X19.2586 Y3.6785
G01 X19.2731 Y3.6801
G01 X19.2991 Y3.6839
G01 X19.3110 Y3.5932
G01 X19.3342 Y3.5974
G01 X19.3646 Y3.6042
G00 Z2.0000
G00 X19.3718 Y3.5119
G01 F60.00
G01 Z-0.1500
G01 F120.00
G01 X19.3892 Y3.5161
G01 X19.4238 Y3.5256
G01 X19.4677 Y3.4435
G01 X19.4525 Y3.4387
G01 X19.4202 Y3.4297
G00 Z2.0000
G00 X19.4590 Y3.3454
G01 F60.00
G01 Z-0.1500
G01 F120.00
G01 X19.4791 Y3.3512
G01 X19.5087 Y3.3608
G01 X19.5353 Y3.2732
G01 X19.5056 Y3.2637
G01 X19.4889 Y3.2589
G00 Z2.0000
G00 X19.5101 Y3.1698
G01 F60.00
G01 Z-0.1500
G01 F120.00
G01 X19.5322 Y3.1762
G01 X19.5608 Y3.1853
G01 X19.5699 Y3.0923
G01 X19.5587 Y3.0887
G01 X19.5224 Y3.0784
G00 Z2.0000
G00 X19.5255 Y2.9846
G01 F60.00
G01 Z-0.1500
G01 F120.00
G01 X19.5540 Y2.9921
G01 X19.5790 Y2.9994
G01 X19.5693 Y2.9016
G01 X19.5448 Y2.8952
G01 X19.5188 Y2.8890
G01 X19.5588 Y2.8045
G01 X19.5309 Y2.7979
G01 X19.5016 Y2.7917
G01 X19.5283 Y2.7039
G01 X19.5126 Y2.7005
G01 X19.4728 Y2.6932
G01 X19.4930 Y2.6039
G01 X19.4486 Y2.5967
G01 X19.4316 Y2.5944
G01 X19.4392 Y2.5031
G01 X19.4186 Y2.5003
G01 X19.3763 Y2.4956
G01 X19.3707 Y2.4034
G01 X19.3383 Y2.4006
G01 X19.3034 Y2.3984
G01 X19.2904 Y2.3062
G01 X19.2486 Y2.3046
G01 X19.2099 Y2.3042
G01 X19.1767 Y2.2129
G01 X19.1499 Y2.2132
G01 X19.0909 Y2.2156
G01 X19.0348 Y2.1276
G01 X18.9898 Y2.1315
G01 X18.9358 Y2.1375
G01 X18.8495 Y2.0575
G01 X18.8174 Y2.0627
G01 X18.7633 Y2.0728
G01 X18.7184 Y2.0823
G01 X18.5766 Y2.0233
G01 X18.5235 Y2.0387
G01 X18.4690 Y2.0560
G01 X18.4148 Y2.0746
G01 X18.3612 Y2.0945
G01 X18.3081 Y2.1158
G01 X18.2555 Y2.1383
G01 X18.2034 Y2.1622
G01 X18.1520 Y2.1873
G01 X18.1012 Y2.2136
G01 X18.0511 Y2.2412
G01 X18.0016 Y2.2700
G01 X17.9529 Y2.3000
G01 X17.9049 Y2.3312
G01 X17.8672 Y2.3572
G01 X17.8156 Y2.5091
G01 X17.7792 Y2.5382
G01 X17.7371 Y2.5736
G01 X17.7107 Y2.5970
G00 Z2.0000
G00 X20.2201 Y2.1197
G01 F60.00
G01 Z-0.1500
G01 F120.00
G01 X20.1975 Y2.1228
G01 X20.1677 Y2.1276
G01 X20.1657 Y2.2205
G01 X20.2138 Y2.2129
G01 X20.2138 Y2.3054
G01 X20.1657 Y2.3133
G01 X20.1657 Y2.4063
G01 X20.1879 Y2.4022
G01 X20.2138 Y2.3980
G01 X20.2138 Y2.4906
G01 X20.1657 Y2.4993
G01 X20.1657 Y2.5925
G01 X20.2138 Y2.5834
G01 X20.2138 Y2.6764
G01 X20.1918 Y2.6805
G01 X20.1657 Y2.6860
G01 X20.1657 Y2.7795
G01 X20.2138 Y2.7694
G01 X20.2138 Y2.8627
G01 X20.1890 Y2.8680
G01 X20.1657 Y2.8735
G01 X20.1657 Y2.9677
G01 X20.2138 Y2.9562
G01 X20.2138 Y3.0500
G01 X20.1952 Y3.0545
G01 X20.1657 Y3.0622
G01 X20.2138 Y3.1441
G01 X20.1860 Y3.1514
G01 X20.1657 Y3.1573
G01 X20.2138 Y3.2387
G01 X20.1813 Y3.2480
G01 X20.1657 Y3.2529
G01 X20.2138 Y3.3338
G01 X20.1811 Y3.3440
G01 X20.1657 Y3.3493
G01 X20.2138 Y3.4295
G01 X20.1854 Y3.4392
G01 X20.1657 Y3.4465
G01 X20.2138 Y3.5262
G01 X20.1941 Y3.5335
G01 X20.1657 Y3.5450
G01 X20.2138 Y3.6241
G01 X20.1876 Y3.6351
G01 X20.1657 Y3.6452
G01 X20.2138 Y3.7237
G01 X20.1902 Y3.7350
G01 X20.1657 Y3.7480
G01 X20.2138 Y3.8259
G01 X20.1871 Y3.8411
G01 X20.1657 Y3.8545
G01 X20.2016 Y3.9404
G01 X20.2216 Y3.9271
G01 X20.2463 Y3.9124
G01 X20.3254 Y3.9743
G01 X20.3472 Y3.9647
G01 X20.3586 Y3.9601
G01 X20.3819 Y3.9518
G01 X20.3936 Y3.9480
G01 X20.4174 Y3.9414
G01 X20.4415 Y3.9360
G01 X20.4658 Y3.9318
G01 X20.4903 Y3.9288
G01 X20.5026 Y3.9277
G01 X20.5273 Y3.9265
G01 X20.5396 Y3.9264
G01 X20.5635 Y3.9270
G01 X20.5635 Y4.0185
G01 X20.5396 Y4.0178
G01 X20.5094 Y4.0189
G01 X20.4893 Y4.0209
G01 X20.4609 Y4.0254
G00 Z2.0000
G00 X20.5105 Y4.1106
G01 F60.00
G01 Z-0.1500
G01 F120.00
G01 X20.5239 Y4.1096
G01 X20.5396 Y4.1093
G01 X20.5635 Y4.1102
G01 X20.5635 Y4.2020
G01 X20.5508 Y4.2010
G01 X20.5396 Y4.2007
G01 X20.5284 Y4.2010
G01 X20.5157 Y4.2020
G01 X20.5157 Y4.2942
G01 X20.5262 Y4.2928
G01 X20.5396 Y4.2921
G01 X20.5531 Y4.2928
G01 X20.5635 Y4.2942
G01 X20.5635 Y4.3903
G01 X20.5582 Y4.3875
G01 X20.5518 Y4.3852
G01 X20.5452 Y4.3839
G01 X20.5396 Y4.3836
G01 X20.5340 Y4.3839
G01 X20.5274 Y4.3852
G01 X20.5211 Y4.3875
G01 X20.5157 Y4.3903
G01 X20.5157 Y4.4683
G01 X20.5211 Y4.4711
G01 X20.5274 Y4.4734
G01 X20.5340 Y4.4747
G01 X20.5396 Y4.4750
G01 X20.5452 Y4.4747
G01 X20.5518 Y4.4734
G01 X20.5582 Y4.4711
G01 X20.5635 Y4.4683
G01 X20.5635 Y4.5643
G01 X20.5531 Y4.5658
G01 X20.5396 Y4.5665
G01 X20.5262 Y4.5658
G01 X20.5157 Y4.5643
G01 X20.5157 Y4.6566
G01 X20.5284 Y4.6576
G01 X20.5396 Y4.6579
G01 X20.5508 Y4.6576
G01 X20.5635 Y4.6566
G01 X20.5635 Y4.7484
G01 X20.5475 Y4.7492
G01 X20.5318 Y4.7492
G01 X20.5071 Y4.7477
G00 Z2.0000
G00 X20.4629 Y4.8335
G01 F60.00
G01 Z-0.1500
G01 F120.00
G01 X20.4792 Y4.8363
G01 X20.4993 Y4.8388
G01 X20.5194 Y4.8403
G01 X20.5339 Y4.8407
G00 Z2.0000
G00 X20.4496 Y4.9241
G01 F60.00
G01 Z-0.1500
G01 F120.00
G01 X20.4294 Y4.9200
G01 X20.4174 Y4.9171
G01 X20.3957 Y4.9112
G01 X20.3861 Y5.0034
G01 X20.3671 Y4.9981
G01 X20.3532 Y4.9937
G01 X20.3394 Y4.9889
G01 X20.3336 Y4.9868
G01 X20.3260 Y4.9961
G01 X20.2355 Y5.1653
G01 X20.1798 Y5.3490
G01 X20.1610 Y5.5400
G01 X20.1798 Y5.7310
G01 X20.2355 Y5.9147
G01 X20.3260 Y6.0839
G01 X20.4477 Y6.2323
G01 X20.5961 Y6.3540
G01 X20.7653 Y6.4445
G01 X20.9490 Y6.5002
G01 X21.1400 Y6.5190
G01 X21.3310 Y6.5002
G01 X21.5147 Y6.4445
G01 X21.6839 Y6.3540
G01 X21.8323 Y6.2323
G01 X21.9540 Y6.0839
G01 X22.0445 Y5.9147
G01 X22.1002 Y5.7310
G01 X22.1190 Y5.5400
G01 X22.1002 Y5.3490
G01 X22.0445 Y5.1653
G01 X21.9540 Y4.9961
G01 X21.8323 Y4.8477
G01 X21.8242 Y4.8409
G01 X21.8168 Y4.8327
G01 X21.8125 Y4.8267
G01 X21.7785 Y4.7736
G01 X21.7735 Y4.7636
G01 X21.7709 Y4.7566
G01 X21.7694 Y4.7512
G01 X21.7681 Y4.7438
G01 X21.7649 Y4.7188
G01 X21.7643 Y4.7110
G01 X21.7644 Y4.1458
G01 X21.7654 Y4.1367
G01 X21.7675 Y4.1277
G01 X21.7888 Y4.0626
G01 X21.7928 Y4.0543
G01 X21.7978 Y4.0465
G01 X21.8036 Y4.0394
G01 X21.8103 Y4.0331
G01 X21.8657 Y3.9926
G01 X21.8738 Y3.9877
G01 X21.8824 Y3.9839
G01 X21.8878 Y3.9821
G01 X21.8951 Y3.9804
G01 X21.9315 Y3.9747
G01 X21.9395 Y3.9743
G01 X22.0022 Y3.9743
G01 X22.0385 Y3.9671
G01 X22.0796 Y3.9396
G01 X22.1071 Y3.8985
G01 X22.1143 Y3.8623
G01 X22.1143 Y2.1378
G01 X22.1071 Y2.1015
G01 X22.0796 Y2.0604
G01 X22.0385 Y2.0329
G01 X22.0023 Y2.0257
G01 X20.2778 Y2.0257
G01 X20.2415 Y2.0329
G01 X20.2004 Y2.0604
G01 X20.1729 Y2.1015
G01 X20.1657 Y2.1378
G01 X20.1657 Y3.8622
G01 X20.1729 Y3.8985
G01 X20.2004 Y3.9396
G01 X20.2415 Y3.9671
G01 X20.2777 Y3.9743
G01 X20.3423 Y3.9743
G01 X20.3497 Y3.9749
G01 X20.3569 Y3.9761
G01 X20.3640 Y3.9780
G01 X20.4257 Y3.9982
G01 X20.4357 Y4.0028
G01 X20.4420 Y4.0067
G01 X20.4464 Y4.0100
G01 X20.4532 Y4.0162
G01 X20.4592 Y4.0231
G01 X20.4963 Y4.0741
G01 X20.5023 Y4.0838
G01 X20.5061 Y4.0924
G01 X20.5092 Y4.1033
G01 X20.5148 Y4.1376
G01 X20.5156 Y4.1455
G01 X20.5157 Y4.7091
G01 X20.5153 Y4.7164
G01 X20.5143 Y4.7237
G01 X20.5120 Y4.7326
G01 X20.4925 Y4.7926
G01 X20.4888 Y4.8012
G01 X20.4842 Y4.8093
G01 X20.4773 Y4.8182
G01 X20.4587 Y4.8379
G01 X20.4546 Y4.8420
G01 X20.4477 Y4.8477
G01 X20.3260 Y4.9961
G01 X20.2880 Y5.0672
G01 X20.3086 Y5.0750
G01 X20.3348 Y5.0838
G00 Z2.0000
G00 X20.2933 Y5.1664
G01 F60.00
G01 Z-0.1500
G01 F120.00
G01 X20.2599 Y5.1545
G01 X20.2446 Y5.1483
G01 X20.2145 Y5.2348
G01 X20.2470 Y5.2472
G01 X20.2605 Y5.2518
G00 Z2.0000
G00 X20.2363 Y5.3402
G01 F60.00
G01 Z-0.1500
G01 F120.00
G01 X20.2162 Y5.3333
G01 X20.1878 Y5.3226
G01 X20.1733 Y5.4149
G01 X20.1854 Y5.4194
G01 X20.2208 Y5.4313
G00 Z2.0000
G00 X20.2144 Y5.5250
G01 F60.00
G01 Z-0.1500
G01 F120.00
G01 X20.1811 Y5.5146
G01 X20.1641 Y5.5087
G01 X20.1675 Y5.6062
G01 X20.1813 Y5.6106
G01 X20.2177 Y5.6209
G01 X20.1772 Y5.7046
G01 X20.2175 Y5.7154
G01 X20.2312 Y5.7187
G01 X20.2025 Y5.8059
G01 X20.2291 Y5.8122
G01 X20.2569 Y5.8181
G00 Z2.0000
G00 X20.2549 Y5.8124
G01 F60.00
G01 Z-0.1500
G01 F120.00
G01 X20.2527 Y5.8053
G01 X20.2324 Y5.7243
G01 X20.2310 Y5.7170
G01 X20.2183 Y5.6308
G01 X20.2138 Y5.5400
G01 X20.2180 Y5.4529
G01 X20.2187 Y5.4455
G01 X20.2316 Y5.3593
G01 X20.2537 Y5.2711
G01 X20.2830 Y5.1890
G01 X20.2858 Y5.1821
G01 X20.3232 Y5.1034
G01 X20.3699 Y5.0254
G01 X20.4240 Y4.9524
G01 X20.4825 Y4.8878
G01 X20.4878 Y4.8825
G01 X20.5496 Y4.8265
G01 X20.5635 Y4.8157
G01 X20.5635 Y3.9262
G01 X20.2900 Y3.9262
G01 X20.2844 Y3.9260
G01 X20.2770 Y3.9251
G01 X20.2661 Y3.9224
G01 X20.2608 Y3.9204
G01 X20.2541 Y3.9172
G01 X20.2446 Y3.9112
G01 X20.2361 Y3.9039
G01 X20.2288 Y3.8954
G01 X20.2228 Y3.8859
G01 X20.2183 Y3.8757
G01 X20.2153 Y3.8649
G01 X20.2142 Y3.8575
G01 X20.2138 Y3.8500
G01 X20.2138 Y2.1500
G01 X20.2142 Y2.1425
G01 X20.2157 Y2.1333
G01 X20.2183 Y2.1243
G01 X20.2211 Y2.1174
G01 X20.2266 Y2.1077
G01 X20.2323 Y2.1002
G01 X20.2402 Y2.0923
G01 X20.2492 Y2.0856
G01 X20.2574 Y2.0811
G01 X20.2679 Y2.0771
G01 X20.2770 Y2.0749
G01 X20.2881 Y2.0738
G01 X21.9900 Y2.0738
G01 X21.9993 Y2.0744
G01 X22.0067 Y2.0757
G01 X22.0157 Y2.0783
G01 X22.0226 Y2.0811
G01 X22.0323 Y2.0866
G01 X22.0398 Y2.0923
G01 X22.0465 Y2.0988
G01 X22.0534 Y2.1077
G01 X22.0589 Y2.1174
G01 X22.0629 Y2.1279
G01 X22.0651 Y2.1370
G01 X22.0662 Y2.1481
G01 X22.0662 Y3.8500
G01 X22.0658 Y3.8575
G01 X22.0651 Y3.8630
G01 X22.0624 Y3.8739
G01 X22.0581 Y3.8843
G01 X22.0523 Y3.8939
G01 X22.0489 Y3.8983
G01 X22.0439 Y3.9039
G01 X22.0354 Y3.9112
G01 X22.0259 Y3.9172
G01 X22.0157 Y3.9217
G01 X22.0103 Y3.9234
G01 X22.0030 Y3.9251
G01 X21.9975 Y3.9258
G01 X21.9900 Y3.9262
G01 X21.7165 Y3.9262
G01 X21.7165 Y4.8157
G01 X21.7304 Y4.8265
G01 X21.7949 Y4.8851
G01 X21.8560 Y4.9524
G01 X21.9101 Y5.0254
G01 X21.9568 Y5.1034
G01 X21.9957 Y5.1856
G01 X22.0264 Y5.2713
G01 X22.0484 Y5.3593
G01 X22.0615 Y5.4474
G01 X22.0661 Y5.5363
G01 X22.0661 Y5.5437
G01 X22.0617 Y5.6308
G01 X22.0484 Y5.7207
G01 X22.0273 Y5.8053
G01 X22.0251 Y5.8124
G01 X21.9957 Y5.8944
G01 X21.9585 Y5.9733
G01 X21.9550 Y5.9799
G01 X21.9121 Y6.0514
G01 X21.9080 Y6.0576
G01 X21.8560 Y6.1276
G01 X21.7949 Y6.1949
G01 X21.7304 Y6.2535
G01 X21.7246 Y6.2583
G01 X21.6546 Y6.3101
G01 X21.5766 Y6.3568
G01 X21.4979 Y6.3942
G01 X21.4910 Y6.3970
G01 X21.4087 Y6.4264
G01 X21.3207 Y6.4484
G01 X21.2345 Y6.4613
G01 X21.2271 Y6.4620
G01 X21.1400 Y6.4662
G01 X21.0492 Y6.4617
G01 X20.9593 Y6.4484
G01 X20.8747 Y6.4273
G01 X20.8676 Y6.4251
G01 X20.7856 Y6.3957
G01 X20.7067 Y6.3585
G01 X20.7001 Y6.3550
G01 X20.6254 Y6.3101
G01 X20.5524 Y6.2560
G01 X20.4851 Y6.1949
G01 X20.4265 Y6.1304
G01 X20.4217 Y6.1246
G01 X20.3699 Y6.0546
G01 X20.3250 Y5.9799
G01 X20.3215 Y5.9733
G01 X20.2843 Y5.8944
G01 X20.2549 Y5.8124
G00 Z2.0000
G00 X20.2330 Y5.9065
G01 F60.00
G01 Z-0.1500
G01 F120.00
G01 X20.2817 Y5.9158
G01 X20.2954 Y5.9180
G01 X20.2860 Y6.0091
G01 X20.3048 Y6.0122
G01 X20.3478 Y6.0179
G01 X20.3473 Y6.1098
G01 X20.3738 Y6.1128
G01 X20.4156 Y6.1164
G01 X20.4284 Y6.2088
G01 X20.4521 Y6.2102
G01 X20.5037 Y6.2119
G01 X20.5348 Y6.3038
G01 X20.5856 Y6.3033
G01 X20.6146 Y6.3022
G01 X20.6654 Y6.3911
G01 X20.6842 Y6.3899
G01 X20.7323 Y6.3858
G01 X20.7583 Y6.3829
G01 X20.8343 Y6.4654
G01 X20.8914 Y6.4564
G01 X20.9480 Y6.4457
G01 X21.0685 Y6.5120
G01 X21.1127 Y6.5003
G01 X21.1634 Y6.4856
G01 X21.2137 Y6.4697
G01 X21.2408 Y6.4603
G00 Z2.0000
G00 X21.8558 Y6.1278
G01 F60.00
G01 Z-0.1500
G01 F120.00
G01 X21.9028 Y6.0904
G01 X21.9432 Y6.0564
G01 X21.9827 Y6.0215
G01 X21.9920 Y6.0128
G01 X22.0024 Y5.8759
G01 X22.0297 Y5.8480
G01 X22.0641 Y5.8110
G01 X22.0822 Y5.7905
G01 X22.0541 Y5.6827
G01 X22.0895 Y5.6388
G01 X22.1122 Y5.6089
G01 X22.0652 Y5.5183
G01 X22.0982 Y5.4707
G01 X22.1104 Y5.4521
G01 X22.0509 Y5.3754
G01 X22.0690 Y5.3460
G01 X22.0889 Y5.3118
G01 X22.0188 Y5.2498
G01 X22.0315 Y5.2267
G01 X22.0514 Y5.1882
G01 X21.9738 Y5.1389
G01 X21.9862 Y5.1135
G01 X22.0003 Y5.0827
G01 X21.9191 Y5.0403
G01 X21.9335 Y5.0067
G01 X21.9431 Y4.9828
G00 Z2.0000
G00 X21.8565 Y4.9531
G01 F60.00
G01 Z-0.1500
G01 F120.00
G01 X21.8620 Y4.9394
G01 X21.8761 Y4.9011
G01 X21.7872 Y4.8780
G01 X21.7986 Y4.8452
G01 X21.8071 Y4.8183
G01 X21.7165 Y4.8017
G01 X21.7293 Y4.7585
G01 X21.7371 Y4.7292
G01 X21.7441 Y4.6998
G01 X21.7503 Y4.6701
G01 X21.7559 Y4.6403
G01 X21.7607 Y4.6104
G01 X21.7643 Y4.5839
G01 X21.7643 Y4.2746
G01 X21.7607 Y4.2482
G01 X21.7559 Y4.2183
G01 X21.7503 Y4.1885
G01 X21.7441 Y4.1588
G01 X21.7371 Y4.1294
G01 X21.7293 Y4.1001
G01 X21.7165 Y4.0569
G01 X21.8060 Y4.0369
G01 X21.7986 Y4.0134
G01 X21.7880 Y3.9826
G01 X21.7767 Y3.9521
G01 X21.7663 Y3.9262
G01 X21.8646 Y3.9262
G01 X21.8741 Y3.9518
G01 X21.8848 Y3.9831
G00 Z2.0000
G00 X21.9780 Y3.9743
G01 F60.00
G01 Z-0.1500
G01 F120.00
G01 X21.9722 Y3.9560
G01 X21.9620 Y3.9262
G00 Z2.0000
G00 X22.0490 Y3.8982
G01 F60.00
G01 Z-0.1500
G01 F120.00
G01 X22.0591 Y3.9273
G01 X22.0659 Y3.9488
G01 X22.1143 Y3.8114
G01 X22.1025 Y3.7819
G01 X22.0861 Y3.7438
G01 X22.0662 Y3.7006
G01 X22.1143 Y3.5929
G01 X22.0911 Y3.5504
G01 X22.0662 Y3.5080
G01 X22.1143 Y3.4126
G01 X22.0982 Y3.3879
G01 X22.0662 Y3.3416
G01 X22.1143 Y3.2524
G01 X22.0895 Y3.2198
G01 X22.0662 Y3.1907
G01 X22.1143 Y3.1054
G01 X22.0975 Y3.0855
G01 X22.0662 Y3.0501
G01 X22.1143 Y2.9674
G01 X22.0959 Y2.9476
G01 X22.0662 Y2.9171
G01 X22.1143 Y2.8360
G01 X22.0844 Y2.8068
G01 X22.0662 Y2.7899
G01 X22.1143 Y2.7098
G01 X22.0662 Y2.6668
G01 X22.1143 Y2.5877
G01 X22.0769 Y2.5562
G01 X22.0662 Y2.5476
G01 X22.1143 Y2.4690
G01 X22.0867 Y2.4469
G01 X22.0662 Y2.4313
G01 X22.1143 Y2.3530
G01 X22.0920 Y2.3361
G01 X22.0662 Y2.3174
G01 X22.1143 Y2.2394
G01 X22.0929 Y2.2239
G01 X22.0662 Y2.2056
G01 X22.1120 Y2.1261
G01 X22.0891 Y2.1104
G01 X22.0317 Y2.0731
G01 X21.9734 Y2.0372
G01 X21.9538 Y2.0257
G01 X21.8539 Y2.0738
G01 X21.8112 Y2.0503
G01 X21.7637 Y2.0257
G01 X21.6545 Y2.0738
G01 X21.5957 Y2.0468
G01 X21.5464 Y2.0257
G01 X21.4194 Y2.0738
G01 X21.3868 Y2.0617
G01 X21.3284 Y2.0416
G01 X21.2782 Y2.0257
G01 X21.1075 Y2.0738
G01 X21.0705 Y2.0650
G01 X21.0124 Y2.0527
G01 X20.9539 Y2.0418
G01 X20.8952 Y2.0324
G01 X20.8461 Y2.0257
G00 Z2.0000
G00 X22.7755 Y2.6337
G01 F60.00
G01 Z-0.1500
G01 F120.00
G01 X22.7873 Y2.6420
G01 X22.8006 Y2.6504
G01 X22.8204 Y2.6613
G00 Z2.0000
G00 X22.8578 Y2.5777
G01 F60.00
G01 Z-0.1500
G01 F120.00
G01 X22.8476 Y2.5720
G01 X22.8381 Y2.5660
G01 X22.8289 Y2.5595
G01 X22.8175 Y2.5504
G01 X22.8622 Y2.4666
G01 X22.8705 Y2.4752
G01 X22.8807 Y2.4840
G01 X22.8917 Y2.4918
G01 X22.9032 Y2.4983
G00 Z2.0000
G00 X22.9582 Y2.4211
G01 F60.00
G01 Z-0.1500
G01 F120.00
G01 X22.9518 Y2.4196
G01 X22.9456 Y2.4172
G01 X22.9407 Y2.4145
G01 X22.9353 Y2.4105
G01 X22.9305 Y2.4058
G01 X22.9271 Y2.4013
G01 X22.9238 Y2.3954
G01 X22.9216 Y2.3898
G01 X22.9702 Y2.3305
G01 X22.9762 Y2.3315
G01 X22.9826 Y2.3336
G01 X22.9886 Y2.3367
G01 X22.9941 Y2.3405
G01 X22.9990 Y2.3452
G01 X23.0031 Y2.3505
G01 X23.0064 Y2.3563
G01 X23.0090 Y2.3630
G00 Z2.0000
G00 X23.0775 Y2.2972
G01 F60.00
G01 Z-0.1500
G01 F120.00
G01 X23.0711 Y2.2889
G01 X23.0621 Y2.2789
G01 X23.0521 Y2.2699
G01 X23.0427 Y2.2628
G01 X23.1151 Y2.2034
G01 X23.1268 Y2.2142
G01 X23.1345 Y2.2224
G01 X23.1418 Y2.2309
G01 X23.1495 Y2.2408
G00 Z2.0000
G00 X23.2269 Y2.1918
G01 F60.00
G01 Z-0.1500
G01 F120.00
G01 X23.2125 Y2.1729
G01 X23.2023 Y2.1610
G01 X23.1953 Y2.1536
G01 X23.2784 Y2.1092
G01 X23.2956 Y2.1308
G01 X23.3093 Y2.1504
G00 Z2.0000
G00 X23.3566 Y2.1313
G01 F60.00
G01 Z-0.1500
G01 F120.00
G01 X23.3566 Y2.0785
G01 X23.3083 Y2.0932
G01 X23.1392 Y2.1836
G01 X22.9909 Y2.3053
G01 X22.8692 Y2.4536
G01 X22.7788 Y2.6227
G01 X22.7641 Y2.6710
G01 X22.8169 Y2.6710
G01 X22.8278 Y2.6410
G01 X22.8651 Y2.5623
G01 X22.9117 Y2.4842
G01 X22.9668 Y2.4096
G01 X23.0253 Y2.3450
G01 X23.0306 Y2.3397
G01 X23.0952 Y2.2812
G01 X23.1698 Y2.2261
G01 X23.2479 Y2.1795
G01 X23.3266 Y2.1422
G01 X23.3566 Y2.1313
G00 Z2.0000
G00 X24.0563 Y2.1504
G01 F60.00
G01 Z-0.1500
G01 F120.00
G01 X24.0700 Y2.1308
G01 X24.0872 Y2.1092
G00 Z2.0000
G00 X24.1387 Y2.1918
G01 F60.00
G01 Z-0.1500
G01 F120.00
G01 X24.1531 Y2.1729
G01 X24.1633 Y2.1610
G01 X24.1703 Y2.1536
G01 X24.2505 Y2.2034
G01 X24.2388 Y2.2142
G01 X24.2311 Y2.2224
G01 X24.2238 Y2.2309
G01 X24.2161 Y2.2408
G00 Z2.0000
G00 X24.2881 Y2.2972
G01 F60.00
G01 Z-0.1500
G01 F120.00
G01 X24.2945 Y2.2889
G01 X24.3035 Y2.2789
G01 X24.3135 Y2.2699
G01 X24.3229 Y2.2628
G01 X24.3954 Y2.3305
G01 X24.3894 Y2.3315
G01 X24.3830 Y2.3336
G01 X24.3770 Y2.3367
G01 X24.3715 Y2.3405
G01 X24.3666 Y2.3452
G01 X24.3625 Y2.3505
G01 X24.3592 Y2.3563
G01 X24.3566 Y2.3630
G00 Z2.0000
G00 X24.4074 Y2.4211
G01 F60.00
G01 Z-0.1500
G01 F120.00
G01 X24.4138 Y2.4196
G01 X24.4200 Y2.4172
G01 X24.4259 Y2.4139
G01 X24.4303 Y2.4105
G01 X24.4351 Y2.4058
G01 X24.4385 Y2.4013
G01 X24.4418 Y2.3954
G01 X24.4440 Y2.3898
G01 X24.4964 Y2.4536
G01 X24.3747 Y2.3053
G01 X24.2264 Y2.1836
G01 X24.0573 Y2.0932
G01 X24.0090 Y2.0785
G01 X24.0090 Y2.1313
G01 X24.0390 Y2.1422
G01 X24.1177 Y2.1795
G01 X24.1958 Y2.2261
G01 X24.2704 Y2.2812
G01 X24.3377 Y2.3423
G01 X24.3988 Y2.4096
G01 X24.4539 Y2.4842
G01 X24.5005 Y2.5623
G01 X24.5378 Y2.6410
G01 X24.5487 Y2.6710
G01 X24.6015 Y2.6710
G01 X24.5868 Y2.6227
G01 X24.4964 Y2.4536
G01 X24.5034 Y2.4666
G01 X24.5021 Y2.4680
G01 X24.4998 Y2.4705
G01 X24.4951 Y2.4752
G01 X24.4849 Y2.4840
G01 X24.4739 Y2.4918
G01 X24.4624 Y2.4983
G00 Z2.0000
G00 X24.5078 Y2.5777
G01 F60.00
G01 Z-0.1500
G01 F120.00
G01 X24.5180 Y2.5720
G01 X24.5275 Y2.5660
G01 X24.5367 Y2.5595
G01 X24.5481 Y2.5504
G01 X24.5901 Y2.6337
G01 X24.5783 Y2.6420
G01 X24.5650 Y2.6504
G01 X24.5452 Y2.6613
G00 Z2.0000
G00 X24.6015 Y3.3234
G01 F60.00
G01 Z-0.1500
G01 F120.00
G01 X24.5868 Y3.3717
G01 X24.4964 Y3.5408
G01 X24.3747 Y3.6891
G01 X24.2264 Y3.8108
G01 X24.0573 Y3.9012
G01 X24.0090 Y3.9159
G01 X24.0090 Y3.8631
G01 X24.0390 Y3.8522
G01 X24.1177 Y3.8149
G01 X24.1958 Y3.7683
G01 X24.2704 Y3.7132
G01 X24.3350 Y3.6547
G01 X24.3403 Y3.6494
G01 X24.3988 Y3.5848
G01 X24.4539 Y3.5102
G01 X24.5005 Y3.4321
G01 X24.5378 Y3.3534
G01 X24.5487 Y3.3234
G01 X24.6015 Y3.3234
G01 X24.5901 Y3.3607
G01 X24.5848 Y3.3569
G01 X24.5783 Y3.3524
G01 X24.5650 Y3.3440
G01 X24.5452 Y3.3331
G00 Z2.0000
G00 X24.5078 Y3.4167
G01 F60.00
G01 Z-0.1500
G01 F120.00
G01 X24.5180 Y3.4224
G01 X24.5275 Y3.4284
G01 X24.5367 Y3.4349
G01 X24.5481 Y3.4440
G01 X24.5034 Y3.5278
G01 X24.4951 Y3.5192
G01 X24.4849 Y3.5104
G01 X24.4739 Y3.5026
G01 X24.4624 Y3.4961
G00 Z2.0000
G00 X24.4074 Y3.5733
G01 F60.00
G01 Z-0.1500
G01 F120.00
G01 X24.4138 Y3.5748
G01 X24.4200 Y3.5772
G01 X24.4249 Y3.5799
G01 X24.4303 Y3.5839
G01 X24.4351 Y3.5886
G01 X24.4385 Y3.5931
G01 X24.4418 Y3.5990
G01 X24.4440 Y3.6046
G01 X24.3954 Y3.6639
G01 X24.3894 Y3.6629
G01 X24.3830 Y3.6608
G01 X24.3770 Y3.6577
G01 X24.3715 Y3.6539
G01 X24.3666 Y3.6492
G01 X24.3625 Y3.6439
G01 X24.3592 Y3.6381
G01 X24.3566 Y3.6314
G00 Z2.0000
G00 X24.2881 Y3.6972
G01 F60.00
G01 Z-0.1500
G01 F120.00
G01 X24.2945 Y3.7055
G01 X24.3035 Y3.7155
G01 X24.3135 Y3.7245
G01 X24.3229 Y3.7316
G01 X24.2505 Y3.7910
G01 X24.2388 Y3.7802
G01 X24.2311 Y3.7720
G01 X24.2238 Y3.7635
G01 X24.2161 Y3.7536
G00 Z2.0000
G00 X24.1387 Y3.8026
G01 F60.00
G01 Z-0.1500
G01 F120.00
G01 X24.1531 Y3.8215
G01 X24.1633 Y3.8334
G01 X24.1703 Y3.8408
G01 X24.0872 Y3.8852
G01 X24.0700 Y3.8636
G01 X24.0563 Y3.8440
G00 Z2.0000
G00 X23.3566 Y3.8631
G01 F60.00
G01 Z-0.1500
G01 F120.00
G01 X23.3566 Y3.9159
G01 X23.3083 Y3.9012
G01 X23.1392 Y3.8108
G01 X22.9909 Y3.6891
G01 X22.8692 Y3.5408
G01 X22.7788 Y3.3717
G01 X22.7641 Y3.3234
G01 X22.8169 Y3.3234
G01 X22.8278 Y3.3534
G01 X22.8651 Y3.4321
G01 X22.9117 Y3.5102
G01 X22.9668 Y3.5848
G01 X23.0292 Y3.6534
G01 X23.0952 Y3.7132
G01 X23.1698 Y3.7683
G01 X23.2479 Y3.8149
G01 X23.3266 Y3.8522
G01 X23.3566 Y3.8631
G01 X23.2784 Y3.8852
G01 X23.2832 Y3.8796
G01 X23.2895 Y3.8717
G01 X23.2956 Y3.8636
G01 X23.3093 Y3.8440
G00 Z2.0000
G00 X23.2269 Y3.8026
G01 F60.00
G01 Z-0.1500
G01 F120.00
G01 X23.2125 Y3.8215
G01 X23.2023 Y3.8334
G01 X23.1953 Y3.8408
G01 X23.1151 Y3.7910
G01 X23.1268 Y3.7802
G01 X23.1345 Y3.7720
G01 X23.1418 Y3.7635
G01 X23.1495 Y3.7536
G00 Z2.0000
G00 X23.0775 Y3.6972
G01 F60.00
G01 Z-0.1500
G01 F120.00
G01 X23.0711 Y3.7055
G01 X23.0621 Y3.7155
G01 X23.0521 Y3.7245
G01 X23.0427 Y3.7316
G01 X22.9702 Y3.6639
G01 X22.9762 Y3.6629
G01 X22.9826 Y3.6608
G01 X22.9886 Y3.6577
G01 X22.9941 Y3.6539
G01 X22.9990 Y3.6492
G01 X23.0031 Y3.6439
G01 X23.0064 Y3.6381
G01 X23.0090 Y3.6314
G00 Z2.0000
G00 X22.9582 Y3.5733
G01 F60.00
G01 Z-0.1500
G01 F120.00
G01 X22.9518 Y3.5748
G01 X22.9456 Y3.5772
G01 X22.9397 Y3.5805
G01 X22.9353 Y3.5839
G01 X22.9305 Y3.5886
G01 X22.9271 Y3.5931
G01 X22.9238 Y3.5990
G01 X22.9216 Y3.6046
G01 X22.8622 Y3.5278
G01 X22.8705 Y3.5192
G01 X22.8807 Y3.5104
G01 X22.8917 Y3.5026
G01 X22.9032 Y3.4961
G00 Z2.0000
G00 X22.8578 Y3.4167
G01 F60.00
G01 Z-0.1500
G01 F120.00
G01 X22.8476 Y3.4224
G01 X22.8381 Y3.4284
G01 X22.8289 Y3.4349
G01 X22.8175 Y3.4440
G01 X22.7755 Y3.3607
G01 X22.7873 Y3.3524
G01 X22.8006 Y3.3440
G01 X22.8204 Y3.3331
G00 Z2.0000
G00 X22.7759 Y4.5757
G01 F60.00
G01 Z-0.1500
G01 F120.00
G01 X22.8135 Y4.5697
G01 X22.8635 Y4.5629
G01 X23.5014 Y4.5629
G01 X23.5514 Y4.5697
G01 X23.6124 Y4.5795
G01 X23.6730 Y4.5908
G01 X23.7334 Y4.6036
G01 X23.7647 Y4.6110
G01 X23.9378 Y4.5629
G01 X23.9999 Y4.5826
G01 X24.0604 Y4.6034
G01 X24.0809 Y4.6110
G01 X24.2097 Y4.5629
G01 X24.2756 Y4.5910
G01 X24.3192 Y4.6110
G01 X24.4302 Y4.5629
G01 X24.4971 Y4.5975
G01 X24.5217 Y4.6110
G00 Z2.0000
G00 X22.7583 Y4.6714
G01 F60.00
G01 Z-0.1500
G01 F120.00
G01 X22.7085 Y4.6807
G01 X22.7085 Y4.7742
G01 X22.7276 Y4.7702
G01 X22.7566 Y4.7647
G01 X22.7566 Y4.8578
G01 X22.7454 Y4.8598
G01 X22.7085 Y4.8676
G01 X22.7085 Y4.9612
G01 X22.7116 Y4.9604
G01 X22.7566 Y4.9509
G01 X22.7566 Y5.0444
G01 X22.7317 Y5.0497
G01 X22.7085 Y5.0552
G01 X22.7085 Y5.1491
G01 X22.7517 Y5.1389
G01 X22.7566 Y5.1378
G01 X22.7566 Y5.2317
G01 X22.7270 Y5.2387
G01 X22.7085 Y5.2436
G01 X22.7085 Y5.3382
G01 X22.7492 Y5.3274
G01 X22.7566 Y5.3257
G01 X22.7566 Y5.4200
G01 X22.7313 Y5.4267
G01 X22.7085 Y5.4333
G01 X22.7566 Y5.5146
G01 X22.7085 Y5.5288
G01 X22.7566 Y5.6098
G01 X22.7085 Y5.6247
G01 X22.7566 Y5.7053
G01 X22.7379 Y5.7113
G01 X22.7085 Y5.7214
G01 X22.7566 Y5.8015
G01 X22.7358 Y5.8087
G01 X22.7085 Y5.8188
G01 X22.7566 Y5.8985
G01 X22.7382 Y5.9053
G01 X22.7101 Y5.9166
G01 X22.7085 Y5.9173
G01 X22.7566 Y5.9965
G01 X22.7450 Y6.0011
G01 X22.7085 Y6.0171
G01 X22.7566 Y6.0956
G01 X22.7329 Y6.1065
G01 X22.7097 Y6.1178
G01 X22.7085 Y6.1184
G01 X22.7566 Y6.1966
G01 X22.7299 Y6.2103
G01 X22.7085 Y6.2221
G01 X22.7566 Y6.3000
G01 X22.7359 Y6.3120
G01 X22.7085 Y6.3292
G01 X22.7588 Y6.4055
G01 X22.7349 Y6.4216
G01 X22.7194 Y6.4328
G01 X22.7157 Y6.4356
G01 X22.7803 Y6.5016
G01 X22.7876 Y6.4964
G01 X22.8014 Y6.4868
G01 X22.8155 Y6.4777
G01 X22.8392 Y6.4634
G01 X22.7843 Y6.5043
G01 X22.8205 Y6.5115
G01 X22.9833 Y6.5115
G01 X22.9925 Y6.5121
G01 X22.9997 Y6.5133
G01 X23.0051 Y6.5147
G01 X23.0650 Y6.5341
G01 X23.0719 Y6.5367
G01 X23.0785 Y6.5400
G01 X23.0848 Y6.5439
G01 X23.0906 Y6.5484
G01 X23.0960 Y6.5534
G01 X23.0997 Y6.5575
G01 X23.1391 Y6.6113
G01 X23.1442 Y6.6193
G01 X23.1489 Y6.6296
G01 X23.1520 Y6.6405
G01 X23.1578 Y6.6768
G01 X23.1585 Y6.6867
G01 X23.1585 Y7.4274
G01 X23.1579 Y7.4366
G01 X23.1558 Y7.4475
G01 X23.1346 Y7.5127
G01 X23.1299 Y7.5229
G01 X23.1248 Y7.5307
G01 X23.1201 Y7.5365
G01 X23.1002 Y7.5576
G01 X22.9648 Y7.6928
G01 X22.8637 Y7.8442
G01 X22.7940 Y8.0124
G01 X22.7585 Y8.1910
G01 X22.7585 Y8.5730
G01 X22.7940 Y8.7516
G01 X22.8637 Y8.9198
G01 X22.9648 Y9.0712
G01 X23.0936 Y9.2000
G01 X23.2450 Y9.3011
G01 X23.4132 Y9.3708
G01 X23.5918 Y9.4063
G01 X23.7738 Y9.4063
G01 X23.9524 Y9.3708
G01 X24.1206 Y9.3011
G01 X24.2720 Y9.2000
G01 X24.4007 Y9.0712
G01 X24.5019 Y8.9198
G01 X24.5716 Y8.7516
G01 X24.6071 Y8.5730
G01 X24.6071 Y8.1910
G01 X24.5716 Y8.0124
G01 X24.5019 Y7.8442
G01 X24.4008 Y7.6928
G01 X24.2660 Y7.5582
G01 X24.2566 Y7.5477
G01 X24.2525 Y7.5418
G01 X24.2201 Y7.4897
G01 X24.2154 Y7.4798
G01 X24.2131 Y7.4729
G01 X24.2118 Y7.4676
G01 X24.2077 Y7.4371
G01 X24.2071 Y7.4274
G01 X24.2071 Y6.6867
G01 X24.2079 Y6.6757
G01 X24.2089 Y6.6703
G01 X24.2108 Y6.6632
G01 X24.2303 Y6.6032
G01 X24.2339 Y6.5947
G01 X24.2385 Y6.5868
G01 X24.2452 Y6.5780
G01 X24.2490 Y6.5740
G01 X24.2545 Y6.5691
G01 X24.3100 Y6.5288
G01 X24.3166 Y6.5249
G01 X24.3217 Y6.5225
G01 X24.3324 Y6.5188
G01 X24.3398 Y6.5173
G01 X24.3763 Y6.5117
G01 X24.5450 Y6.5115
G01 X24.5813 Y6.5043
G01 X24.6224 Y6.4768
G01 X24.6499 Y6.4357
G01 X24.6571 Y6.3994
G01 X24.6571 Y4.6750
G01 X24.6499 Y4.6387
G01 X24.6224 Y4.5976
G01 X24.5813 Y4.5701
G01 X24.5451 Y4.5629
G01 X22.8206 Y4.5629
G01 X22.7843 Y4.5701
G01 X22.7432 Y4.5976
G01 X22.7157 Y4.6387
G01 X22.7085 Y4.6750
G01 X22.7085 Y6.3994
G01 X22.7098 Y6.4061
G01 X22.7157 Y6.4357
G01 X22.7432 Y6.4768
G01 X22.7843 Y6.5043
G01 X22.9467 Y6.5115
G01 X22.9685 Y6.5025
G01 X22.9960 Y6.4927
G01 X23.0239 Y6.4842
G01 X23.0522 Y6.4772
G01 X23.0808 Y6.4715
G01 X23.1097 Y6.4672
G01 X23.1387 Y6.4643
G01 X23.1540 Y6.4634
G01 X23.2064 Y6.5547
G01 X23.1824 Y6.5542
G01 X23.1578 Y6.5548
G01 X23.1332 Y6.5566
G01 X23.1022 Y6.5606
G00 Z2.0000
G00 X23.1531 Y6.6466
G01 F60.00
G01 Z-0.1500
G01 F120.00
G01 X23.1824 Y6.6456
G01 X23.2064 Y6.6463
G01 X23.2064 Y6.7379
G01 X23.1824 Y6.7370
G01 X23.1585 Y6.7379
G01 X23.1585 Y6.8297
G01 X23.1712 Y6.8287
G01 X23.1824 Y6.8285
G01 X23.1937 Y6.8287
G01 X23.2064 Y6.8297
G01 X23.2064 Y6.9220
G01 X23.1959 Y6.9206
G01 X23.1824 Y6.9199
G01 X23.1690 Y6.9206
G01 X23.1585 Y6.9220
G01 X23.1585 Y7.0181
G01 X23.1639 Y7.0153
G01 X23.1703 Y7.0130
G01 X23.1769 Y7.0117
G01 X23.1824 Y7.0114
G01 X23.1880 Y7.0117
G01 X23.1946 Y7.0130
G01 X23.2010 Y7.0153
G01 X23.2064 Y7.0181
G01 X23.2064 Y7.0960
G01 X23.2010 Y7.0989
G01 X23.1946 Y7.1011
G01 X23.1880 Y7.1024
G01 X23.1824 Y7.1028
G01 X23.1769 Y7.1024
G01 X23.1703 Y7.1011
G01 X23.1639 Y7.0989
G01 X23.1585 Y7.0960
G01 X23.1585 Y7.1921
G01 X23.1690 Y7.1936
G01 X23.1824 Y7.1942
G01 X23.1959 Y7.1936
G01 X23.2064 Y7.1921
G01 X23.2064 Y7.2844
G01 X23.1937 Y7.2854
G01 X23.1824 Y7.2857
G01 X23.1712 Y7.2854
G01 X23.1585 Y7.2844
G01 X23.1585 Y7.3762
G01 X23.1824 Y7.3771
G01 X23.2064 Y7.3762
G01 X23.2064 Y7.4678
G01 X23.1824 Y7.4686
G01 X23.1623 Y7.4681
G01 X23.1495 Y7.4672
G00 Z2.0000
G00 X23.1039 Y7.5538
G01 F60.00
G01 Z-0.1500
G01 F120.00
G01 X23.1209 Y7.5562
G01 X23.1455 Y7.5586
G01 X23.1701 Y7.5598
G01 X23.1871 Y7.5599
G00 Z2.0000
G00 X23.0843 Y7.6432
G01 F60.00
G01 Z-0.1500
G01 F120.00
G01 X23.0522 Y7.6370
G01 X23.0269 Y7.6307
G01 X23.0102 Y7.7208
G01 X22.9834 Y7.7133
G01 X22.9569 Y7.7047
G01 X22.9046 Y7.7829
G01 X22.9206 Y7.7889
G01 X22.9517 Y7.7992
G00 Z2.0000
G00 X22.9047 Y7.8801
G01 F60.00
G01 Z-0.1500
G01 F120.00
G01 X22.8898 Y7.8750
G01 X22.8563 Y7.8621
G01 X22.8213 Y7.9466
G01 X22.8369 Y7.9529
G01 X22.8671 Y7.9638
G00 Z2.0000
G00 X22.8433 Y8.0313
G01 F60.00
G01 Z-0.1500
G01 F120.00
G01 X22.8455 Y8.0241
G01 X22.8733 Y7.9467
G01 X22.9101 Y7.8690
G01 X22.9543 Y7.7952
G01 X23.0032 Y7.7291
G01 X23.0079 Y7.7233
G01 X23.0632 Y7.6624
G01 X23.1241 Y7.6071
G01 X23.1299 Y7.6024
G01 X23.1930 Y7.5556
G01 X23.2064 Y7.5471
G01 X23.2064 Y6.4634
G01 X22.8328 Y6.4634
G01 X22.8235 Y6.4628
G01 X22.8179 Y6.4619
G01 X22.8107 Y6.4601
G01 X22.8002 Y6.4561
G01 X22.7905 Y6.4506
G01 X22.7816 Y6.4437
G01 X22.7739 Y6.4355
G01 X22.7674 Y6.4264
G01 X22.7624 Y6.4164
G01 X22.7589 Y6.4057
G01 X22.7572 Y6.3965
G01 X22.7566 Y6.3872
G01 X22.7566 Y4.6872
G01 X22.7572 Y4.6779
G01 X22.7589 Y4.6687
G01 X22.7611 Y4.6615
G01 X22.7647 Y4.6529
G01 X22.7694 Y4.6449
G01 X22.7763 Y4.6360
G01 X22.7830 Y4.6295
G01 X22.7920 Y4.6228
G01 X22.8002 Y4.6183
G01 X22.8107 Y4.6143
G01 X22.8216 Y4.6118
G01 X22.8309 Y4.6110
G01 X24.5328 Y4.6110
G01 X24.5421 Y4.6116
G01 X24.5495 Y4.6129
G01 X24.5585 Y4.6155
G01 X24.5671 Y4.6191
G01 X24.5751 Y4.6238
G01 X24.5840 Y4.6307
G01 X24.5917 Y4.6389
G01 X24.5972 Y4.6464
G01 X24.6017 Y4.6546
G01 X24.6057 Y4.6651
G01 X24.6079 Y4.6742
G01 X24.6090 Y4.6853
G01 X24.6090 Y6.3872
G01 X24.6086 Y6.3947
G01 X24.6071 Y6.4039
G01 X24.6039 Y6.4146
G01 X24.5991 Y6.4248
G01 X24.5962 Y6.4295
G01 X24.5917 Y6.4355
G01 X24.5840 Y6.4437
G01 X24.5751 Y6.4506
G01 X24.5654 Y6.4561
G01 X24.5602 Y6.4583
G01 X24.5531 Y6.4606
G01 X24.5421 Y6.4628
G01 X24.5328 Y6.4634
G01 X24.1592 Y6.4634
G01 X24.1592 Y7.5471
G01 X24.1726 Y7.5556
G01 X24.2387 Y7.6047
G01 X24.3024 Y7.6624
G01 X24.3601 Y7.7261
G01 X24.4092 Y7.7922
G01 X24.4133 Y7.7984
G01 X24.4537 Y7.8657
G01 X24.4572 Y7.8723
G01 X24.4923 Y7.9467
G01 X24.5201 Y8.0241
G01 X24.5223 Y8.0313
G01 X24.5422 Y8.1111
G01 X24.5546 Y8.1943
G01 X24.5590 Y8.2801
G01 X24.5590 Y8.4820
G01 X24.5551 Y8.5642
G01 X24.5543 Y8.5716
G01 X24.5422 Y8.6529
G01 X24.5212 Y8.7365
G01 X24.4923 Y8.8173
G01 X24.4555 Y8.8950
G01 X24.4113 Y8.9688
G01 X24.3601 Y9.0379
G01 X24.3024 Y9.1016
G01 X24.2387 Y9.1593
G01 X24.1696 Y9.2105
G01 X24.0958 Y9.2547
G01 X24.0181 Y9.2915
G01 X23.9371 Y9.3205
G01 X23.8537 Y9.3414
G01 X23.7687 Y9.3540
G01 X23.6828 Y9.3582
G01 X23.5969 Y9.3540
G01 X23.5119 Y9.3414
G01 X23.4283 Y9.3204
G01 X23.3475 Y9.2915
G01 X23.2698 Y9.2547
G01 X23.1960 Y9.2105
G01 X23.1269 Y9.1593
G01 X23.0632 Y9.1016
G01 X23.0055 Y9.0379
G01 X22.9543 Y8.9688
G01 X22.9101 Y8.8950
G01 X22.8733 Y8.8173
G01 X22.8455 Y8.7399
G01 X22.8433 Y8.7327
G01 X22.8243 Y8.6566
G01 X22.8228 Y8.6493
G01 X22.8108 Y8.5679
G01 X22.8066 Y8.4820
G01 X22.8066 Y8.2801
G01 X22.8107 Y8.1980
G01 X22.8234 Y8.1111
G01 X22.8433 Y8.0313
G00 Z2.0000
G00 X22.8385 Y8.0507
G01 F60.00
G01 Z-0.1500
G01 F120.00
G01 X22.8040 Y8.0382
G01 X22.7900 Y8.0326
G01 X22.7719 Y8.1238
G01 X22.7974 Y8.1333
G01 X22.8190 Y8.1407
G00 Z2.0000
G00 X22.8089 Y8.2335
G01 F60.00
G01 Z-0.1500
G01 F120.00
G01 X22.7952 Y8.2292
G01 X22.7585 Y8.2163
G01 X22.7585 Y8.3133
G01 X22.8066 Y8.3285
G01 X22.7585 Y8.4094
G01 X22.7710 Y8.4134
G01 X22.8066 Y8.4236
G01 X22.7585 Y8.5049
G01 X22.7800 Y8.5112
G01 X22.8083 Y8.5186
G01 X22.7642 Y8.6015
G01 X22.7936 Y8.6093
G01 X22.8177 Y8.6150
G01 X22.7840 Y8.7010
G01 X22.8118 Y8.7076
G01 X22.8384 Y8.7132
G01 X22.8148 Y8.8017
G01 X22.8346 Y8.8059
G01 X22.8716 Y8.8128
G01 X22.8567 Y8.9030
G01 X22.9074 Y8.9113
G01 X22.9208 Y8.9131
G01 X22.9209 Y9.0054
G01 X22.9418 Y9.0082
G01 X22.9871 Y9.0133
G01 X22.9998 Y9.1062
G01 X23.0311 Y9.1089
G01 X23.0741 Y9.1115
G01 X23.0999 Y9.2042
G01 X23.1297 Y9.2053
G01 X23.1895 Y9.2058
G01 X23.2383 Y9.2966
G01 X23.2924 Y9.2947
G01 X23.3470 Y9.2913
G00 Z2.0000
G00 X23.4343 Y9.3750
G01 F60.00
G01 Z-0.1500
G01 F120.00
G01 X23.4679 Y9.3713
G01 X23.5246 Y9.3636
G01 X23.5893 Y9.3529
G01 X23.7835 Y9.4044
G01 X23.8287 Y9.3925
G01 X23.8859 Y9.3759
G01 X23.9426 Y9.3579
G01 X23.9988 Y9.3386
G01 X24.0545 Y9.3179
G01 X24.1098 Y9.2958
G01 X24.1623 Y9.2733
G00 Z2.0000
G00 X24.3012 Y9.1027
G01 F60.00
G01 Z-0.1500
G01 F120.00
G01 X24.3318 Y9.0859
G01 X24.3812 Y9.0571
G01 X24.4305 Y9.0266
G01 X24.4504 Y8.9038
G01 X24.4724 Y8.8887
G01 X24.5170 Y8.8565
G01 X24.5333 Y8.8441
G01 X24.5207 Y8.7381
G01 X24.5457 Y8.7181
G01 X24.5848 Y8.6852
G01 X24.5512 Y8.5930
G01 X24.5641 Y8.5815
G01 X24.6071 Y8.5413
G01 X24.5590 Y8.4605
G01 X24.5726 Y8.4472
G01 X24.6071 Y8.4118
G01 X24.5590 Y8.3292
G01 X24.5714 Y8.3159
G01 X24.6071 Y8.2752
G00 Z2.0000
G00 X24.5547 Y8.1955
G01 F60.00
G01 Z-0.1500
G01 F120.00
G01 X24.5881 Y8.1541
G01 X24.5974 Y8.1420
G01 X24.5333 Y8.0752
G01 X24.5655 Y8.0311
G01 X24.5731 Y8.0201
G01 X24.4993 Y7.9660
G01 X24.5130 Y7.9461
G01 X24.5320 Y7.9168
G00 Z2.0000
G00 X24.4549 Y7.8677
G01 F60.00
G01 Z-0.1500
G01 F120.00
G01 X24.4766 Y7.8327
G01 X24.4848 Y7.8186
G01 X24.4009 Y7.7810
G01 X24.4156 Y7.7557
G01 X24.4279 Y7.7334
G01 X24.3399 Y7.7037
G01 X24.3518 Y7.6821
G01 X24.3648 Y7.6569
G01 X24.2729 Y7.6356
G01 X24.2851 Y7.6121
G01 X24.2966 Y7.5886
G01 X24.2006 Y7.5764
G01 X24.2157 Y7.5458
G01 X24.2321 Y7.5092
G01 X24.1592 Y7.4464
G01 X24.1725 Y7.4113
G01 X24.1809 Y7.3869
G01 X24.1887 Y7.3623
G01 X24.1959 Y7.3375
G01 X24.2025 Y7.3126
G01 X24.2071 Y7.2932
G01 X24.2071 Y6.8209
G01 X24.2025 Y6.8016
G01 X24.1959 Y6.7766
G01 X24.1887 Y6.7518
G01 X24.1809 Y6.7272
G01 X24.1725 Y6.7028
G01 X24.1592 Y6.6677
G00 Z2.0000
G00 X24.2308 Y6.6019
G01 F60.00
G01 Z-0.1500
G01 F120.00
G01 X24.2157 Y6.5684
G01 X24.2034 Y6.5432
G01 X24.1905 Y6.5183
G01 X24.1770 Y6.4937
G01 X24.1592 Y6.4636
G01 X24.2647 Y6.4634
G01 X24.2851 Y6.5021
G01 X24.3011 Y6.5352
G00 Z2.0000
G00 X24.3908 Y6.5115
G01 F60.00
G01 Z-0.1500
G01 F120.00
G01 X24.3810 Y6.4902
G01 X24.3680 Y6.4634
G01 X24.4693 Y6.4634
G01 X24.4782 Y6.4827
G01 X24.4905 Y6.5115
G01 X24.5661 Y6.4557
G01 X24.5764 Y6.4797
G01 X24.5852 Y6.5017
G01 X24.6521 Y6.4244
G01 X24.6454 Y6.4086
G01 X24.6290 Y6.3729
G01 X24.6090 Y6.3322
G01 X24.6571 Y6.2283
G01 X24.6334 Y6.1874
G01 X24.6090 Y6.1480
G01 X24.6571 Y6.0549
G01 X24.6403 Y6.0304
G01 X24.6090 Y5.9875
G01 X24.6571 Y5.8999
G01 X24.6315 Y5.8679
G01 X24.6090 Y5.8412
G01 X24.6571 Y5.7571
G01 X24.6391 Y5.7368
G01 X24.6090 Y5.7044
G01 X24.6571 Y5.6226
G01 X24.6373 Y5.6023
G01 X24.6090 Y5.5747
G01 X24.6571 Y5.4942
G01 X24.6255 Y5.4649
G01 X24.6090 Y5.4503
G01 X24.6571 Y5.3708
G01 X24.6457 Y5.3607
G01 X24.6090 Y5.3298
G01 X24.6571 Y5.2510
G01 X24.6090 Y5.2128
G01 X24.6571 Y5.1345
G01 X24.6259 Y5.1108
G01 X24.6090 Y5.0985
G01 X24.6571 Y5.0205
G01 X24.6304 Y5.0012
G01 X24.6090 Y4.9865
G01 X24.6571 Y4.9086
G01 X24.6303 Y4.8902
G01 X24.6090 Y4.8764
G01 X24.6571 Y4.7986
G01 X24.6256 Y4.7781
G01 X24.6090 Y4.7679
G01 X24.6571 Y4.6901
G01 X24.6162 Y4.6649
G01 X24.6028 Y4.6571
G00 Z2.0000
G00 X25.6435 Y3.8976
G01 F60.00
G01 Z-0.1500
G01 F120.00
G01 X25.6307 Y3.9408
G01 X25.6229 Y3.9701
G01 X25.6159 Y3.9995
G01 X25.6097 Y4.0292
G01 X25.6041 Y4.0590
G01 X25.5993 Y4.0889
G01 X25.5957 Y4.1153
G01 X25.5957 Y4.4247
G01 X25.5993 Y4.4511
G01 X25.6041 Y4.4810
G01 X25.6097 Y4.5108
G01 X25.6159 Y4.5405
G01 X25.6229 Y4.5699
G01 X25.6307 Y4.5992
G01 X25.6435 Y4.6424
G01 X25.5855 Y4.7526
G01 X25.5954 Y4.7774
G01 X25.6082 Y4.8073
G01 X25.6207 Y4.8345
G01 X25.5267 Y4.8489
G01 X25.5391 Y4.8760
G01 X25.5511 Y4.9004
G01 X25.4624 Y4.9273
G01 X25.4727 Y4.9484
G01 X25.4868 Y4.9755
G01 X25.4060 Y4.9961
G01 X25.3155 Y5.1653
G01 X25.2598 Y5.3490
G01 X25.2410 Y5.5400
G01 X25.2598 Y5.7310
G01 X25.3155 Y5.9147
G01 X25.4060 Y6.0839
G01 X25.5277 Y6.2323
G01 X25.6761 Y6.3540
G01 X25.8453 Y6.4445
G01 X26.0290 Y6.5002
G01 X26.2200 Y6.5190
G01 X26.4110 Y6.5002
G01 X26.5947 Y6.4445
G01 X26.7639 Y6.3540
G01 X26.9123 Y6.2323
G01 X27.0340 Y6.0839
G01 X27.1245 Y5.9147
G01 X27.1802 Y5.7310
G01 X27.1990 Y5.5400
G01 X27.1802 Y5.3490
G01 X27.1245 Y5.1653
G01 X27.0340 Y4.9961
G01 X26.9123 Y4.8477
G01 X26.9042 Y4.8409
G01 X26.8968 Y4.8327
G01 X26.8925 Y4.8267
G01 X26.8585 Y4.7736
G01 X26.8535 Y4.7636
G01 X26.8509 Y4.7566
G01 X26.8494 Y4.7512
G01 X26.8481 Y4.7438
G01 X26.8449 Y4.7188
G01 X26.8443 Y4.7091
G01 X26.8443 Y3.8309
G01 X26.8445 Y3.8254
G01 X26.8454 Y3.8181
G01 X26.8480 Y3.8074
G01 X26.8675 Y3.7474
G01 X26.8712 Y3.7388
G01 X26.8748 Y3.7323
G01 X26.8791 Y3.7261
G01 X26.8840 Y3.7205
G01 X26.9026 Y3.7007
G01 X26.9123 Y3.6923
G01 X27.0340 Y3.5439
G01 X27.1245 Y3.3747
G01 X27.1802 Y3.1910
G01 X27.1990 Y3.0000
G01 X27.1802 Y2.8090
G01 X27.1245 Y2.6253
G01 X27.0340 Y2.4561
G01 X26.9123 Y2.3077
G01 X26.7639 Y2.1860
G01 X26.5947 Y2.0955
G01 X26.4110 Y2.0398
G01 X26.2200 Y2.0210
G01 X26.0290 Y2.0398
G01 X25.8453 Y2.0955
G01 X25.6761 Y2.1860
G01 X25.5277 Y2.3077
G01 X25.4060 Y2.4561
G01 X25.3155 Y2.6253
G01 X25.2598 Y2.8090
G01 X25.2410 Y3.0000
G01 X25.2598 Y3.1910
G01 X25.3155 Y3.3747
G01 X25.4060 Y3.5439
G01 X25.5277 Y3.6923
G01 X25.5371 Y3.7004
G01 X25.5443 Y3.7088
G01 X25.5824 Y3.7680
G01 X25.5873 Y3.7782
G01 X25.5906 Y3.7889
G01 X25.5919 Y3.7962
G01 X25.5951 Y3.8212
G01 X25.5957 Y3.8309
G01 X25.5957 Y4.7109
G01 X25.5946 Y4.7219
G01 X25.5920 Y4.7326
G01 X25.5725 Y4.7926
G01 X25.5688 Y4.8012
G01 X25.5642 Y4.8093
G01 X25.5573 Y4.8182
G01 X25.5387 Y4.8379
G01 X25.5346 Y4.8420
G01 X25.5277 Y4.8477
G01 X25.4060 Y4.9961
G01 X25.4001 Y5.0070
G01 X25.4091 Y5.0243
G01 X25.4289 Y5.0602
G01 X25.3485 Y5.1037
G01 X25.3694 Y5.1397
G01 X25.3787 Y5.1548
G01 X25.3031 Y5.2063
G01 X25.3139 Y5.2239
G01 X25.3375 Y5.2602
G01 X25.2683 Y5.3210
G01 X25.2878 Y5.3494
G01 X25.3087 Y5.3783
G01 X25.2496 Y5.4521
G01 X25.2705 Y5.4795
G01 X25.2952 Y5.5103
G01 X25.2464 Y5.5947
G01 X25.2625 Y5.6138
G01 X25.3023 Y5.6585
G01 X25.2670 Y5.7547
G01 X25.3009 Y5.7895
G01 X25.3404 Y5.8279
G01 X25.3307 Y5.9430
G01 X25.3571 Y5.9664
G01 X25.3992 Y6.0018
G01 X25.4356 Y6.0310
G01 X25.4872 Y6.1828
G01 X25.5249 Y6.2088
G01 X25.5729 Y6.2400
G01 X25.6216 Y6.2700
G01 X25.6711 Y6.2988
G01 X25.7212 Y6.3264
G01 X25.7720 Y6.3527
G01 X25.8234 Y6.3779
G01 X25.8755 Y6.4017
G01 X25.9281 Y6.4242
G01 X25.9812 Y6.4455
G01 X26.0348 Y6.4654
G01 X26.0890 Y6.4840
G01 X26.1435 Y6.5013
G01 X26.1966 Y6.5167
G01 X26.3384 Y6.4577
G01 X26.3833 Y6.4672
G01 X26.4374 Y6.4773
G01 X26.4695 Y6.4825
G01 X26.5558 Y6.4025
G01 X26.6098 Y6.4085
G01 X26.6548 Y6.4124
G01 X26.7109 Y6.3244
G01 X26.7699 Y6.3268
G01 X26.7967 Y6.3271
G01 X26.8299 Y6.2358
G01 X26.8686 Y6.2354
G01 X26.9104 Y6.2338
G01 X26.9234 Y6.1416
G01 X26.9583 Y6.1394
G01 X26.9907 Y6.1366
G01 X26.9963 Y6.0444
G01 X27.0386 Y6.0397
G01 X27.0592 Y6.0369
G01 X27.0516 Y5.9456
G01 X27.0686 Y5.9433
G01 X27.1130 Y5.9361
G01 X27.0928 Y5.8468
G01 X27.1326 Y5.8395
G01 X27.1483 Y5.8361
G01 X27.1216 Y5.7483
G01 X27.1509 Y5.7421
G01 X27.1788 Y5.7355
G01 X27.1388 Y5.6510
G01 X27.1648 Y5.6448
G01 X27.1893 Y5.6384
G01 X27.1455 Y5.5554
G01 X27.1740 Y5.5479
G01 X27.1990 Y5.5406
G01 X27.1899 Y5.4477
G01 X27.1787 Y5.4513
G01 X27.1424 Y5.4616
G00 Z2.0000
G00 X27.1301 Y5.3702
G01 F60.00
G01 Z-0.1500
G01 F120.00
G01 X27.1522 Y5.3638
G01 X27.1808 Y5.3547
G01 X27.1553 Y5.2668
G01 X27.1256 Y5.2763
G01 X27.1089 Y5.2811
G00 Z2.0000
G00 X27.0790 Y5.1946
G01 F60.00
G01 Z-0.1500
G01 F120.00
G01 X27.0991 Y5.1888
G01 X27.1287 Y5.1792
G01 X27.0877 Y5.0965
G01 X27.0725 Y5.1013
G01 X27.0402 Y5.1103
G00 Z2.0000
G00 X26.9918 Y5.0281
G01 F60.00
G01 Z-0.1500
G01 F120.00
G01 X27.0092 Y5.0239
G01 X27.0438 Y5.0144
G01 X26.9846 Y4.9358
G01 X26.9542 Y4.9426
G01 X26.9310 Y4.9468
G01 X26.9191 Y4.8561
G01 X26.8931 Y4.8599
G01 X26.8786 Y4.8615
G01 X26.8513 Y4.8635
G01 X26.8574 Y4.7716
G01 X26.8327 Y4.7728
G01 X26.8204 Y4.7729
G01 X26.7965 Y4.7723
G01 X26.7965 Y4.6808
G01 X26.8204 Y4.6815
G01 X26.8443 Y4.6808
G01 X26.8443 Y4.5891
G01 X26.8204 Y4.5900
G01 X26.7965 Y4.5891
G01 X26.7965 Y4.4973
G01 X26.8092 Y4.4983
G01 X26.8204 Y4.4986
G01 X26.8316 Y4.4983
G01 X26.8443 Y4.4973
G01 X26.8443 Y4.4051
G01 X26.8338 Y4.4065
G01 X26.8204 Y4.4072
G01 X26.8069 Y4.4065
G01 X26.7965 Y4.4051
G01 X26.7965 Y4.3090
G01 X26.8018 Y4.3118
G01 X26.8082 Y4.3141
G01 X26.8148 Y4.3154
G01 X26.8204 Y4.3157
G01 X26.8260 Y4.3154
G01 X26.8326 Y4.3141
G01 X26.8389 Y4.3118
G01 X26.8443 Y4.3090
G01 X26.8443 Y4.2310
G01 X26.8389 Y4.2282
G01 X26.8326 Y4.2259
G01 X26.8260 Y4.2246
G01 X26.8204 Y4.2243
G01 X26.8148 Y4.2246
G01 X26.8082 Y4.2259
G01 X26.8018 Y4.2282
G01 X26.7965 Y4.2310
G01 X26.7965 Y4.1349
G01 X26.8069 Y4.1335
G01 X26.8204 Y4.1328
G01 X26.8338 Y4.1335
G01 X26.8443 Y4.1349
G01 X26.8443 Y4.0427
G01 X26.8316 Y4.0417
G01 X26.8204 Y4.0414
G01 X26.8092 Y4.0417
G01 X26.7965 Y4.0427
G01 X26.7965 Y3.9509
G01 X26.8204 Y3.9500
G01 X26.8443 Y3.9509
G01 X26.8443 Y3.8592
G01 X26.8204 Y3.8585
G01 X26.7965 Y3.8592
G01 X26.7965 Y3.7677
G01 X26.8204 Y3.7671
G01 X26.8327 Y3.7672
G01 X26.8606 Y3.7687
G01 X26.8513 Y3.6765
G01 X26.8786 Y3.6785
G01 X26.8931 Y3.6801
G01 X26.9191 Y3.6839
G01 X26.9310 Y3.5932
G01 X26.9542 Y3.5974
G01 X26.9846 Y3.6042
G00 Z2.0000
G00 X26.9918 Y3.5119
G01 F60.00
G01 Z-0.1500
G01 F120.00
G01 X27.0092 Y3.5161
G01 X27.0438 Y3.5256
G01 X27.0877 Y3.4435
G01 X27.0725 Y3.4387
G01 X27.0402 Y3.4297
G00 Z2.0000
G00 X27.0790 Y3.3454
G01 F60.00
G01 Z-0.1500
G01 F120.00
G01 X27.0991 Y3.3512
G01 X27.1287 Y3.3608
G01 X27.1553 Y3.2732
G01 X27.1256 Y3.2637
G01 X27.1089 Y3.2589
G00 Z2.0000
G00 X27.1301 Y3.1698
G01 F60.00
G01 Z-0.1500
G01 F120.00
G01 X27.1522 Y3.1762
G01 X27.1808 Y3.1853
G01 X27.1899 Y3.0923
G01 X27.1787 Y3.0887
G01 X27.1424 Y3.0784
G00 Z2.0000
G00 X27.1455 Y2.9846
G01 F60.00
G01 Z-0.1500
G01 F120.00
G01 X27.1740 Y2.9921
