(G-CODE GENERATED BY FLATCAM v8.994 - www.flatcam.org - Version Date: 2020/11/7)

(Name: EVBPusher_nano.drl_cnc)
(Type: G-code from Geometry)
(Units: MM)

(Created on Monday, 14 April 2025 at 16:51)

(This preprocessor is the default preprocessor used by FlatCAM.)
(It is made to work with MACH3 compatible motion controllers.)


(TOOLS DIAMETER: )
(Tool: 1 -> Dia: 0.8)
(Tool: 2 -> Dia: 1.0)
(Tool: 3 -> Dia: 3.2)

(FEEDRATE Z: )
(Tool: 1 -> Feedrate: 300)
(Tool: 2 -> Feedrate: 300)
(Tool: 3 -> Feedrate: 300)

(FEEDRATE RAPIDS: )
(Tool: 1 -> Feedrate Rapids: 1500)
(Tool: 2 -> Feedrate Rapids: 1500)
(Tool: 3 -> Feedrate Rapids: 1500)

(Z_CUT: )
(Tool: 1 -> Z_Cut: -2.3)
(Tool: 2 -> Z_Cut: -1.7)
(Tool: 3 -> Z_Cut: -1.7)

(Tools Offset: )
(Tool: 1 -> Offset Z: 0.0)

(Z_MOVE: )
(Tool: 1 -> Z_Move: 2)
(Tool: 2 -> Z_Move: 2)
(Tool: 3 -> Z_Move: 2)

(Z Toolchange: 15 mm)
(X,Y Toolchange: 0.0000, 0.0000 mm)
(Z Start: None mm)
(Z End: 0.5 mm)
(X,Y End: None mm)
(Steps per circle: 64)
(Preprocessor Excellon: default)

(X range:    1.4000 ...   45.6000  mm)
(Y range:    1.4000 ...   70.6000  mm)

(Spindle Speed: 7500 RPM)
G21
G90
G94

G01 F300.00

M5
G00 Z15.0000
T1
G00 X0.0000 Y0.0000                
M6
(MSG, Change to Tool Dia = 0.8000 ||| Total drills for tool T1 = 14)
M0
G00 Z15.0000

G01 F300.00
M03 S7500
G00 X23.6830 Y16.0020
G01 Z-2.3000
G01 Z0
G00 Z2.0000
G00 X23.6830 Y8.3820
G01 Z-2.3000
G01 Z0
G00 Z2.0000
G00 X18.6970 Y57.8280
G01 Z-2.3000
G01 Z0
G00 Z2.0000
G00 X16.9010 Y59.6240
G01 Z-2.3000
G01 Z0
G00 Z2.0000
G00 X14.5060 Y57.8280
G01 Z-2.3000
G01 Z0
G00 Z2.0000
G00 X12.7100 Y59.6240
G01 Z-2.3000
G01 Z0
G00 Z2.0000
G00 X10.3150 Y57.8280
G01 Z-2.3000
G01 Z0
G00 Z2.0000
G00 X8.5190 Y59.6240
G01 Z-2.3000
G01 Z0
G00 Z2.0000
G00 X6.7230 Y61.4200
G01 Z-2.3000
G01 Z0
G00 Z2.0000
G00 X10.9140 Y61.4200
G01 Z-2.3000
G01 Z0
G00 Z2.0000
G00 X15.1050 Y61.4200
G01 Z-2.3000
G01 Z0
G00 Z2.0000
G00 X19.2960 Y61.4200
G01 Z-2.3000
G01 Z0
G00 Z2.0000
G00 X21.0920 Y59.6240
G01 Z-2.3000
G01 Z0
G00 Z2.0000
G00 X22.8880 Y57.8280
G01 Z-2.3000
G01 Z0
G00 Z2.0000
M05
G00 Z0.50


