(G-CODE GENERATED BY FLATCAM v8.994 - www.flatcam.org - Version Date: 2020/11/7)

(Name: EVBPusher_nano.drl_mill_cnc)
(Type: G-code from Geometry)
(Units: MM)

(Created on Monday, 14 April 2025 at 16:58)

(This preprocessor is the default preprocessor used by FlatCAM.)
(It is made to work with MACH3 compatible motion controllers.)

(TOOL DIAMETER: 0.8 mm)
(Feedrate_XY: 120.0 mm/min)
(Feedrate_Z: 60.0 mm/min)
(Feedrate rapids 1500.0 mm/min)

(Z_Cut: -2.4 mm)
(Z_Move: 2.0 mm)
(Z Start: None mm)
(Z End: 15.0 mm)
(X,Y End: None mm)
(Steps per circle: 64)
(Preprocessor Geometry: default)

(X range:    1.8000 ...   45.2000  mm)
(Y range:    1.8000 ...   70.2000  mm)

(Spindle Speed: 7500.0 RPM)
G21
G90
G94

G01 F120.00

M5
G00 Z15.0000
G00 X0.0000 Y0.0000
T1
M6    
(MSG, Change to Tool Dia = 0.8000)
M0
G00 Z15.0000

M03 S7500.0
G01 F120.00
G00 X4.2000 Y3.0000
G01 F60.00
G01 Z-2.4000
G01 F120.00
G01 X4.1942 Y2.8824
G01 X4.1769 Y2.7659
G01 X4.1483 Y2.6517
G01 X4.1087 Y2.5408
G01 X4.0583 Y2.4343
G01 X3.9978 Y2.3333
G01 X3.9276 Y2.2387
G01 X3.8485 Y2.1515
G01 X3.7613 Y2.0724
G01 X3.6667 Y2.0022
G01 X3.5657 Y1.9417
G01 X3.4592 Y1.8913
G01 X3.3483 Y1.8517
G01 X3.2341 Y1.8231
G01 X3.1176 Y1.8058
G01 X3.0000 Y1.8000
G01 X2.8824 Y1.8058
G01 X2.7659 Y1.8231
G01 X2.6517 Y1.8517
G01 X2.5408 Y1.8913
G01 X2.4343 Y1.9417
G01 X2.3333 Y2.0022
G01 X2.2387 Y2.0724
G01 X2.1515 Y2.1515
G01 X2.0724 Y2.2387
G01 X2.0022 Y2.3333
G01 X1.9417 Y2.4343
G01 X1.8913 Y2.5408
G01 X1.8517 Y2.6517
G01 X1.8231 Y2.7659
G01 X1.8058 Y2.8824
G01 X1.8000 Y3.0000
G01 X1.8058 Y3.1176
G01 X1.8231 Y3.2341
G01 X1.8517 Y3.3483
G01 X1.8913 Y3.4592
G01 X1.9417 Y3.5657
G01 X2.0022 Y3.6667
G01 X2.0724 Y3.7613
G01 X2.1515 Y3.8485
G01 X2.2387 Y3.9276
G01 X2.3333 Y3.9978
G01 X2.4343 Y4.0583
G01 X2.5408 Y4.1087
G01 X2.6517 Y4.1483
G01 X2.7659 Y4.1769
G01 X2.8824 Y4.1942
G01 X3.0000 Y4.2000
G01 X3.1176 Y4.1942
G01 X3.2341 Y4.1769
G01 X3.3483 Y4.1483
G01 X3.4592 Y4.1087
G01 X3.5657 Y4.0583
G01 X3.6667 Y3.9978
G01 X3.7613 Y3.9276
G01 X3.8485 Y3.8485
G01 X3.9276 Y3.7613
G01 X3.9978 Y3.6667
G01 X4.0583 Y3.5657
G01 X4.1087 Y3.4592
G01 X4.1483 Y3.3483
G01 X4.1769 Y3.2341
G01 X4.1942 Y3.1176
G01 X4.2000 Y3.0000
G00 Z2.0000
G00 X8.5400 Y3.0000
G01 F60.00
G01 Z-2.4000
G01 F120.00
G01 X8.5395 Y2.9902
G01 X8.5381 Y2.9805
G01 X8.5357 Y2.9710
G01 X8.5324 Y2.9617
G01 X8.5282 Y2.9529
G01 X8.5231 Y2.9444
G01 X8.5173 Y2.9366
G01 X8.5107 Y2.9293
G01 X8.5034 Y2.9227
G01 X8.4956 Y2.9169
G01 X8.4871 Y2.9118
G01 X8.4783 Y2.9076
G01 X8.4690 Y2.9043
G01 X8.4595 Y2.9019
G01 X8.4498 Y2.9005
G01 X8.4400 Y2.9000
G01 X8.4302 Y2.9005
G01 X8.4205 Y2.9019
G01 X8.4110 Y2.9043
G01 X8.4017 Y2.9076
G01 X8.3929 Y2.9118
G01 X8.3844 Y2.9169
G01 X8.3766 Y2.9227
G01 X8.3693 Y2.9293
G01 X8.3627 Y2.9366
G01 X8.3569 Y2.9444
G01 X8.3518 Y2.9529
G01 X8.3476 Y2.9617
G01 X8.3443 Y2.9710
G01 X8.3419 Y2.9805
G01 X8.3405 Y2.9902
G01 X8.3400 Y3.0000
G01 X8.3405 Y3.0098
G01 X8.3419 Y3.0195
G01 X8.3443 Y3.0290
G01 X8.3476 Y3.0383
G01 X8.3518 Y3.0471
G01 X8.3569 Y3.0556
G01 X8.3627 Y3.0634
G01 X8.3693 Y3.0707
G01 X8.3766 Y3.0773
G01 X8.3844 Y3.0831
G01 X8.3929 Y3.0882
G01 X8.4017 Y3.0924
G01 X8.4110 Y3.0957
G01 X8.4205 Y3.0981
G01 X8.4302 Y3.0995
G01 X8.4400 Y3.1000
G01 X8.4498 Y3.0995
G01 X8.4595 Y3.0981
G01 X8.4690 Y3.0957
G01 X8.4783 Y3.0924
G01 X8.4871 Y3.0882
G01 X8.4956 Y3.0831
G01 X8.5034 Y3.0773
G01 X8.5107 Y3.0707
G01 X8.5173 Y3.0634
G01 X8.5231 Y3.0556
G01 X8.5282 Y3.0471
G01 X8.5324 Y3.0383
G01 X8.5357 Y3.0290
G01 X8.5381 Y3.0195
G01 X8.5395 Y3.0098
G01 X8.5400 Y3.0000
G00 Z2.0000
G00 X11.0800 Y3.0000
G01 F60.00
G01 Z-2.4000
G01 F120.00
G01 X11.0795 Y2.9902
G01 X11.0781 Y2.9805
G01 X11.0757 Y2.9710
G01 X11.0724 Y2.9617
G01 X11.0682 Y2.9529
G01 X11.0631 Y2.9444
G01 X11.0573 Y2.9366
G01 X11.0507 Y2.9293
G01 X11.0434 Y2.9227
G01 X11.0356 Y2.9169
G01 X11.0271 Y2.9118
G01 X11.0183 Y2.9076
G01 X11.0090 Y2.9043
G01 X10.9995 Y2.9019
G01 X10.9898 Y2.9005
G01 X10.9800 Y2.9000
G01 X10.9702 Y2.9005
G01 X10.9605 Y2.9019
G01 X10.9510 Y2.9043
G01 X10.9417 Y2.9076
G01 X10.9329 Y2.9118
G01 X10.9244 Y2.9169
G01 X10.9166 Y2.9227
G01 X10.9093 Y2.9293
G01 X10.9027 Y2.9366
G01 X10.8969 Y2.9444
G01 X10.8918 Y2.9529
G01 X10.8876 Y2.9617
G01 X10.8843 Y2.9710
G01 X10.8819 Y2.9805
G01 X10.8805 Y2.9902
G01 X10.8800 Y3.0000
G01 X10.8805 Y3.0098
G01 X10.8819 Y3.0195
G01 X10.8843 Y3.0290
G01 X10.8876 Y3.0383
G01 X10.8918 Y3.0471
G01 X10.8969 Y3.0556
G01 X10.9027 Y3.0634
G01 X10.9093 Y3.0707
G01 X10.9166 Y3.0773
G01 X10.9244 Y3.0831
G01 X10.9329 Y3.0882
G01 X10.9417 Y3.0924
G01 X10.9510 Y3.0957
G01 X10.9605 Y3.0981
G01 X10.9702 Y3.0995
G01 X10.9800 Y3.1000
G01 X10.9898 Y3.0995
G01 X10.9995 Y3.0981
G01 X11.0090 Y3.0957
G01 X11.0183 Y3.0924
G01 X11.0271 Y3.0882
G01 X11.0356 Y3.0831
G01 X11.0434 Y3.0773
G01 X11.0507 Y3.0707
G01 X11.0573 Y3.0634
G01 X11.0631 Y3.0556
G01 X11.0682 Y3.0471
G01 X11.0724 Y3.0383
G01 X11.0757 Y3.0290
G01 X11.0781 Y3.0195
G01 X11.0795 Y3.0098
G01 X11.0800 Y3.0000
G00 Z2.0000
G00 X11.0800 Y5.5400
G01 F60.00
G01 Z-2.4000
G01 F120.00
G01 X11.0795 Y5.5302
G01 X11.0781 Y5.5205
G01 X11.0757 Y5.5110
G01 X11.0724 Y5.5017
G01 X11.0682 Y5.4929
G01 X11.0631 Y5.4844
G01 X11.0573 Y5.4766
G01 X11.0507 Y5.4693
G01 X11.0434 Y5.4627
G01 X11.0356 Y5.4569
G01 X11.0271 Y5.4518
G01 X11.0183 Y5.4476
G01 X11.0090 Y5.4443
G01 X10.9995 Y5.4419
G01 X10.9898 Y5.4405
G01 X10.9800 Y5.4400
G01 X10.9702 Y5.4405
G01 X10.9605 Y5.4419
G01 X10.9510 Y5.4443
G01 X10.9417 Y5.4476
G01 X10.9329 Y5.4518
G01 X10.9244 Y5.4569
G01 X10.9166 Y5.4627
G01 X10.9093 Y5.4693
G01 X10.9027 Y5.4766
G01 X10.8969 Y5.4844
G01 X10.8918 Y5.4929
G01 X10.8876 Y5.5017
G01 X10.8843 Y5.5110
G01 X10.8819 Y5.5205
G01 X10.8805 Y5.5302
G01 X10.8800 Y5.5400
G01 X10.8805 Y5.5498
G01 X10.8819 Y5.5595
G01 X10.8843 Y5.5690
G01 X10.8876 Y5.5783
G01 X10.8918 Y5.5871
G01 X10.8969 Y5.5956
G01 X10.9027 Y5.6034
G01 X10.9093 Y5.6107
G01 X10.9166 Y5.6173
G01 X10.9244 Y5.6231
G01 X10.9329 Y5.6282
G01 X10.9417 Y5.6324
G01 X10.9510 Y5.6357
G01 X10.9605 Y5.6381
G01 X10.9702 Y5.6395
G01 X10.9800 Y5.6400
G01 X10.9898 Y5.6395
G01 X10.9995 Y5.6381
G01 X11.0090 Y5.6357
G01 X11.0183 Y5.6324
G01 X11.0271 Y5.6282
G01 X11.0356 Y5.6231
G01 X11.0434 Y5.6173
G01 X11.0507 Y5.6107
G01 X11.0573 Y5.6034
G01 X11.0631 Y5.5956
G01 X11.0682 Y5.5871
G01 X11.0724 Y5.5783
G01 X11.0757 Y5.5690
G01 X11.0781 Y5.5595
G01 X11.0795 Y5.5498
G01 X11.0800 Y5.5400
G00 Z2.0000
G00 X8.5400 Y5.5400
G01 F60.00
G01 Z-2.4000
G01 F120.00
G01 X8.5395 Y5.5302
G01 X8.5381 Y5.5205
G01 X8.5357 Y5.5110
G01 X8.5324 Y5.5017
G01 X8.5282 Y5.4929
G01 X8.5231 Y5.4844
G01 X8.5173 Y5.4766
G01 X8.5107 Y5.4693
G01 X8.5034 Y5.4627
G01 X8.4956 Y5.4569
G01 X8.4871 Y5.4518
G01 X8.4783 Y5.4476
G01 X8.4690 Y5.4443
G01 X8.4595 Y5.4419
G01 X8.4498 Y5.4405
G01 X8.4400 Y5.4400
G01 X8.4302 Y5.4405
G01 X8.4205 Y5.4419
G01 X8.4110 Y5.4443
G01 X8.4017 Y5.4476
G01 X8.3929 Y5.4518
G01 X8.3844 Y5.4569
G01 X8.3766 Y5.4627
G01 X8.3693 Y5.4693
G01 X8.3627 Y5.4766
G01 X8.3569 Y5.4844
G01 X8.3518 Y5.4929
G01 X8.3476 Y5.5017
G01 X8.3443 Y5.5110
G01 X8.3419 Y5.5205
G01 X8.3405 Y5.5302
G01 X8.3400 Y5.5400
G01 X8.3405 Y5.5498
G01 X8.3419 Y5.5595
G01 X8.3443 Y5.5690
G01 X8.3476 Y5.5783
G01 X8.3518 Y5.5871
G01 X8.3569 Y5.5956
G01 X8.3627 Y5.6034
G01 X8.3693 Y5.6107
G01 X8.3766 Y5.6173
G01 X8.3844 Y5.6231
G01 X8.3929 Y5.6282
G01 X8.4017 Y5.6324
G01 X8.4110 Y5.6357
G01 X8.4205 Y5.6381
G01 X8.4302 Y5.6395
G01 X8.4400 Y5.6400
G01 X8.4498 Y5.6395
G01 X8.4595 Y5.6381
G01 X8.4690 Y5.6357
G01 X8.4783 Y5.6324
G01 X8.4871 Y5.6282
G01 X8.4956 Y5.6231
G01 X8.5034 Y5.6173
G01 X8.5107 Y5.6107
G01 X8.5173 Y5.6034
G01 X8.5231 Y5.5956
G01 X8.5282 Y5.5871
G01 X8.5324 Y5.5783
G01 X8.5357 Y5.5690
G01 X8.5381 Y5.5595
G01 X8.5395 Y5.5498
G01 X8.5400 Y5.5400
G00 Z2.0000
G00 X13.6200 Y5.5400
G01 F60.00
G01 Z-2.4000
G01 F120.00
G01 X13.6195 Y5.5302
G01 X13.6181 Y5.5205
G01 X13.6157 Y5.5110
G01 X13.6124 Y5.5017
G01 X13.6082 Y5.4929
G01 X13.6031 Y5.4844
G01 X13.5973 Y5.4766
G01 X13.5907 Y5.4693
G01 X13.5834 Y5.4627
G01 X13.5756 Y5.4569
G01 X13.5671 Y5.4518
G01 X13.5583 Y5.4476
G01 X13.5490 Y5.4443
G01 X13.5395 Y5.4419
G01 X13.5298 Y5.4405
G01 X13.5200 Y5.4400
G01 X13.5102 Y5.4405
G01 X13.5005 Y5.4419
G01 X13.4910 Y5.4443
G01 X13.4817 Y5.4476
G01 X13.4729 Y5.4518
G01 X13.4644 Y5.4569
G01 X13.4566 Y5.4627
G01 X13.4493 Y5.4693
G01 X13.4427 Y5.4766
G01 X13.4369 Y5.4844
G01 X13.4318 Y5.4929
G01 X13.4276 Y5.5017
G01 X13.4243 Y5.5110
G01 X13.4219 Y5.5205
G01 X13.4205 Y5.5302
G01 X13.4200 Y5.5400
G01 X13.4205 Y5.5498
G01 X13.4219 Y5.5595
G01 X13.4243 Y5.5690
G01 X13.4276 Y5.5783
G01 X13.4318 Y5.5871
G01 X13.4369 Y5.5956
G01 X13.4427 Y5.6034
G01 X13.4493 Y5.6107
G01 X13.4566 Y5.6173
G01 X13.4644 Y5.6231
G01 X13.4729 Y5.6282
G01 X13.4817 Y5.6324
G01 X13.4910 Y5.6357
G01 X13.5005 Y5.6381
G01 X13.5102 Y5.6395
G01 X13.5200 Y5.6400
G01 X13.5298 Y5.6395
G01 X13.5395 Y5.6381
G01 X13.5490 Y5.6357
G01 X13.5583 Y5.6324
G01 X13.5671 Y5.6282
G01 X13.5756 Y5.6231
G01 X13.5834 Y5.6173
G01 X13.5907 Y5.6107
G01 X13.5973 Y5.6034
G01 X13.6031 Y5.5956
G01 X13.6082 Y5.5871
G01 X13.6124 Y5.5783
G01 X13.6157 Y5.5690
G01 X13.6181 Y5.5595
G01 X13.6195 Y5.5498
G01 X13.6200 Y5.5400
G00 Z2.0000
G00 X16.1600 Y5.5400
G01 F60.00
G01 Z-2.4000
G01 F120.00
G01 X16.1595 Y5.5302
G01 X16.1581 Y5.5205
G01 X16.1557 Y5.5110
G01 X16.1524 Y5.5017
G01 X16.1482 Y5.4929
G01 X16.1431 Y5.4844
G01 X16.1373 Y5.4766
G01 X16.1307 Y5.4693
G01 X16.1234 Y5.4627
G01 X16.1156 Y5.4569
G01 X16.1071 Y5.4518
G01 X16.0983 Y5.4476
G01 X16.0890 Y5.4443
G01 X16.0795 Y5.4419
G01 X16.0698 Y5.4405
G01 X16.0600 Y5.4400
G01 X16.0502 Y5.4405
G01 X16.0405 Y5.4419
G01 X16.0310 Y5.4443
G01 X16.0217 Y5.4476
G01 X16.0129 Y5.4518
G01 X16.0044 Y5.4569
G01 X15.9966 Y5.4627
G01 X15.9893 Y5.4693
G01 X15.9827 Y5.4766
G01 X15.9769 Y5.4844
G01 X15.9718 Y5.4929
G01 X15.9676 Y5.5017
G01 X15.9643 Y5.5110
G01 X15.9619 Y5.5205
G01 X15.9605 Y5.5302
G01 X15.9600 Y5.5400
G01 X15.9605 Y5.5498
G01 X15.9619 Y5.5595
G01 X15.9643 Y5.5690
G01 X15.9676 Y5.5783
G01 X15.9718 Y5.5871
G01 X15.9769 Y5.5956
G01 X15.9827 Y5.6034
G01 X15.9893 Y5.6107
G01 X15.9966 Y5.6173
G01 X16.0044 Y5.6231
G01 X16.0129 Y5.6282
G01 X16.0217 Y5.6324
G01 X16.0310 Y5.6357
G01 X16.0405 Y5.6381
G01 X16.0502 Y5.6395
G01 X16.0600 Y5.6400
G01 X16.0698 Y5.6395
G01 X16.0795 Y5.6381
G01 X16.0890 Y5.6357
G01 X16.0983 Y5.6324
G01 X16.1071 Y5.6282
G01 X16.1156 Y5.6231
G01 X16.1234 Y5.6173
G01 X16.1307 Y5.6107
G01 X16.1373 Y5.6034
G01 X16.1431 Y5.5956
G01 X16.1482 Y5.5871
G01 X16.1524 Y5.5783
G01 X16.1557 Y5.5690
G01 X16.1581 Y5.5595
G01 X16.1595 Y5.5498
G01 X16.1600 Y5.5400
G00 Z2.0000
G00 X16.1600 Y3.0000
G01 F60.00
G01 Z-2.4000
G01 F120.00
G01 X16.1595 Y2.9902
G01 X16.1581 Y2.9805
G01 X16.1557 Y2.9710
G01 X16.1524 Y2.9617
G01 X16.1482 Y2.9529
G01 X16.1431 Y2.9444
G01 X16.1373 Y2.9366
G01 X16.1307 Y2.9293
G01 X16.1234 Y2.9227
G01 X16.1156 Y2.9169
G01 X16.1071 Y2.9118
G01 X16.0983 Y2.9076
G01 X16.0890 Y2.9043
G01 X16.0795 Y2.9019
G01 X16.0698 Y2.9005
G01 X16.0600 Y2.9000
G01 X16.0502 Y2.9005
G01 X16.0405 Y2.9019
G01 X16.0310 Y2.9043
G01 X16.0217 Y2.9076
G01 X16.0129 Y2.9118
G01 X16.0044 Y2.9169
G01 X15.9966 Y2.9227
G01 X15.9893 Y2.9293
G01 X15.9827 Y2.9366
G01 X15.9769 Y2.9444
G01 X15.9718 Y2.9529
G01 X15.9676 Y2.9617
G01 X15.9643 Y2.9710
G01 X15.9619 Y2.9805
G01 X15.9605 Y2.9902
G01 X15.9600 Y3.0000
G01 X15.9605 Y3.0098
G01 X15.9619 Y3.0195
G01 X15.9643 Y3.0290
G01 X15.9676 Y3.0383
G01 X15.9718 Y3.0471
G01 X15.9769 Y3.0556
G01 X15.9827 Y3.0634
G01 X15.9893 Y3.0707
G01 X15.9966 Y3.0773
G01 X16.0044 Y3.0831
G01 X16.0129 Y3.0882
G01 X16.0217 Y3.0924
G01 X16.0310 Y3.0957
G01 X16.0405 Y3.0981
G01 X16.0502 Y3.0995
G01 X16.0600 Y3.1000
G01 X16.0698 Y3.0995
G01 X16.0795 Y3.0981
G01 X16.0890 Y3.0957
G01 X16.0983 Y3.0924
G01 X16.1071 Y3.0882
G01 X16.1156 Y3.0831
G01 X16.1234 Y3.0773
G01 X16.1307 Y3.0707
G01 X16.1373 Y3.0634
G01 X16.1431 Y3.0556
G01 X16.1482 Y3.0471
G01 X16.1524 Y3.0383
G01 X16.1557 Y3.0290
G01 X16.1581 Y3.0195
G01 X16.1595 Y3.0098
G01 X16.1600 Y3.0000
G00 Z2.0000
G00 X13.6200 Y3.0000
G01 F60.00
G01 Z-2.4000
G01 F120.00
G01 X13.6195 Y2.9902
G01 X13.6181 Y2.9805
G01 X13.6157 Y2.9710
G01 X13.6124 Y2.9617
G01 X13.6082 Y2.9529
G01 X13.6031 Y2.9444
G01 X13.5973 Y2.9366
G01 X13.5907 Y2.9293
G01 X13.5834 Y2.9227
G01 X13.5756 Y2.9169
G01 X13.5671 Y2.9118
G01 X13.5583 Y2.9076
G01 X13.5490 Y2.9043
G01 X13.5395 Y2.9019
G01 X13.5298 Y2.9005
G01 X13.5200 Y2.9000
G01 X13.5102 Y2.9005
G01 X13.5005 Y2.9019
G01 X13.4910 Y2.9043
G01 X13.4817 Y2.9076
G01 X13.4729 Y2.9118
G01 X13.4644 Y2.9169
G01 X13.4566 Y2.9227
G01 X13.4493 Y2.9293
G01 X13.4427 Y2.9366
G01 X13.4369 Y2.9444
G01 X13.4318 Y2.9529
G01 X13.4276 Y2.9617
G01 X13.4243 Y2.9710
G01 X13.4219 Y2.9805
G01 X13.4205 Y2.9902
G01 X13.4200 Y3.0000
G01 X13.4205 Y3.0098
G01 X13.4219 Y3.0195
G01 X13.4243 Y3.0290
G01 X13.4276 Y3.0383
G01 X13.4318 Y3.0471
G01 X13.4369 Y3.0556
G01 X13.4427 Y3.0634
G01 X13.4493 Y3.0707
G01 X13.4566 Y3.0773
G01 X13.4644 Y3.0831
G01 X13.4729 Y3.0882
G01 X13.4817 Y3.0924
G01 X13.4910 Y3.0957
G01 X13.5005 Y3.0981
G01 X13.5102 Y3.0995
G01 X13.5200 Y3.1000
G01 X13.5298 Y3.0995
G01 X13.5395 Y3.0981
G01 X13.5490 Y3.0957
G01 X13.5583 Y3.0924
G01 X13.5671 Y3.0882
G01 X13.5756 Y3.0831
G01 X13.5834 Y3.0773
G01 X13.5907 Y3.0707
G01 X13.5973 Y3.0634
G01 X13.6031 Y3.0556
G01 X13.6082 Y3.0471
G01 X13.6124 Y3.0383
G01 X13.6157 Y3.0290
G01 X13.6181 Y3.0195
G01 X13.6195 Y3.0098
G01 X13.6200 Y3.0000
G00 Z2.0000
G00 X18.7000 Y3.0000
G01 F60.00
G01 Z-2.4000
G01 F120.00
G01 X18.6995 Y2.9902
G01 X18.6981 Y2.9805
G01 X18.6957 Y2.9710
G01 X18.6924 Y2.9617
G01 X18.6882 Y2.9529
G01 X18.6831 Y2.9444
G01 X18.6773 Y2.9366
G01 X18.6707 Y2.9293
G01 X18.6634 Y2.9227
G01 X18.6556 Y2.9169
G01 X18.6471 Y2.9118
G01 X18.6383 Y2.9076
G01 X18.6290 Y2.9043
G01 X18.6195 Y2.9019
G01 X18.6098 Y2.9005
G01 X18.6000 Y2.9000
G01 X18.5902 Y2.9005
G01 X18.5805 Y2.9019
G01 X18.5710 Y2.9043
G01 X18.5617 Y2.9076
G01 X18.5529 Y2.9118
G01 X18.5444 Y2.9169
G01 X18.5366 Y2.9227
G01 X18.5293 Y2.9293
G01 X18.5227 Y2.9366
G01 X18.5169 Y2.9444
G01 X18.5118 Y2.9529
G01 X18.5076 Y2.9617
G01 X18.5043 Y2.9710
G01 X18.5019 Y2.9805
G01 X18.5005 Y2.9902
G01 X18.5000 Y3.0000
G01 X18.5005 Y3.0098
G01 X18.5019 Y3.0195
G01 X18.5043 Y3.0290
G01 X18.5076 Y3.0383
G01 X18.5118 Y3.0471
G01 X18.5169 Y3.0556
G01 X18.5227 Y3.0634
G01 X18.5293 Y3.0707
G01 X18.5366 Y3.0773
G01 X18.5444 Y3.0831
G01 X18.5529 Y3.0882
G01 X18.5617 Y3.0924
G01 X18.5710 Y3.0957
G01 X18.5805 Y3.0981
G01 X18.5902 Y3.0995
G01 X18.6000 Y3.1000
G01 X18.6098 Y3.0995
G01 X18.6195 Y3.0981
G01 X18.6290 Y3.0957
G01 X18.6383 Y3.0924
G01 X18.6471 Y3.0882
G01 X18.6556 Y3.0831
G01 X18.6634 Y3.0773
G01 X18.6707 Y3.0707
G01 X18.6773 Y3.0634
G01 X18.6831 Y3.0556
G01 X18.6882 Y3.0471
G01 X18.6924 Y3.0383
G01 X18.6957 Y3.0290
G01 X18.6981 Y3.0195
G01 X18.6995 Y3.0098
G01 X18.7000 Y3.0000
G00 Z2.0000
G00 X21.2400 Y3.0000
G01 F60.00
G01 Z-2.4000
G01 F120.00
G01 X21.2395 Y2.9902
G01 X21.2381 Y2.9805
G01 X21.2357 Y2.9710
G01 X21.2324 Y2.9617
G01 X21.2282 Y2.9529
G01 X21.2231 Y2.9444
G01 X21.2173 Y2.9366
G01 X21.2107 Y2.9293
G01 X21.2034 Y2.9227
G01 X21.1956 Y2.9169
G01 X21.1871 Y2.9118
G01 X21.1783 Y2.9076
G01 X21.1690 Y2.9043
G01 X21.1595 Y2.9019
G01 X21.1498 Y2.9005
G01 X21.1400 Y2.9000
G01 X21.1302 Y2.9005
G01 X21.1205 Y2.9019
G01 X21.1110 Y2.9043
G01 X21.1017 Y2.9076
G01 X21.0929 Y2.9118
G01 X21.0844 Y2.9169
G01 X21.0766 Y2.9227
G01 X21.0693 Y2.9293
G01 X21.0627 Y2.9366
G01 X21.0569 Y2.9444
G01 X21.0518 Y2.9529
G01 X21.0476 Y2.9617
G01 X21.0443 Y2.9710
G01 X21.0419 Y2.9805
G01 X21.0405 Y2.9902
G01 X21.0400 Y3.0000
G01 X21.0405 Y3.0098
G01 X21.0419 Y3.0195
G01 X21.0443 Y3.0290
G01 X21.0476 Y3.0383
G01 X21.0518 Y3.0471
G01 X21.0569 Y3.0556
G01 X21.0627 Y3.0634
G01 X21.0693 Y3.0707
G01 X21.0766 Y3.0773
G01 X21.0844 Y3.0831
G01 X21.0929 Y3.0882
G01 X21.1017 Y3.0924
G01 X21.1110 Y3.0957
G01 X21.1205 Y3.0981
G01 X21.1302 Y3.0995
G01 X21.1400 Y3.1000
G01 X21.1498 Y3.0995
G01 X21.1595 Y3.0981
G01 X21.1690 Y3.0957
G01 X21.1783 Y3.0924
G01 X21.1871 Y3.0882
G01 X21.1956 Y3.0831
G01 X21.2034 Y3.0773
G01 X21.2107 Y3.0707
G01 X21.2173 Y3.0634
G01 X21.2231 Y3.0556
G01 X21.2282 Y3.0471
G01 X21.2324 Y3.0383
G01 X21.2357 Y3.0290
G01 X21.2381 Y3.0195
G01 X21.2395 Y3.0098
G01 X21.2400 Y3.0000
G00 Z2.0000
G00 X21.2400 Y5.5400
G01 F60.00
G01 Z-2.4000
G01 F120.00
G01 X21.2395 Y5.5302
G01 X21.2381 Y5.5205
G01 X21.2357 Y5.5110
G01 X21.2324 Y5.5017
G01 X21.2282 Y5.4929
G01 X21.2231 Y5.4844
G01 X21.2173 Y5.4766
G01 X21.2107 Y5.4693
G01 X21.2034 Y5.4627
G01 X21.1956 Y5.4569
G01 X21.1871 Y5.4518
G01 X21.1783 Y5.4476
G01 X21.1690 Y5.4443
G01 X21.1595 Y5.4419
G01 X21.1498 Y5.4405
G01 X21.1400 Y5.4400
G01 X21.1302 Y5.4405
G01 X21.1205 Y5.4419
G01 X21.1110 Y5.4443
G01 X21.1017 Y5.4476
G01 X21.0929 Y5.4518
G01 X21.0844 Y5.4569
G01 X21.0766 Y5.4627
G01 X21.0693 Y5.4693
G01 X21.0627 Y5.4766
G01 X21.0569 Y5.4844
G01 X21.0518 Y5.4929
G01 X21.0476 Y5.5017
G01 X21.0443 Y5.5110
G01 X21.0419 Y5.5205
G01 X21.0405 Y5.5302
G01 X21.0400 Y5.5400
G01 X21.0405 Y5.5498
G01 X21.0419 Y5.5595
G01 X21.0443 Y5.5690
G01 X21.0476 Y5.5783
G01 X21.0518 Y5.5871
G01 X21.0569 Y5.5956
G01 X21.0627 Y5.6034
G01 X21.0693 Y5.6107
G01 X21.0766 Y5.6173
G01 X21.0844 Y5.6231
G01 X21.0929 Y5.6282
G01 X21.1017 Y5.6324
G01 X21.1110 Y5.6357
G01 X21.1205 Y5.6381
G01 X21.1302 Y5.6395
G01 X21.1400 Y5.6400
G01 X21.1498 Y5.6395
G01 X21.1595 Y5.6381
G01 X21.1690 Y5.6357
G01 X21.1783 Y5.6324
G01 X21.1871 Y5.6282
G01 X21.1956 Y5.6231
G01 X21.2034 Y5.6173
G01 X21.2107 Y5.6107
G01 X21.2173 Y5.6034
G01 X21.2231 Y5.5956
G01 X21.2282 Y5.5871
G01 X21.2324 Y5.5783
G01 X21.2357 Y5.5690
G01 X21.2381 Y5.5595
G01 X21.2395 Y5.5498
G01 X21.2400 Y5.5400
G00 Z2.0000
G00 X18.7000 Y5.5400
G01 F60.00
G01 Z-2.4000
G01 F120.00
G01 X18.6995 Y5.5302
G01 X18.6981 Y5.5205
G01 X18.6957 Y5.5110
G01 X18.6924 Y5.5017
G01 X18.6882 Y5.4929
G01 X18.6831 Y5.4844
G01 X18.6773 Y5.4766
G01 X18.6707 Y5.4693
G01 X18.6634 Y5.4627
G01 X18.6556 Y5.4569
G01 X18.6471 Y5.4518
G01 X18.6383 Y5.4476
G01 X18.6290 Y5.4443
G01 X18.6195 Y5.4419
G01 X18.6098 Y5.4405
G01 X18.6000 Y5.4400
G01 X18.5902 Y5.4405
G01 X18.5805 Y5.4419
G01 X18.5710 Y5.4443
G01 X18.5617 Y5.4476
G01 X18.5529 Y5.4518
G01 X18.5444 Y5.4569
G01 X18.5366 Y5.4627
G01 X18.5293 Y5.4693
G01 X18.5227 Y5.4766
G01 X18.5169 Y5.4844
G01 X18.5118 Y5.4929
G01 X18.5076 Y5.5017
G01 X18.5043 Y5.5110
G01 X18.5019 Y5.5205
G01 X18.5005 Y5.5302
G01 X18.5000 Y5.5400
G01 X18.5005 Y5.5498
G01 X18.5019 Y5.5595
G01 X18.5043 Y5.5690
G01 X18.5076 Y5.5783
G01 X18.5118 Y5.5871
G01 X18.5169 Y5.5956
G01 X18.5227 Y5.6034
G01 X18.5293 Y5.6107
G01 X18.5366 Y5.6173
G01 X18.5444 Y5.6231
G01 X18.5529 Y5.6282
G01 X18.5617 Y5.6324
G01 X18.5710 Y5.6357
G01 X18.5805 Y5.6381
G01 X18.5902 Y5.6395
G01 X18.6000 Y5.6400
G01 X18.6098 Y5.6395
G01 X18.6195 Y5.6381
G01 X18.6290 Y5.6357
G01 X18.6383 Y5.6324
G01 X18.6471 Y5.6282
G01 X18.6556 Y5.6231
G01 X18.6634 Y5.6173
G01 X18.6707 Y5.6107
G01 X18.6773 Y5.6034
G01 X18.6831 Y5.5956
G01 X18.6882 Y5.5871
G01 X18.6924 Y5.5783
G01 X18.6957 Y5.5690
G01 X18.6981 Y5.5595
G01 X18.6995 Y5.5498
G01 X18.7000 Y5.5400
G00 Z2.0000
G00 X23.7830 Y5.5370
G01 F60.00
G01 Z-2.4000
G01 F120.00
G01 X23.7825 Y5.5272
G01 X23.7811 Y5.5175
G01 X23.7787 Y5.5080
G01 X23.7754 Y5.4987
G01 X23.7712 Y5.4899
G01 X23.7661 Y5.4814
G01 X23.7603 Y5.4736
G01 X23.7537 Y5.4663
G01 X23.7464 Y5.4597
G01 X23.7386 Y5.4539
G01 X23.7301 Y5.4488
G01 X23.7213 Y5.4446
G01 X23.7120 Y5.4413
G01 X23.7025 Y5.4389
G01 X23.6928 Y5.4375
G01 X23.6830 Y5.4370
G01 X23.6732 Y5.4375
G01 X23.6635 Y5.4389
G01 X23.6540 Y5.4413
G01 X23.6447 Y5.4446
G01 X23.6359 Y5.4488
G01 X23.6274 Y5.4539
G01 X23.6196 Y5.4597
G01 X23.6123 Y5.4663
G01 X23.6057 Y5.4736
G01 X23.5999 Y5.4814
G01 X23.5948 Y5.4899
G01 X23.5906 Y5.4987
G01 X23.5873 Y5.5080
G01 X23.5849 Y5.5175
G01 X23.5835 Y5.5272
G01 X23.5830 Y5.5370
G01 X23.5835 Y5.5468
G01 X23.5849 Y5.5565
G01 X23.5873 Y5.5660
G01 X23.5906 Y5.5753
G01 X23.5948 Y5.5841
G01 X23.5999 Y5.5926
G01 X23.6057 Y5.6004
G01 X23.6123 Y5.6077
G01 X23.6196 Y5.6143
G01 X23.6274 Y5.6201
G01 X23.6359 Y5.6252
G01 X23.6447 Y5.6294
G01 X23.6540 Y5.6327
G01 X23.6635 Y5.6351
G01 X23.6732 Y5.6365
G01 X23.6830 Y5.6370
G01 X23.6928 Y5.6365
G01 X23.7025 Y5.6351
G01 X23.7120 Y5.6327
G01 X23.7213 Y5.6294
G01 X23.7301 Y5.6252
G01 X23.7386 Y5.6201
G01 X23.7464 Y5.6143
G01 X23.7537 Y5.6077
G01 X23.7603 Y5.6004
G01 X23.7661 Y5.5926
G01 X23.7712 Y5.5841
G01 X23.7754 Y5.5753
G01 X23.7787 Y5.5660
G01 X23.7811 Y5.5565
G01 X23.7825 Y5.5468
G01 X23.7830 Y5.5370
G00 Z2.0000
G00 X26.3200 Y5.5400
G01 F60.00
G01 Z-2.4000
G01 F120.00
G01 X26.3195 Y5.5302
G01 X26.3181 Y5.5205
G01 X26.3157 Y5.5110
G01 X26.3124 Y5.5017
G01 X26.3082 Y5.4929
G01 X26.3031 Y5.4844
G01 X26.2973 Y5.4766
G01 X26.2907 Y5.4693
G01 X26.2834 Y5.4627
G01 X26.2756 Y5.4569
G01 X26.2671 Y5.4518
G01 X26.2583 Y5.4476
G01 X26.2490 Y5.4443
G01 X26.2395 Y5.4419
G01 X26.2298 Y5.4405
G01 X26.2200 Y5.4400
G01 X26.2102 Y5.4405
G01 X26.2005 Y5.4419
G01 X26.1910 Y5.4443
G01 X26.1817 Y5.4476
G01 X26.1729 Y5.4518
G01 X26.1644 Y5.4569
G01 X26.1566 Y5.4627
G01 X26.1493 Y5.4693
G01 X26.1427 Y5.4766
G01 X26.1369 Y5.4844
G01 X26.1318 Y5.4929
G01 X26.1276 Y5.5017
G01 X26.1243 Y5.5110
G01 X26.1219 Y5.5205
G01 X26.1205 Y5.5302
G01 X26.1200 Y5.5400
G01 X26.1205 Y5.5498
G01 X26.1219 Y5.5595
G01 X26.1243 Y5.5690
G01 X26.1276 Y5.5783
G01 X26.1318 Y5.5871
G01 X26.1369 Y5.5956
G01 X26.1427 Y5.6034
G01 X26.1493 Y5.6107
G01 X26.1566 Y5.6173
G01 X26.1644 Y5.6231
G01 X26.1729 Y5.6282
G01 X26.1817 Y5.6324
G01 X26.1910 Y5.6357
G01 X26.2005 Y5.6381
G01 X26.2102 Y5.6395
G01 X26.2200 Y5.6400
G01 X26.2298 Y5.6395
G01 X26.2395 Y5.6381
G01 X26.2490 Y5.6357
G01 X26.2583 Y5.6324
G01 X26.2671 Y5.6282
G01 X26.2756 Y5.6231
G01 X26.2834 Y5.6173
G01 X26.2907 Y5.6107
G01 X26.2973 Y5.6034
G01 X26.3031 Y5.5956
G01 X26.3082 Y5.5871
G01 X26.3124 Y5.5783
G01 X26.3157 Y5.5690
G01 X26.3181 Y5.5595
G01 X26.3195 Y5.5498
G01 X26.3200 Y5.5400
G00 Z2.0000
G00 X26.3200 Y3.0000
G01 F60.00
G01 Z-2.4000
G01 F120.00
G01 X26.3195 Y2.9902
G01 X26.3181 Y2.9805
G01 X26.3157 Y2.9710
G01 X26.3124 Y2.9617
G01 X26.3082 Y2.9529
G01 X26.3031 Y2.9444
G01 X26.2973 Y2.9366
G01 X26.2907 Y2.9293
G01 X26.2834 Y2.9227
G01 X26.2756 Y2.9169
G01 X26.2671 Y2.9118
G01 X26.2583 Y2.9076
G01 X26.2490 Y2.9043
G01 X26.2395 Y2.9019
G01 X26.2298 Y2.9005
G01 X26.2200 Y2.9000
G01 X26.2102 Y2.9005
G01 X26.2005 Y2.9019
G01 X26.1910 Y2.9043
G01 X26.1817 Y2.9076
G01 X26.1729 Y2.9118
G01 X26.1644 Y2.9169
G01 X26.1566 Y2.9227
G01 X26.1493 Y2.9293
G01 X26.1427 Y2.9366
G01 X26.1369 Y2.9444
G01 X26.1318 Y2.9529
G01 X26.1276 Y2.9617
G01 X26.1243 Y2.9710
G01 X26.1219 Y2.9805
G01 X26.1205 Y2.9902
G01 X26.1200 Y3.0000
G01 X26.1205 Y3.0098
G01 X26.1219 Y3.0195
G01 X26.1243 Y3.0290
G01 X26.1276 Y3.0383
G01 X26.1318 Y3.0471
G01 X26.1369 Y3.0556
G01 X26.1427 Y3.0634
G01 X26.1493 Y3.0707
G01 X26.1566 Y3.0773
G01 X26.1644 Y3.0831
G01 X26.1729 Y3.0882
G01 X26.1817 Y3.0924
G01 X26.1910 Y3.0957
G01 X26.2005 Y3.0981
G01 X26.2102 Y3.0995
G01 X26.2200 Y3.1000
G01 X26.2298 Y3.0995
G01 X26.2395 Y3.0981
G01 X26.2490 Y3.0957
G01 X26.2583 Y3.0924
G01 X26.2671 Y3.0882
G01 X26.2756 Y3.0831
G01 X26.2834 Y3.0773
G01 X26.2907 Y3.0707
G01 X26.2973 Y3.0634
G01 X26.3031 Y3.0556
G01 X26.3082 Y3.0471
G01 X26.3124 Y3.0383
G01 X26.3157 Y3.0290
G01 X26.3181 Y3.0195
G01 X26.3195 Y3.0098
G01 X26.3200 Y3.0000
G00 Z2.0000
G00 X23.7830 Y2.9970
G01 F60.00
G01 Z-2.4000
G01 F120.00
G01 X23.7825 Y2.9872
G01 X23.7811 Y2.9775
G01 X23.7787 Y2.9680
G01 X23.7754 Y2.9587
G01 X23.7712 Y2.9499
G01 X23.7661 Y2.9414
G01 X23.7603 Y2.9336
G01 X23.7537 Y2.9263
G01 X23.7464 Y2.9197
G01 X23.7386 Y2.9139
G01 X23.7301 Y2.9088
G01 X23.7213 Y2.9046
G01 X23.7120 Y2.9013
G01 X23.7025 Y2.8989
G01 X23.6928 Y2.8975
G01 X23.6830 Y2.8970
G01 X23.6732 Y2.8975
G01 X23.6635 Y2.8989
G01 X23.6540 Y2.9013
G01 X23.6447 Y2.9046
G01 X23.6359 Y2.9088
G01 X23.6274 Y2.9139
G01 X23.6196 Y2.9197
G01 X23.6123 Y2.9263
G01 X23.6057 Y2.9336
G01 X23.5999 Y2.9414
G01 X23.5948 Y2.9499
G01 X23.5906 Y2.9587
G01 X23.5873 Y2.9680
G01 X23.5849 Y2.9775
G01 X23.5835 Y2.9872
G01 X23.5830 Y2.9970
G01 X23.5835 Y3.0068
G01 X23.5849 Y3.0165
G01 X23.5873 Y3.0260
G01 X23.5906 Y3.0353
G01 X23.5948 Y3.0441
G01 X23.5999 Y3.0526
G01 X23.6057 Y3.0604
G01 X23.6123 Y3.0677
G01 X23.6196 Y3.0743
G01 X23.6274 Y3.0801
G01 X23.6359 Y3.0852
G01 X23.6447 Y3.0894
G01 X23.6540 Y3.0927
G01 X23.6635 Y3.0951
G01 X23.6732 Y3.0965
G01 X23.6830 Y3.0970
G01 X23.6928 Y3.0965
G01 X23.7025 Y3.0951
G01 X23.7120 Y3.0927
G01 X23.7213 Y3.0894
G01 X23.7301 Y3.0852
G01 X23.7386 Y3.0801
G01 X23.7464 Y3.0743
G01 X23.7537 Y3.0677
G01 X23.7603 Y3.0604
G01 X23.7661 Y3.0526
G01 X23.7712 Y3.0441
G01 X23.7754 Y3.0353
G01 X23.7787 Y3.0260
G01 X23.7811 Y3.0165
G01 X23.7825 Y3.0068
G01 X23.7830 Y2.9970
G00 Z2.0000
G00 X28.8600 Y3.0000
G01 F60.00
G01 Z-2.4000
G01 F120.00
G01 X28.8595 Y2.9902
G01 X28.8581 Y2.9805
G01 X28.8557 Y2.9710
G01 X28.8524 Y2.9617
G01 X28.8482 Y2.9529
G01 X28.8431 Y2.9444
G01 X28.8373 Y2.9366
G01 X28.8307 Y2.9293
G01 X28.8234 Y2.9227
G01 X28.8156 Y2.9169
G01 X28.8071 Y2.9118
G01 X28.7983 Y2.9076
G01 X28.7890 Y2.9043
G01 X28.7795 Y2.9019
G01 X28.7698 Y2.9005
G01 X28.7600 Y2.9000
G01 X28.7502 Y2.9005
G01 X28.7405 Y2.9019
G01 X28.7310 Y2.9043
G01 X28.7217 Y2.9076
G01 X28.7129 Y2.9118
G01 X28.7044 Y2.9169
G01 X28.6966 Y2.9227
G01 X28.6893 Y2.9293
G01 X28.6827 Y2.9366
G01 X28.6769 Y2.9444
G01 X28.6718 Y2.9529
G01 X28.6676 Y2.9617
G01 X28.6643 Y2.9710
G01 X28.6619 Y2.9805
G01 X28.6605 Y2.9902
G01 X28.6600 Y3.0000
G01 X28.6605 Y3.0098
G01 X28.6619 Y3.0195
G01 X28.6643 Y3.0290
G01 X28.6676 Y3.0383
G01 X28.6718 Y3.0471
G01 X28.6769 Y3.0556
G01 X28.6827 Y3.0634
G01 X28.6893 Y3.0707
G01 X28.6966 Y3.0773
G01 X28.7044 Y3.0831
G01 X28.7129 Y3.0882
G01 X28.7217 Y3.0924
G01 X28.7310 Y3.0957
G01 X28.7405 Y3.0981
G01 X28.7502 Y3.0995
G01 X28.7600 Y3.1000
G01 X28.7698 Y3.0995
G01 X28.7795 Y3.0981
G01 X28.7890 Y3.0957
G01 X28.7983 Y3.0924
G01 X28.8071 Y3.0882
G01 X28.8156 Y3.0831
G01 X28.8234 Y3.0773
G01 X28.8307 Y3.0707
G01 X28.8373 Y3.0634
G01 X28.8431 Y3.0556
G01 X28.8482 Y3.0471
G01 X28.8524 Y3.0383
G01 X28.8557 Y3.0290
G01 X28.8581 Y3.0195
G01 X28.8595 Y3.0098
G01 X28.8600 Y3.0000
G00 Z2.0000
G00 X31.4000 Y3.0000
G01 F60.00
G01 Z-2.4000
G01 F120.00
G01 X31.3995 Y2.9902
G01 X31.3981 Y2.9805
G01 X31.3957 Y2.9710
G01 X31.3924 Y2.9617
G01 X31.3882 Y2.9529
G01 X31.3831 Y2.9444
G01 X31.3773 Y2.9366
G01 X31.3707 Y2.9293
G01 X31.3634 Y2.9227
G01 X31.3556 Y2.9169
G01 X31.3471 Y2.9118
G01 X31.3383 Y2.9076
G01 X31.3290 Y2.9043
G01 X31.3195 Y2.9019
G01 X31.3098 Y2.9005
G01 X31.3000 Y2.9000
G01 X31.2902 Y2.9005
G01 X31.2805 Y2.9019
G01 X31.2710 Y2.9043
G01 X31.2617 Y2.9076
G01 X31.2529 Y2.9118
G01 X31.2444 Y2.9169
G01 X31.2366 Y2.9227
G01 X31.2293 Y2.9293
G01 X31.2227 Y2.9366
G01 X31.2169 Y2.9444
G01 X31.2118 Y2.9529
G01 X31.2076 Y2.9617
G01 X31.2043 Y2.9710
G01 X31.2019 Y2.9805
G01 X31.2005 Y2.9902
G01 X31.2000 Y3.0000
G01 X31.2005 Y3.0098
G01 X31.2019 Y3.0195
G01 X31.2043 Y3.0290
G01 X31.2076 Y3.0383
G01 X31.2118 Y3.0471
G01 X31.2169 Y3.0556
G01 X31.2227 Y3.0634
G01 X31.2293 Y3.0707
G01 X31.2366 Y3.0773
G01 X31.2444 Y3.0831
G01 X31.2529 Y3.0882
G01 X31.2617 Y3.0924
G01 X31.2710 Y3.0957
G01 X31.2805 Y3.0981
G01 X31.2902 Y3.0995
G01 X31.3000 Y3.1000
G01 X31.3098 Y3.0995
G01 X31.3195 Y3.0981
G01 X31.3290 Y3.0957
G01 X31.3383 Y3.0924
G01 X31.3471 Y3.0882
G01 X31.3556 Y3.0831
G01 X31.3634 Y3.0773
G01 X31.3707 Y3.0707
G01 X31.3773 Y3.0634
G01 X31.3831 Y3.0556
G01 X31.3882 Y3.0471
G01 X31.3924 Y3.0383
G01 X31.3957 Y3.0290
G01 X31.3981 Y3.0195
G01 X31.3995 Y3.0098
G01 X31.4000 Y3.0000
G00 Z2.0000
G00 X31.4000 Y5.5400
G01 F60.00
G01 Z-2.4000
G01 F120.00
G01 X31.3995 Y5.5302
G01 X31.3981 Y5.5205
G01 X31.3957 Y5.5110
G01 X31.3924 Y5.5017
G01 X31.3882 Y5.4929
G01 X31.3831 Y5.4844
G01 X31.3773 Y5.4766
G01 X31.3707 Y5.4693
G01 X31.3634 Y5.4627
G01 X31.3556 Y5.4569
G01 X31.3471 Y5.4518
G01 X31.3383 Y5.4476
G01 X31.3290 Y5.4443
G01 X31.3195 Y5.4419
G01 X31.3098 Y5.4405
G01 X31.3000 Y5.4400
G01 X31.2902 Y5.4405
G01 X31.2805 Y5.4419
G01 X31.2710 Y5.4443
G01 X31.2617 Y5.4476
G01 X31.2529 Y5.4518
G01 X31.2444 Y5.4569
G01 X31.2366 Y5.4627
G01 X31.2293 Y5.4693
G01 X31.2227 Y5.4766
G01 X31.2169 Y5.4844
G01 X31.2118 Y5.4929
G01 X31.2076 Y5.5017
G01 X31.2043 Y5.5110
G01 X31.2019 Y5.5205
G01 X31.2005 Y5.5302
G01 X31.2000 Y5.5400
G01 X31.2005 Y5.5498
G01 X31.2019 Y5.5595
G01 X31.2043 Y5.5690
G01 X31.2076 Y5.5783
G01 X31.2118 Y5.5871
G01 X31.2169 Y5.5956
G01 X31.2227 Y5.6034
G01 X31.2293 Y5.6107
G01 X31.2366 Y5.6173
G01 X31.2444 Y5.6231
G01 X31.2529 Y5.6282
G01 X31.2617 Y5.6324
G01 X31.2710 Y5.6357
G01 X31.2805 Y5.6381
G01 X31.2902 Y5.6395
G01 X31.3000 Y5.6400
G01 X31.3098 Y5.6395
G01 X31.3195 Y5.6381
G01 X31.3290 Y5.6357
G01 X31.3383 Y5.6324
G01 X31.3471 Y5.6282
G01 X31.3556 Y5.6231
G01 X31.3634 Y5.6173
G01 X31.3707 Y5.6107
G01 X31.3773 Y5.6034
G01 X31.3831 Y5.5956
G01 X31.3882 Y5.5871
G01 X31.3924 Y5.5783
G01 X31.3957 Y5.5690
G01 X31.3981 Y5.5595
G01 X31.3995 Y5.5498
G01 X31.4000 Y5.5400
G00 Z2.0000
G00 X28.8600 Y5.5400
G01 F60.00
G01 Z-2.4000
G01 F120.00
G01 X28.8595 Y5.5302
G01 X28.8581 Y5.5205
G01 X28.8557 Y5.5110
G01 X28.8524 Y5.5017
G01 X28.8482 Y5.4929
G01 X28.8431 Y5.4844
G01 X28.8373 Y5.4766
G01 X28.8307 Y5.4693
G01 X28.8234 Y5.4627
G01 X28.8156 Y5.4569
G01 X28.8071 Y5.4518
G01 X28.7983 Y5.4476
G01 X28.7890 Y5.4443
G01 X28.7795 Y5.4419
G01 X28.7698 Y5.4405
G01 X28.7600 Y5.4400
G01 X28.7502 Y5.4405
G01 X28.7405 Y5.4419
G01 X28.7310 Y5.4443
G01 X28.7217 Y5.4476
G01 X28.7129 Y5.4518
G01 X28.7044 Y5.4569
G01 X28.6966 Y5.4627
G01 X28.6893 Y5.4693
G01 X28.6827 Y5.4766
G01 X28.6769 Y5.4844
G01 X28.6718 Y5.4929
G01 X28.6676 Y5.5017
G01 X28.6643 Y5.5110
G01 X28.6619 Y5.5205
G01 X28.6605 Y5.5302
G01 X28.6600 Y5.5400
G01 X28.6605 Y5.5498
G01 X28.6619 Y5.5595
G01 X28.6643 Y5.5690
G01 X28.6676 Y5.5783
G01 X28.6718 Y5.5871
G01 X28.6769 Y5.5956
G01 X28.6827 Y5.6034
G01 X28.6893 Y5.6107
G01 X28.6966 Y5.6173
G01 X28.7044 Y5.6231
G01 X28.7129 Y5.6282
G01 X28.7217 Y5.6324
G01 X28.7310 Y5.6357
G01 X28.7405 Y5.6381
G01 X28.7502 Y5.6395
G01 X28.7600 Y5.6400
G01 X28.7698 Y5.6395
G01 X28.7795 Y5.6381
G01 X28.7890 Y5.6357
G01 X28.7983 Y5.6324
G01 X28.8071 Y5.6282
G01 X28.8156 Y5.6231
G01 X28.8234 Y5.6173
G01 X28.8307 Y5.6107
G01 X28.8373 Y5.6034
G01 X28.8431 Y5.5956
G01 X28.8482 Y5.5871
G01 X28.8524 Y5.5783
G01 X28.8557 Y5.5690
G01 X28.8581 Y5.5595
G01 X28.8595 Y5.5498
G01 X28.8600 Y5.5400
G00 Z2.0000
G00 X33.9400 Y5.5400
G01 F60.00
G01 Z-2.4000
G01 F120.00
G01 X33.9395 Y5.5302
G01 X33.9381 Y5.5205
G01 X33.9357 Y5.5110
G01 X33.9324 Y5.5017
G01 X33.9282 Y5.4929
G01 X33.9231 Y5.4844
G01 X33.9173 Y5.4766
G01 X33.9107 Y5.4693
G01 X33.9034 Y5.4627
G01 X33.8956 Y5.4569
G01 X33.8871 Y5.4518
G01 X33.8783 Y5.4476
G01 X33.8690 Y5.4443
G01 X33.8595 Y5.4419
G01 X33.8498 Y5.4405
G01 X33.8400 Y5.4400
G01 X33.8302 Y5.4405
G01 X33.8205 Y5.4419
G01 X33.8110 Y5.4443
G01 X33.8017 Y5.4476
G01 X33.7929 Y5.4518
G01 X33.7844 Y5.4569
G01 X33.7766 Y5.4627
G01 X33.7693 Y5.4693
G01 X33.7627 Y5.4766
G01 X33.7569 Y5.4844
G01 X33.7518 Y5.4929
G01 X33.7476 Y5.5017
G01 X33.7443 Y5.5110
G01 X33.7419 Y5.5205
G01 X33.7405 Y5.5302
G01 X33.7400 Y5.5400
G01 X33.7405 Y5.5498
G01 X33.7419 Y5.5595
G01 X33.7443 Y5.5690
G01 X33.7476 Y5.5783
G01 X33.7518 Y5.5871
G01 X33.7569 Y5.5956
G01 X33.7627 Y5.6034
G01 X33.7693 Y5.6107
G01 X33.7766 Y5.6173
G01 X33.7844 Y5.6231
G01 X33.7929 Y5.6282
G01 X33.8017 Y5.6324
G01 X33.8110 Y5.6357
G01 X33.8205 Y5.6381
G01 X33.8302 Y5.6395
G01 X33.8400 Y5.6400
G01 X33.8498 Y5.6395
G01 X33.8595 Y5.6381
G01 X33.8690 Y5.6357
G01 X33.8783 Y5.6324
G01 X33.8871 Y5.6282
G01 X33.8956 Y5.6231
G01 X33.9034 Y5.6173
G01 X33.9107 Y5.6107
G01 X33.9173 Y5.6034
G01 X33.9231 Y5.5956
G01 X33.9282 Y5.5871
G01 X33.9324 Y5.5783
G01 X33.9357 Y5.5690
G01 X33.9381 Y5.5595
G01 X33.9395 Y5.5498
G01 X33.9400 Y5.5400
G00 Z2.0000
G00 X36.4800 Y5.5400
G01 F60.00
G01 Z-2.4000
G01 F120.00
G01 X36.4795 Y5.5302
G01 X36.4781 Y5.5205
G01 X36.4757 Y5.5110
G01 X36.4724 Y5.5017
G01 X36.4682 Y5.4929
G01 X36.4631 Y5.4844
G01 X36.4573 Y5.4766
G01 X36.4507 Y5.4693
G01 X36.4434 Y5.4627
G01 X36.4356 Y5.4569
G01 X36.4271 Y5.4518
G01 X36.4183 Y5.4476
G01 X36.4090 Y5.4443
G01 X36.3995 Y5.4419
G01 X36.3898 Y5.4405
G01 X36.3800 Y5.4400
G01 X36.3702 Y5.4405
G01 X36.3605 Y5.4419
G01 X36.3510 Y5.4443
G01 X36.3417 Y5.4476
G01 X36.3329 Y5.4518
G01 X36.3244 Y5.4569
G01 X36.3166 Y5.4627
G01 X36.3093 Y5.4693
G01 X36.3027 Y5.4766
G01 X36.2969 Y5.4844
G01 X36.2918 Y5.4929
G01 X36.2876 Y5.5017
G01 X36.2843 Y5.5110
G01 X36.2819 Y5.5205
G01 X36.2805 Y5.5302
G01 X36.2800 Y5.5400
G01 X36.2805 Y5.5498
G01 X36.2819 Y5.5595
G01 X36.2843 Y5.5690
G01 X36.2876 Y5.5783
G01 X36.2918 Y5.5871
G01 X36.2969 Y5.5956
G01 X36.3027 Y5.6034
G01 X36.3093 Y5.6107
G01 X36.3166 Y5.6173
G01 X36.3244 Y5.6231
G01 X36.3329 Y5.6282
G01 X36.3417 Y5.6324
G01 X36.3510 Y5.6357
G01 X36.3605 Y5.6381
G01 X36.3702 Y5.6395
G01 X36.3800 Y5.6400
G01 X36.3898 Y5.6395
G01 X36.3995 Y5.6381
G01 X36.4090 Y5.6357
G01 X36.4183 Y5.6324
G01 X36.4271 Y5.6282
G01 X36.4356 Y5.6231
G01 X36.4434 Y5.6173
G01 X36.4507 Y5.6107
G01 X36.4573 Y5.6034
G01 X36.4631 Y5.5956
G01 X36.4682 Y5.5871
G01 X36.4724 Y5.5783
G01 X36.4757 Y5.5690
G01 X36.4781 Y5.5595
G01 X36.4795 Y5.5498
G01 X36.4800 Y5.5400
G00 Z2.0000
G00 X39.0200 Y5.5400
G01 F60.00
G01 Z-2.4000
G01 F120.00
G01 X39.0195 Y5.5302
G01 X39.0181 Y5.5205
G01 X39.0157 Y5.5110
G01 X39.0124 Y5.5017
G01 X39.0082 Y5.4929
G01 X39.0031 Y5.4844
G01 X38.9973 Y5.4766
G01 X38.9907 Y5.4693
G01 X38.9834 Y5.4627
G01 X38.9756 Y5.4569
G01 X38.9671 Y5.4518
G01 X38.9583 Y5.4476
G01 X38.9490 Y5.4443
G01 X38.9395 Y5.4419
G01 X38.9298 Y5.4405
G01 X38.9200 Y5.4400
G01 X38.9102 Y5.4405
G01 X38.9005 Y5.4419
G01 X38.8910 Y5.4443
G01 X38.8817 Y5.4476
G01 X38.8729 Y5.4518
G01 X38.8644 Y5.4569
G01 X38.8566 Y5.4627
G01 X38.8493 Y5.4693
G01 X38.8427 Y5.4766
G01 X38.8369 Y5.4844
G01 X38.8318 Y5.4929
G01 X38.8276 Y5.5017
G01 X38.8243 Y5.5110
G01 X38.8219 Y5.5205
G01 X38.8205 Y5.5302
G01 X38.8200 Y5.5400
G01 X38.8205 Y5.5498
G01 X38.8219 Y5.5595
G01 X38.8243 Y5.5690
G01 X38.8276 Y5.5783
G01 X38.8318 Y5.5871
G01 X38.8369 Y5.5956
G01 X38.8427 Y5.6034
G01 X38.8493 Y5.6107
G01 X38.8566 Y5.6173
G01 X38.8644 Y5.6231
G01 X38.8729 Y5.6282
G01 X38.8817 Y5.6324
G01 X38.8910 Y5.6357
G01 X38.9005 Y5.6381
G01 X38.9102 Y5.6395
G01 X38.9200 Y5.6400
G01 X38.9298 Y5.6395
G01 X38.9395 Y5.6381
G01 X38.9490 Y5.6357
G01 X38.9583 Y5.6324
G01 X38.9671 Y5.6282
G01 X38.9756 Y5.6231
G01 X38.9834 Y5.6173
G01 X38.9907 Y5.6107
G01 X38.9973 Y5.6034
G01 X39.0031 Y5.5956
G01 X39.0082 Y5.5871
G01 X39.0124 Y5.5783
G01 X39.0157 Y5.5690
G01 X39.0181 Y5.5595
G01 X39.0195 Y5.5498
G01 X39.0200 Y5.5400
G00 Z2.0000
G00 X39.0200 Y3.0000
G01 F60.00
G01 Z-2.4000
G01 F120.00
G01 X39.0195 Y2.9902
G01 X39.0181 Y2.9805
G01 X39.0157 Y2.9710
G01 X39.0124 Y2.9617
G01 X39.0082 Y2.9529
G01 X39.0031 Y2.9444
G01 X38.9973 Y2.9366
G01 X38.9907 Y2.9293
G01 X38.9834 Y2.9227
G01 X38.9756 Y2.9169
G01 X38.9671 Y2.9118
G01 X38.9583 Y2.9076
G01 X38.9490 Y2.9043
G01 X38.9395 Y2.9019
G01 X38.9298 Y2.9005
G01 X38.9200 Y2.9000
G01 X38.9102 Y2.9005
G01 X38.9005 Y2.9019
G01 X38.8910 Y2.9043
G01 X38.8817 Y2.9076
G01 X38.8729 Y2.9118
G01 X38.8644 Y2.9169
G01 X38.8566 Y2.9227
G01 X38.8493 Y2.9293
G01 X38.8427 Y2.9366
G01 X38.8369 Y2.9444
G01 X38.8318 Y2.9529
G01 X38.8276 Y2.9617
G01 X38.8243 Y2.9710
G01 X38.8219 Y2.9805
G01 X38.8205 Y2.9902
G01 X38.8200 Y3.0000
G01 X38.8205 Y3.0098
G01 X38.8219 Y3.0195
G01 X38.8243 Y3.0290
G01 X38.8276 Y3.0383
G01 X38.8318 Y3.0471
G01 X38.8369 Y3.0556
G01 X38.8427 Y3.0634
G01 X38.8493 Y3.0707
G01 X38.8566 Y3.0773
G01 X38.8644 Y3.0831
G01 X38.8729 Y3.0882
G01 X38.8817 Y3.0924
G01 X38.8910 Y3.0957
G01 X38.9005 Y3.0981
G01 X38.9102 Y3.0995
G01 X38.9200 Y3.1000
G01 X38.9298 Y3.0995
G01 X38.9395 Y3.0981
G01 X38.9490 Y3.0957
G01 X38.9583 Y3.0924
G01 X38.9671 Y3.0882
G01 X38.9756 Y3.0831
G01 X38.9834 Y3.0773
G01 X38.9907 Y3.0707
G01 X38.9973 Y3.0634
G01 X39.0031 Y3.0556
G01 X39.0082 Y3.0471
G01 X39.0124 Y3.0383
G01 X39.0157 Y3.0290
G01 X39.0181 Y3.0195
G01 X39.0195 Y3.0098
G01 X39.0200 Y3.0000
G00 Z2.0000
G00 X36.4800 Y3.0000
G01 F60.00
G01 Z-2.4000
G01 F120.00
G01 X36.4795 Y2.9902
G01 X36.4781 Y2.9805
G01 X36.4757 Y2.9710
G01 X36.4724 Y2.9617
G01 X36.4682 Y2.9529
G01 X36.4631 Y2.9444
G01 X36.4573 Y2.9366
G01 X36.4507 Y2.9293
G01 X36.4434 Y2.9227
G01 X36.4356 Y2.9169
G01 X36.4271 Y2.9118
G01 X36.4183 Y2.9076
G01 X36.4090 Y2.9043
G01 X36.3995 Y2.9019
G01 X36.3898 Y2.9005
G01 X36.3800 Y2.9000
G01 X36.3702 Y2.9005
G01 X36.3605 Y2.9019
G01 X36.3510 Y2.9043
G01 X36.3417 Y2.9076
G01 X36.3329 Y2.9118
G01 X36.3244 Y2.9169
G01 X36.3166 Y2.9227
G01 X36.3093 Y2.9293
G01 X36.3027 Y2.9366
G01 X36.2969 Y2.9444
G01 X36.2918 Y2.9529
G01 X36.2876 Y2.9617
G01 X36.2843 Y2.9710
G01 X36.2819 Y2.9805
G01 X36.2805 Y2.9902
G01 X36.2800 Y3.0000
G01 X36.2805 Y3.0098
G01 X36.2819 Y3.0195
G01 X36.2843 Y3.0290
G01 X36.2876 Y3.0383
G01 X36.2918 Y3.0471
G01 X36.2969 Y3.0556
G01 X36.3027 Y3.0634
G01 X36.3093 Y3.0707
G01 X36.3166 Y3.0773
G01 X36.3244 Y3.0831
G01 X36.3329 Y3.0882
G01 X36.3417 Y3.0924
G01 X36.3510 Y3.0957
G01 X36.3605 Y3.0981
G01 X36.3702 Y3.0995
G01 X36.3800 Y3.1000
G01 X36.3898 Y3.0995
G01 X36.3995 Y3.0981
G01 X36.4090 Y3.0957
G01 X36.4183 Y3.0924
G01 X36.4271 Y3.0882
G01 X36.4356 Y3.0831
G01 X36.4434 Y3.0773
G01 X36.4507 Y3.0707
G01 X36.4573 Y3.0634
G01 X36.4631 Y3.0556
G01 X36.4682 Y3.0471
G01 X36.4724 Y3.0383
G01 X36.4757 Y3.0290
G01 X36.4781 Y3.0195
G01 X36.4795 Y3.0098
G01 X36.4800 Y3.0000
G00 Z2.0000
G00 X33.9400 Y3.0000
G01 F60.00
G01 Z-2.4000
G01 F120.00
G01 X33.9395 Y2.9902
G01 X33.9381 Y2.9805
G01 X33.9357 Y2.9710
G01 X33.9324 Y2.9617
G01 X33.9282 Y2.9529
G01 X33.9231 Y2.9444
G01 X33.9173 Y2.9366
G01 X33.9107 Y2.9293
G01 X33.9034 Y2.9227
G01 X33.8956 Y2.9169
G01 X33.8871 Y2.9118
G01 X33.8783 Y2.9076
G01 X33.8690 Y2.9043
G01 X33.8595 Y2.9019
G01 X33.8498 Y2.9005
G01 X33.8400 Y2.9000
G01 X33.8302 Y2.9005
G01 X33.8205 Y2.9019
G01 X33.8110 Y2.9043
G01 X33.8017 Y2.9076
G01 X33.7929 Y2.9118
G01 X33.7844 Y2.9169
G01 X33.7766 Y2.9227
G01 X33.7693 Y2.9293
G01 X33.7627 Y2.9366
G01 X33.7569 Y2.9444
G01 X33.7518 Y2.9529
G01 X33.7476 Y2.9617
G01 X33.7443 Y2.9710
G01 X33.7419 Y2.9805
G01 X33.7405 Y2.9902
G01 X33.7400 Y3.0000
G01 X33.7405 Y3.0098
G01 X33.7419 Y3.0195
G01 X33.7443 Y3.0290
G01 X33.7476 Y3.0383
G01 X33.7518 Y3.0471
G01 X33.7569 Y3.0556
G01 X33.7627 Y3.0634
G01 X33.7693 Y3.0707
G01 X33.7766 Y3.0773
G01 X33.7844 Y3.0831
G01 X33.7929 Y3.0882
G01 X33.8017 Y3.0924
G01 X33.8110 Y3.0957
G01 X33.8205 Y3.0981
G01 X33.8302 Y3.0995
G01 X33.8400 Y3.1000
G01 X33.8498 Y3.0995
G01 X33.8595 Y3.0981
G01 X33.8690 Y3.0957
G01 X33.8783 Y3.0924
G01 X33.8871 Y3.0882
G01 X33.8956 Y3.0831
G01 X33.9034 Y3.0773
G01 X33.9107 Y3.0707
G01 X33.9173 Y3.0634
G01 X33.9231 Y3.0556
G01 X33.9282 Y3.0471
G01 X33.9324 Y3.0383
G01 X33.9357 Y3.0290
G01 X33.9381 Y3.0195
G01 X33.9395 Y3.0098
G01 X33.9400 Y3.0000
G00 Z2.0000
G00 X45.2000 Y3.0000
G01 F60.00
G01 Z-2.4000
G01 F120.00
G01 X45.1942 Y2.8824
G01 X45.1769 Y2.7659
G01 X45.1483 Y2.6517
G01 X45.1087 Y2.5408
G01 X45.0583 Y2.4343
G01 X44.9978 Y2.3333
G01 X44.9276 Y2.2387
G01 X44.8485 Y2.1515
G01 X44.7613 Y2.0724
G01 X44.6667 Y2.0022
G01 X44.5657 Y1.9417
G01 X44.4592 Y1.8913
G01 X44.3483 Y1.8517
G01 X44.2341 Y1.8231
G01 X44.1176 Y1.8058
G01 X44.0000 Y1.8000
G01 X43.8824 Y1.8058
G01 X43.7659 Y1.8231
G01 X43.6517 Y1.8517
G01 X43.5408 Y1.8913
G01 X43.4343 Y1.9417
G01 X43.3333 Y2.0022
G01 X43.2387 Y2.0724
G01 X43.1515 Y2.1515
G01 X43.0724 Y2.2387
G01 X43.0022 Y2.3333
G01 X42.9417 Y2.4343
G01 X42.8913 Y2.5408
G01 X42.8517 Y2.6517
G01 X42.8231 Y2.7659
G01 X42.8058 Y2.8824
G01 X42.8000 Y3.0000
G01 X42.8058 Y3.1176
G01 X42.8231 Y3.2341
G01 X42.8517 Y3.3483
G01 X42.8913 Y3.4592
G01 X42.9417 Y3.5657
G01 X43.0022 Y3.6667
G01 X43.0724 Y3.7613
G01 X43.1515 Y3.8485
G01 X43.2387 Y3.9276
G01 X43.3333 Y3.9978
G01 X43.4343 Y4.0583
G01 X43.5408 Y4.1087
G01 X43.6517 Y4.1483
G01 X43.7659 Y4.1769
G01 X43.8824 Y4.1942
G01 X44.0000 Y4.2000
G01 X44.1176 Y4.1942
G01 X44.2341 Y4.1769
G01 X44.3483 Y4.1483
G01 X44.4592 Y4.1087
G01 X44.5657 Y4.0583
G01 X44.6667 Y3.9978
G01 X44.7613 Y3.9276
G01 X44.8485 Y3.8485
G01 X44.9276 Y3.7613
G01 X44.9978 Y3.6667
G01 X45.0583 Y3.5657
G01 X45.1087 Y3.4592
G01 X45.1483 Y3.3483
G01 X45.1769 Y3.2341
G01 X45.1942 Y3.1176
G01 X45.2000 Y3.0000
G00 Z2.0000
G00 X39.0200 Y20.7800
G01 F60.00
G01 Z-2.4000
G01 F120.00
G01 X39.0195 Y20.7702
G01 X39.0181 Y20.7605
G01 X39.0157 Y20.7510
G01 X39.0124 Y20.7417
G01 X39.0082 Y20.7329
G01 X39.0031 Y20.7244
G01 X38.9973 Y20.7166
G01 X38.9907 Y20.7093
G01 X38.9834 Y20.7027
G01 X38.9756 Y20.6969
G01 X38.9671 Y20.6918
G01 X38.9583 Y20.6876
G01 X38.9490 Y20.6843
G01 X38.9395 Y20.6819
G01 X38.9298 Y20.6805
G01 X38.9200 Y20.6800
G01 X38.9102 Y20.6805
G01 X38.9005 Y20.6819
G01 X38.8910 Y20.6843
G01 X38.8817 Y20.6876
G01 X38.8729 Y20.6918
G01 X38.8644 Y20.6969
G01 X38.8566 Y20.7027
G01 X38.8493 Y20.7093
G01 X38.8427 Y20.7166
G01 X38.8369 Y20.7244
G01 X38.8318 Y20.7329
G01 X38.8276 Y20.7417
G01 X38.8243 Y20.7510
G01 X38.8219 Y20.7605
G01 X38.8205 Y20.7702
G01 X38.8200 Y20.7800
G01 X38.8205 Y20.7898
G01 X38.8219 Y20.7995
G01 X38.8243 Y20.8090
G01 X38.8276 Y20.8183
G01 X38.8318 Y20.8271
G01 X38.8369 Y20.8356
G01 X38.8427 Y20.8434
G01 X38.8493 Y20.8507
G01 X38.8566 Y20.8573
G01 X38.8644 Y20.8631
G01 X38.8729 Y20.8682
G01 X38.8817 Y20.8724
G01 X38.8910 Y20.8757
G01 X38.9005 Y20.8781
G01 X38.9102 Y20.8795
G01 X38.9200 Y20.8800
G01 X38.9298 Y20.8795
G01 X38.9395 Y20.8781
G01 X38.9490 Y20.8757
G01 X38.9583 Y20.8724
G01 X38.9671 Y20.8682
G01 X38.9756 Y20.8631
G01 X38.9834 Y20.8573
G01 X38.9907 Y20.8507
G01 X38.9973 Y20.8434
G01 X39.0031 Y20.8356
G01 X39.0082 Y20.8271
G01 X39.0124 Y20.8183
G01 X39.0157 Y20.8090
G01 X39.0181 Y20.7995
G01 X39.0195 Y20.7898
G01 X39.0200 Y20.7800
G00 Z2.0000
G00 X36.4800 Y20.7800
G01 F60.00
G01 Z-2.4000
G01 F120.00
G01 X36.4795 Y20.7702
G01 X36.4781 Y20.7605
G01 X36.4757 Y20.7510
G01 X36.4724 Y20.7417
G01 X36.4682 Y20.7329
G01 X36.4631 Y20.7244
G01 X36.4573 Y20.7166
G01 X36.4507 Y20.7093
G01 X36.4434 Y20.7027
G01 X36.4356 Y20.6969
G01 X36.4271 Y20.6918
G01 X36.4183 Y20.6876
G01 X36.4090 Y20.6843
G01 X36.3995 Y20.6819
G01 X36.3898 Y20.6805
G01 X36.3800 Y20.6800
G01 X36.3702 Y20.6805
G01 X36.3605 Y20.6819
G01 X36.3510 Y20.6843
G01 X36.3417 Y20.6876
G01 X36.3329 Y20.6918
G01 X36.3244 Y20.6969
G01 X36.3166 Y20.7027
G01 X36.3093 Y20.7093
G01 X36.3027 Y20.7166
G01 X36.2969 Y20.7244
G01 X36.2918 Y20.7329
G01 X36.2876 Y20.7417
G01 X36.2843 Y20.7510
G01 X36.2819 Y20.7605
G01 X36.2805 Y20.7702
G01 X36.2800 Y20.7800
G01 X36.2805 Y20.7898
G01 X36.2819 Y20.7995
G01 X36.2843 Y20.8090
G01 X36.2876 Y20.8183
G01 X36.2918 Y20.8271
G01 X36.2969 Y20.8356
G01 X36.3027 Y20.8434
G01 X36.3093 Y20.8507
G01 X36.3166 Y20.8573
G01 X36.3244 Y20.8631
G01 X36.3329 Y20.8682
G01 X36.3417 Y20.8724
G01 X36.3510 Y20.8757
G01 X36.3605 Y20.8781
G01 X36.3702 Y20.8795
G01 X36.3800 Y20.8800
G01 X36.3898 Y20.8795
G01 X36.3995 Y20.8781
G01 X36.4090 Y20.8757
G01 X36.4183 Y20.8724
G01 X36.4271 Y20.8682
G01 X36.4356 Y20.8631
G01 X36.4434 Y20.8573
G01 X36.4507 Y20.8507
G01 X36.4573 Y20.8434
G01 X36.4631 Y20.8356
G01 X36.4682 Y20.8271
G01 X36.4724 Y20.8183
G01 X36.4757 Y20.8090
G01 X36.4781 Y20.7995
G01 X36.4795 Y20.7898
G01 X36.4800 Y20.7800
G00 Z2.0000
G00 X33.9400 Y20.7800
G01 F60.00
G01 Z-2.4000
G01 F120.00
G01 X33.9395 Y20.7702
G01 X33.9381 Y20.7605
G01 X33.9357 Y20.7510
G01 X33.9324 Y20.7417
G01 X33.9282 Y20.7329
G01 X33.9231 Y20.7244
G01 X33.9173 Y20.7166
G01 X33.9107 Y20.7093
G01 X33.9034 Y20.7027
G01 X33.8956 Y20.6969
G01 X33.8871 Y20.6918
G01 X33.8783 Y20.6876
G01 X33.8690 Y20.6843
G01 X33.8595 Y20.6819
G01 X33.8498 Y20.6805
G01 X33.8400 Y20.6800
G01 X33.8302 Y20.6805
G01 X33.8205 Y20.6819
G01 X33.8110 Y20.6843
G01 X33.8017 Y20.6876
G01 X33.7929 Y20.6918
G01 X33.7844 Y20.6969
G01 X33.7766 Y20.7027
G01 X33.7693 Y20.7093
G01 X33.7627 Y20.7166
G01 X33.7569 Y20.7244
G01 X33.7518 Y20.7329
G01 X33.7476 Y20.7417
G01 X33.7443 Y20.7510
G01 X33.7419 Y20.7605
G01 X33.7405 Y20.7702
G01 X33.7400 Y20.7800
G01 X33.7405 Y20.7898
G01 X33.7419 Y20.7995
G01 X33.7443 Y20.8090
G01 X33.7476 Y20.8183
G01 X33.7518 Y20.8271
G01 X33.7569 Y20.8356
G01 X33.7627 Y20.8434
G01 X33.7693 Y20.8507
G01 X33.7766 Y20.8573
G01 X33.7844 Y20.8631
G01 X33.7929 Y20.8682
G01 X33.8017 Y20.8724
G01 X33.8110 Y20.8757
G01 X33.8205 Y20.8781
G01 X33.8302 Y20.8795
G01 X33.8400 Y20.8800
G01 X33.8498 Y20.8795
G01 X33.8595 Y20.8781
G01 X33.8690 Y20.8757
G01 X33.8783 Y20.8724
G01 X33.8871 Y20.8682
G01 X33.8956 Y20.8631
G01 X33.9034 Y20.8573
G01 X33.9107 Y20.8507
G01 X33.9173 Y20.8434
G01 X33.9231 Y20.8356
G01 X33.9282 Y20.8271
G01 X33.9324 Y20.8183
G01 X33.9357 Y20.8090
G01 X33.9381 Y20.7995
G01 X33.9395 Y20.7898
G01 X33.9400 Y20.7800
G00 Z2.0000
G00 X33.9400 Y23.3200
G01 F60.00
G01 Z-2.4000
G01 F120.00
G01 X33.9395 Y23.3102
G01 X33.9381 Y23.3005
G01 X33.9357 Y23.2910
G01 X33.9324 Y23.2817
G01 X33.9282 Y23.2729
G01 X33.9231 Y23.2644
G01 X33.9173 Y23.2566
G01 X33.9107 Y23.2493
G01 X33.9034 Y23.2427
G01 X33.8956 Y23.2369
G01 X33.8871 Y23.2318
G01 X33.8783 Y23.2276
G01 X33.8690 Y23.2243
G01 X33.8595 Y23.2219
G01 X33.8498 Y23.2205
G01 X33.8400 Y23.2200
G01 X33.8302 Y23.2205
G01 X33.8205 Y23.2219
G01 X33.8110 Y23.2243
G01 X33.8017 Y23.2276
G01 X33.7929 Y23.2318
G01 X33.7844 Y23.2369
G01 X33.7766 Y23.2427
G01 X33.7693 Y23.2493
G01 X33.7627 Y23.2566
G01 X33.7569 Y23.2644
G01 X33.7518 Y23.2729
G01 X33.7476 Y23.2817
G01 X33.7443 Y23.2910
G01 X33.7419 Y23.3005
G01 X33.7405 Y23.3102
G01 X33.7400 Y23.3200
G01 X33.7405 Y23.3298
G01 X33.7419 Y23.3395
G01 X33.7443 Y23.3490
G01 X33.7476 Y23.3583
G01 X33.7518 Y23.3671
G01 X33.7569 Y23.3756
G01 X33.7627 Y23.3834
G01 X33.7693 Y23.3907
G01 X33.7766 Y23.3973
G01 X33.7844 Y23.4031
G01 X33.7929 Y23.4082
G01 X33.8017 Y23.4124
G01 X33.8110 Y23.4157
G01 X33.8205 Y23.4181
G01 X33.8302 Y23.4195
G01 X33.8400 Y23.4200
G01 X33.8498 Y23.4195
G01 X33.8595 Y23.4181
G01 X33.8690 Y23.4157
G01 X33.8783 Y23.4124
G01 X33.8871 Y23.4082
G01 X33.8956 Y23.4031
G01 X33.9034 Y23.3973
G01 X33.9107 Y23.3907
G01 X33.9173 Y23.3834
G01 X33.9231 Y23.3756
G01 X33.9282 Y23.3671
G01 X33.9324 Y23.3583
G01 X33.9357 Y23.3490
G01 X33.9381 Y23.3395
G01 X33.9395 Y23.3298
G01 X33.9400 Y23.3200
G00 Z2.0000
G00 X33.9400 Y25.8600
G01 F60.00
G01 Z-2.4000
G01 F120.00
G01 X33.9395 Y25.8502
G01 X33.9381 Y25.8405
G01 X33.9357 Y25.8310
G01 X33.9324 Y25.8217
G01 X33.9282 Y25.8129
G01 X33.9231 Y25.8044
G01 X33.9173 Y25.7966
G01 X33.9107 Y25.7893
G01 X33.9034 Y25.7827
G01 X33.8956 Y25.7769
G01 X33.8871 Y25.7718
G01 X33.8783 Y25.7676
G01 X33.8690 Y25.7643
G01 X33.8595 Y25.7619
G01 X33.8498 Y25.7605
G01 X33.8400 Y25.7600
G01 X33.8302 Y25.7605
G01 X33.8205 Y25.7619
G01 X33.8110 Y25.7643
G01 X33.8017 Y25.7676
G01 X33.7929 Y25.7718
G01 X33.7844 Y25.7769
G01 X33.7766 Y25.7827
G01 X33.7693 Y25.7893
G01 X33.7627 Y25.7966
G01 X33.7569 Y25.8044
G01 X33.7518 Y25.8129
G01 X33.7476 Y25.8217
G01 X33.7443 Y25.8310
G01 X33.7419 Y25.8405
G01 X33.7405 Y25.8502
G01 X33.7400 Y25.8600
G01 X33.7405 Y25.8698
G01 X33.7419 Y25.8795
G01 X33.7443 Y25.8890
G01 X33.7476 Y25.8983
G01 X33.7518 Y25.9071
G01 X33.7569 Y25.9156
G01 X33.7627 Y25.9234
G01 X33.7693 Y25.9307
G01 X33.7766 Y25.9373
G01 X33.7844 Y25.9431
G01 X33.7929 Y25.9482
G01 X33.8017 Y25.9524
G01 X33.8110 Y25.9557
G01 X33.8205 Y25.9581
G01 X33.8302 Y25.9595
G01 X33.8400 Y25.9600
G01 X33.8498 Y25.9595
G01 X33.8595 Y25.9581
G01 X33.8690 Y25.9557
G01 X33.8783 Y25.9524
G01 X33.8871 Y25.9482
G01 X33.8956 Y25.9431
G01 X33.9034 Y25.9373
G01 X33.9107 Y25.9307
G01 X33.9173 Y25.9234
G01 X33.9231 Y25.9156
G01 X33.9282 Y25.9071
G01 X33.9324 Y25.8983
G01 X33.9357 Y25.8890
G01 X33.9381 Y25.8795
G01 X33.9395 Y25.8698
G01 X33.9400 Y25.8600
G00 Z2.0000
G00 X33.9400 Y28.4000
G01 F60.00
G01 Z-2.4000
G01 F120.00
G01 X33.9395 Y28.3902
G01 X33.9381 Y28.3805
G01 X33.9357 Y28.3710
G01 X33.9324 Y28.3617
G01 X33.9282 Y28.3529
G01 X33.9231 Y28.3444
G01 X33.9173 Y28.3366
G01 X33.9107 Y28.3293
G01 X33.9034 Y28.3227
G01 X33.8956 Y28.3169
G01 X33.8871 Y28.3118
G01 X33.8783 Y28.3076
G01 X33.8690 Y28.3043
G01 X33.8595 Y28.3019
G01 X33.8498 Y28.3005
G01 X33.8400 Y28.3000
G01 X33.8302 Y28.3005
G01 X33.8205 Y28.3019
G01 X33.8110 Y28.3043
G01 X33.8017 Y28.3076
G01 X33.7929 Y28.3118
G01 X33.7844 Y28.3169
G01 X33.7766 Y28.3227
G01 X33.7693 Y28.3293
G01 X33.7627 Y28.3366
G01 X33.7569 Y28.3444
G01 X33.7518 Y28.3529
G01 X33.7476 Y28.3617
G01 X33.7443 Y28.3710
G01 X33.7419 Y28.3805
G01 X33.7405 Y28.3902
G01 X33.7400 Y28.4000
G01 X33.7405 Y28.4098
G01 X33.7419 Y28.4195
G01 X33.7443 Y28.4290
G01 X33.7476 Y28.4383
G01 X33.7518 Y28.4471
G01 X33.7569 Y28.4556
G01 X33.7627 Y28.4634
G01 X33.7693 Y28.4707
G01 X33.7766 Y28.4773
G01 X33.7844 Y28.4831
G01 X33.7929 Y28.4882
G01 X33.8017 Y28.4924
G01 X33.8110 Y28.4957
G01 X33.8205 Y28.4981
G01 X33.8302 Y28.4995
G01 X33.8400 Y28.5000
G01 X33.8498 Y28.4995
G01 X33.8595 Y28.4981
G01 X33.8690 Y28.4957
G01 X33.8783 Y28.4924
G01 X33.8871 Y28.4882
G01 X33.8956 Y28.4831
G01 X33.9034 Y28.4773
G01 X33.9107 Y28.4707
G01 X33.9173 Y28.4634
G01 X33.9231 Y28.4556
G01 X33.9282 Y28.4471
G01 X33.9324 Y28.4383
G01 X33.9357 Y28.4290
G01 X33.9381 Y28.4195
G01 X33.9395 Y28.4098
G01 X33.9400 Y28.4000
G00 Z2.0000
G00 X36.4800 Y28.4000
G01 F60.00
G01 Z-2.4000
G01 F120.00
G01 X36.4795 Y28.3902
G01 X36.4781 Y28.3805
G01 X36.4757 Y28.3710
G01 X36.4724 Y28.3617
G01 X36.4682 Y28.3529
G01 X36.4631 Y28.3444
G01 X36.4573 Y28.3366
G01 X36.4507 Y28.3293
G01 X36.4434 Y28.3227
G01 X36.4356 Y28.3169
G01 X36.4271 Y28.3118
G01 X36.4183 Y28.3076
G01 X36.4090 Y28.3043
G01 X36.3995 Y28.3019
G01 X36.3898 Y28.3005
G01 X36.3800 Y28.3000
G01 X36.3702 Y28.3005
G01 X36.3605 Y28.3019
G01 X36.3510 Y28.3043
G01 X36.3417 Y28.3076
G01 X36.3329 Y28.3118
G01 X36.3244 Y28.3169
G01 X36.3166 Y28.3227
G01 X36.3093 Y28.3293
G01 X36.3027 Y28.3366
G01 X36.2969 Y28.3444
G01 X36.2918 Y28.3529
G01 X36.2876 Y28.3617
G01 X36.2843 Y28.3710
G01 X36.2819 Y28.3805
G01 X36.2805 Y28.3902
G01 X36.2800 Y28.4000
G01 X36.2805 Y28.4098
G01 X36.2819 Y28.4195
G01 X36.2843 Y28.4290
G01 X36.2876 Y28.4383
G01 X36.2918 Y28.4471
G01 X36.2969 Y28.4556
G01 X36.3027 Y28.4634
G01 X36.3093 Y28.4707
G01 X36.3166 Y28.4773
G01 X36.3244 Y28.4831
G01 X36.3329 Y28.4882
G01 X36.3417 Y28.4924
G01 X36.3510 Y28.4957
G01 X36.3605 Y28.4981
G01 X36.3702 Y28.4995
G01 X36.3800 Y28.5000
G01 X36.3898 Y28.4995
G01 X36.3995 Y28.4981
G01 X36.4090 Y28.4957
G01 X36.4183 Y28.4924
G01 X36.4271 Y28.4882
G01 X36.4356 Y28.4831
G01 X36.4434 Y28.4773
G01 X36.4507 Y28.4707
G01 X36.4573 Y28.4634
G01 X36.4631 Y28.4556
G01 X36.4682 Y28.4471
G01 X36.4724 Y28.4383
G01 X36.4757 Y28.4290
G01 X36.4781 Y28.4195
G01 X36.4795 Y28.4098
G01 X36.4800 Y28.4000
G00 Z2.0000
G00 X39.0200 Y28.4000
G01 F60.00
G01 Z-2.4000
G01 F120.00
G01 X39.0195 Y28.3902
G01 X39.0181 Y28.3805
G01 X39.0157 Y28.3710
G01 X39.0124 Y28.3617
G01 X39.0082 Y28.3529
G01 X39.0031 Y28.3444
G01 X38.9973 Y28.3366
G01 X38.9907 Y28.3293
G01 X38.9834 Y28.3227
G01 X38.9756 Y28.3169
G01 X38.9671 Y28.3118
G01 X38.9583 Y28.3076
G01 X38.9490 Y28.3043
G01 X38.9395 Y28.3019
G01 X38.9298 Y28.3005
G01 X38.9200 Y28.3000
G01 X38.9102 Y28.3005
G01 X38.9005 Y28.3019
G01 X38.8910 Y28.3043
G01 X38.8817 Y28.3076
G01 X38.8729 Y28.3118
G01 X38.8644 Y28.3169
G01 X38.8566 Y28.3227
G01 X38.8493 Y28.3293
G01 X38.8427 Y28.3366
G01 X38.8369 Y28.3444
G01 X38.8318 Y28.3529
G01 X38.8276 Y28.3617
G01 X38.8243 Y28.3710
G01 X38.8219 Y28.3805
G01 X38.8205 Y28.3902
G01 X38.8200 Y28.4000
G01 X38.8205 Y28.4098
G01 X38.8219 Y28.4195
G01 X38.8243 Y28.4290
G01 X38.8276 Y28.4383
G01 X38.8318 Y28.4471
G01 X38.8369 Y28.4556
G01 X38.8427 Y28.4634
G01 X38.8493 Y28.4707
G01 X38.8566 Y28.4773
G01 X38.8644 Y28.4831
G01 X38.8729 Y28.4882
G01 X38.8817 Y28.4924
G01 X38.8910 Y28.4957
G01 X38.9005 Y28.4981
G01 X38.9102 Y28.4995
G01 X38.9200 Y28.5000
G01 X38.9298 Y28.4995
G01 X38.9395 Y28.4981
G01 X38.9490 Y28.4957
G01 X38.9583 Y28.4924
G01 X38.9671 Y28.4882
G01 X38.9756 Y28.4831
G01 X38.9834 Y28.4773
G01 X38.9907 Y28.4707
G01 X38.9973 Y28.4634
G01 X39.0031 Y28.4556
G01 X39.0082 Y28.4471
G01 X39.0124 Y28.4383
G01 X39.0157 Y28.4290
G01 X39.0181 Y28.4195
G01 X39.0195 Y28.4098
G01 X39.0200 Y28.4000
G00 Z2.0000
G00 X41.5600 Y28.4000
G01 F60.00
G01 Z-2.4000
G01 F120.00
G01 X41.5595 Y28.3902
G01 X41.5581 Y28.3805
G01 X41.5557 Y28.3710
G01 X41.5524 Y28.3617
G01 X41.5482 Y28.3529
G01 X41.5431 Y28.3444
G01 X41.5373 Y28.3366
G01 X41.5307 Y28.3293
G01 X41.5234 Y28.3227
G01 X41.5156 Y28.3169
G01 X41.5071 Y28.3118
G01 X41.4983 Y28.3076
G01 X41.4890 Y28.3043
G01 X41.4795 Y28.3019
G01 X41.4698 Y28.3005
G01 X41.4600 Y28.3000
G01 X41.4502 Y28.3005
G01 X41.4405 Y28.3019
G01 X41.4310 Y28.3043
G01 X41.4217 Y28.3076
G01 X41.4129 Y28.3118
G01 X41.4044 Y28.3169
G01 X41.3966 Y28.3227
G01 X41.3893 Y28.3293
G01 X41.3827 Y28.3366
G01 X41.3769 Y28.3444
G01 X41.3718 Y28.3529
G01 X41.3676 Y28.3617
G01 X41.3643 Y28.3710
G01 X41.3619 Y28.3805
G01 X41.3605 Y28.3902
G01 X41.3600 Y28.4000
G01 X41.3605 Y28.4098
G01 X41.3619 Y28.4195
G01 X41.3643 Y28.4290
G01 X41.3676 Y28.4383
G01 X41.3718 Y28.4471
G01 X41.3769 Y28.4556
G01 X41.3827 Y28.4634
G01 X41.3893 Y28.4707
G01 X41.3966 Y28.4773
G01 X41.4044 Y28.4831
G01 X41.4129 Y28.4882
G01 X41.4217 Y28.4924
G01 X41.4310 Y28.4957
G01 X41.4405 Y28.4981
G01 X41.4502 Y28.4995
G01 X41.4600 Y28.5000
G01 X41.4698 Y28.4995
G01 X41.4795 Y28.4981
G01 X41.4890 Y28.4957
G01 X41.4983 Y28.4924
G01 X41.5071 Y28.4882
G01 X41.5156 Y28.4831
G01 X41.5234 Y28.4773
G01 X41.5307 Y28.4707
G01 X41.5373 Y28.4634
G01 X41.5431 Y28.4556
G01 X41.5482 Y28.4471
G01 X41.5524 Y28.4383
G01 X41.5557 Y28.4290
G01 X41.5581 Y28.4195
G01 X41.5595 Y28.4098
G01 X41.5600 Y28.4000
G00 Z2.0000
G00 X41.5600 Y30.9400
G01 F60.00
G01 Z-2.4000
G01 F120.00
G01 X41.5595 Y30.9302
G01 X41.5581 Y30.9205
G01 X41.5557 Y30.9110
G01 X41.5524 Y30.9017
G01 X41.5482 Y30.8929
G01 X41.5431 Y30.8844
G01 X41.5373 Y30.8766
G01 X41.5307 Y30.8693
G01 X41.5234 Y30.8627
G01 X41.5156 Y30.8569
G01 X41.5071 Y30.8518
G01 X41.4983 Y30.8476
G01 X41.4890 Y30.8443
G01 X41.4795 Y30.8419
G01 X41.4698 Y30.8405
G01 X41.4600 Y30.8400
G01 X41.4502 Y30.8405
G01 X41.4405 Y30.8419
G01 X41.4310 Y30.8443
G01 X41.4217 Y30.8476
G01 X41.4129 Y30.8518
G01 X41.4044 Y30.8569
G01 X41.3966 Y30.8627
G01 X41.3893 Y30.8693
G01 X41.3827 Y30.8766
G01 X41.3769 Y30.8844
G01 X41.3718 Y30.8929
G01 X41.3676 Y30.9017
G01 X41.3643 Y30.9110
G01 X41.3619 Y30.9205
G01 X41.3605 Y30.9302
G01 X41.3600 Y30.9400
G01 X41.3605 Y30.9498
G01 X41.3619 Y30.9595
G01 X41.3643 Y30.9690
G01 X41.3676 Y30.9783
G01 X41.3718 Y30.9871
G01 X41.3769 Y30.9956
G01 X41.3827 Y31.0034
G01 X41.3893 Y31.0107
G01 X41.3966 Y31.0173
G01 X41.4044 Y31.0231
G01 X41.4129 Y31.0282
G01 X41.4217 Y31.0324
G01 X41.4310 Y31.0357
G01 X41.4405 Y31.0381
G01 X41.4502 Y31.0395
G01 X41.4600 Y31.0400
G01 X41.4698 Y31.0395
G01 X41.4795 Y31.0381
G01 X41.4890 Y31.0357
G01 X41.4983 Y31.0324
G01 X41.5071 Y31.0282
G01 X41.5156 Y31.0231
G01 X41.5234 Y31.0173
G01 X41.5307 Y31.0107
G01 X41.5373 Y31.0034
G01 X41.5431 Y30.9956
G01 X41.5482 Y30.9871
G01 X41.5524 Y30.9783
G01 X41.5557 Y30.9690
G01 X41.5581 Y30.9595
G01 X41.5595 Y30.9498
G01 X41.5600 Y30.9400
G00 Z2.0000
G00 X39.0200 Y30.9400
G01 F60.00
G01 Z-2.4000
G01 F120.00
G01 X39.0195 Y30.9302
G01 X39.0181 Y30.9205
G01 X39.0157 Y30.9110
G01 X39.0124 Y30.9017
G01 X39.0082 Y30.8929
G01 X39.0031 Y30.8844
G01 X38.9973 Y30.8766
G01 X38.9907 Y30.8693
G01 X38.9834 Y30.8627
G01 X38.9756 Y30.8569
G01 X38.9671 Y30.8518
G01 X38.9583 Y30.8476
G01 X38.9490 Y30.8443
G01 X38.9395 Y30.8419
G01 X38.9298 Y30.8405
G01 X38.9200 Y30.8400
G01 X38.9102 Y30.8405
G01 X38.9005 Y30.8419
G01 X38.8910 Y30.8443
G01 X38.8817 Y30.8476
G01 X38.8729 Y30.8518
G01 X38.8644 Y30.8569
G01 X38.8566 Y30.8627
G01 X38.8493 Y30.8693
G01 X38.8427 Y30.8766
G01 X38.8369 Y30.8844
G01 X38.8318 Y30.8929
G01 X38.8276 Y30.9017
G01 X38.8243 Y30.9110
G01 X38.8219 Y30.9205
G01 X38.8205 Y30.9302
G01 X38.8200 Y30.9400
G01 X38.8205 Y30.9498
G01 X38.8219 Y30.9595
G01 X38.8243 Y30.9690
G01 X38.8276 Y30.9783
G01 X38.8318 Y30.9871
G01 X38.8369 Y30.9956
G01 X38.8427 Y31.0034
G01 X38.8493 Y31.0107
G01 X38.8566 Y31.0173
G01 X38.8644 Y31.0231
G01 X38.8729 Y31.0282
G01 X38.8817 Y31.0324
G01 X38.8910 Y31.0357
G01 X38.9005 Y31.0381
G01 X38.9102 Y31.0395
G01 X38.9200 Y31.0400
G01 X38.9298 Y31.0395
G01 X38.9395 Y31.0381
G01 X38.9490 Y31.0357
G01 X38.9583 Y31.0324
G01 X38.9671 Y31.0282
G01 X38.9756 Y31.0231
G01 X38.9834 Y31.0173
G01 X38.9907 Y31.0107
G01 X38.9973 Y31.0034
G01 X39.0031 Y30.9956
G01 X39.0082 Y30.9871
G01 X39.0124 Y30.9783
G01 X39.0157 Y30.9690
G01 X39.0181 Y30.9595
G01 X39.0195 Y30.9498
G01 X39.0200 Y30.9400
G00 Z2.0000
G00 X36.4800 Y30.9400
G01 F60.00
G01 Z-2.4000
G01 F120.00
G01 X36.4795 Y30.9302
G01 X36.4781 Y30.9205
G01 X36.4757 Y30.9110
G01 X36.4724 Y30.9017
G01 X36.4682 Y30.8929
G01 X36.4631 Y30.8844
G01 X36.4573 Y30.8766
G01 X36.4507 Y30.8693
G01 X36.4434 Y30.8627
G01 X36.4356 Y30.8569
G01 X36.4271 Y30.8518
G01 X36.4183 Y30.8476
G01 X36.4090 Y30.8443
G01 X36.3995 Y30.8419
G01 X36.3898 Y30.8405
G01 X36.3800 Y30.8400
G01 X36.3702 Y30.8405
G01 X36.3605 Y30.8419
G01 X36.3510 Y30.8443
G01 X36.3417 Y30.8476
G01 X36.3329 Y30.8518
G01 X36.3244 Y30.8569
G01 X36.3166 Y30.8627
G01 X36.3093 Y30.8693
G01 X36.3027 Y30.8766
G01 X36.2969 Y30.8844
G01 X36.2918 Y30.8929
G01 X36.2876 Y30.9017
G01 X36.2843 Y30.9110
G01 X36.2819 Y30.9205
G01 X36.2805 Y30.9302
G01 X36.2800 Y30.9400
G01 X36.2805 Y30.9498
G01 X36.2819 Y30.9595
G01 X36.2843 Y30.9690
G01 X36.2876 Y30.9783
G01 X36.2918 Y30.9871
G01 X36.2969 Y30.9956
G01 X36.3027 Y31.0034
G01 X36.3093 Y31.0107
G01 X36.3166 Y31.0173
G01 X36.3244 Y31.0231
G01 X36.3329 Y31.0282
G01 X36.3417 Y31.0324
G01 X36.3510 Y31.0357
G01 X36.3605 Y31.0381
G01 X36.3702 Y31.0395
G01 X36.3800 Y31.0400
G01 X36.3898 Y31.0395
G01 X36.3995 Y31.0381
G01 X36.4090 Y31.0357
G01 X36.4183 Y31.0324
G01 X36.4271 Y31.0282
G01 X36.4356 Y31.0231
G01 X36.4434 Y31.0173
G01 X36.4507 Y31.0107
G01 X36.4573 Y31.0034
G01 X36.4631 Y30.9956
G01 X36.4682 Y30.9871
G01 X36.4724 Y30.9783
G01 X36.4757 Y30.9690
G01 X36.4781 Y30.9595
G01 X36.4795 Y30.9498
G01 X36.4800 Y30.9400
G00 Z2.0000
G00 X33.9400 Y30.9400
G01 F60.00
G01 Z-2.4000
G01 F120.00
G01 X33.9395 Y30.9302
G01 X33.9381 Y30.9205
G01 X33.9357 Y30.9110
G01 X33.9324 Y30.9017
G01 X33.9282 Y30.8929
G01 X33.9231 Y30.8844
G01 X33.9173 Y30.8766
G01 X33.9107 Y30.8693
G01 X33.9034 Y30.8627
G01 X33.8956 Y30.8569
G01 X33.8871 Y30.8518
G01 X33.8783 Y30.8476
G01 X33.8690 Y30.8443
G01 X33.8595 Y30.8419
G01 X33.8498 Y30.8405
G01 X33.8400 Y30.8400
G01 X33.8302 Y30.8405
G01 X33.8205 Y30.8419
G01 X33.8110 Y30.8443
G01 X33.8017 Y30.8476
G01 X33.7929 Y30.8518
G01 X33.7844 Y30.8569
G01 X33.7766 Y30.8627
G01 X33.7693 Y30.8693
G01 X33.7627 Y30.8766
G01 X33.7569 Y30.8844
G01 X33.7518 Y30.8929
G01 X33.7476 Y30.9017
G01 X33.7443 Y30.9110
G01 X33.7419 Y30.9205
G01 X33.7405 Y30.9302
G01 X33.7400 Y30.9400
G01 X33.7405 Y30.9498
G01 X33.7419 Y30.9595
G01 X33.7443 Y30.9690
G01 X33.7476 Y30.9783
G01 X33.7518 Y30.9871
G01 X33.7569 Y30.9956
G01 X33.7627 Y31.0034
G01 X33.7693 Y31.0107
G01 X33.7766 Y31.0173
G01 X33.7844 Y31.0231
G01 X33.7929 Y31.0282
G01 X33.8017 Y31.0324
G01 X33.8110 Y31.0357
G01 X33.8205 Y31.0381
G01 X33.8302 Y31.0395
G01 X33.8400 Y31.0400
G01 X33.8498 Y31.0395
G01 X33.8595 Y31.0381
G01 X33.8690 Y31.0357
G01 X33.8783 Y31.0324
G01 X33.8871 Y31.0282
G01 X33.8956 Y31.0231
G01 X33.9034 Y31.0173
G01 X33.9107 Y31.0107
G01 X33.9173 Y31.0034
G01 X33.9231 Y30.9956
G01 X33.9282 Y30.9871
G01 X33.9324 Y30.9783
G01 X33.9357 Y30.9690
G01 X33.9381 Y30.9595
G01 X33.9395 Y30.9498
G01 X33.9400 Y30.9400
G00 Z2.0000
G00 X31.4000 Y30.9400
G01 F60.00
G01 Z-2.4000
G01 F120.00
G01 X31.3995 Y30.9302
G01 X31.3981 Y30.9205
G01 X31.3957 Y30.9110
G01 X31.3924 Y30.9017
G01 X31.3882 Y30.8929
G01 X31.3831 Y30.8844
G01 X31.3773 Y30.8766
G01 X31.3707 Y30.8693
G01 X31.3634 Y30.8627
G01 X31.3556 Y30.8569
G01 X31.3471 Y30.8518
G01 X31.3383 Y30.8476
G01 X31.3290 Y30.8443
G01 X31.3195 Y30.8419
G01 X31.3098 Y30.8405
G01 X31.3000 Y30.8400
G01 X31.2902 Y30.8405
G01 X31.2805 Y30.8419
G01 X31.2710 Y30.8443
G01 X31.2617 Y30.8476
G01 X31.2529 Y30.8518
G01 X31.2444 Y30.8569
G01 X31.2366 Y30.8627
G01 X31.2293 Y30.8693
G01 X31.2227 Y30.8766
G01 X31.2169 Y30.8844
G01 X31.2118 Y30.8929
G01 X31.2076 Y30.9017
G01 X31.2043 Y30.9110
G01 X31.2019 Y30.9205
G01 X31.2005 Y30.9302
G01 X31.2000 Y30.9400
G01 X31.2005 Y30.9498
G01 X31.2019 Y30.9595
G01 X31.2043 Y30.9690
G01 X31.2076 Y30.9783
G01 X31.2118 Y30.9871
G01 X31.2169 Y30.9956
G01 X31.2227 Y31.0034
G01 X31.2293 Y31.0107
G01 X31.2366 Y31.0173
G01 X31.2444 Y31.0231
G01 X31.2529 Y31.0282
G01 X31.2617 Y31.0324
G01 X31.2710 Y31.0357
G01 X31.2805 Y31.0381
G01 X31.2902 Y31.0395
G01 X31.3000 Y31.0400
G01 X31.3098 Y31.0395
G01 X31.3195 Y31.0381
G01 X31.3290 Y31.0357
G01 X31.3383 Y31.0324
G01 X31.3471 Y31.0282
G01 X31.3556 Y31.0231
G01 X31.3634 Y31.0173
G01 X31.3707 Y31.0107
G01 X31.3773 Y31.0034
G01 X31.3831 Y30.9956
G01 X31.3882 Y30.9871
G01 X31.3924 Y30.9783
G01 X31.3957 Y30.9690
G01 X31.3981 Y30.9595
G01 X31.3995 Y30.9498
G01 X31.4000 Y30.9400
G00 Z2.0000
G00 X28.8600 Y30.9400
G01 F60.00
G01 Z-2.4000
G01 F120.00
G01 X28.8595 Y30.9302
G01 X28.8581 Y30.9205
G01 X28.8557 Y30.9110
G01 X28.8524 Y30.9017
G01 X28.8482 Y30.8929
G01 X28.8431 Y30.8844
G01 X28.8373 Y30.8766
G01 X28.8307 Y30.8693
G01 X28.8234 Y30.8627
G01 X28.8156 Y30.8569
G01 X28.8071 Y30.8518
G01 X28.7983 Y30.8476
G01 X28.7890 Y30.8443
G01 X28.7795 Y30.8419
G01 X28.7698 Y30.8405
G01 X28.7600 Y30.8400
G01 X28.7502 Y30.8405
G01 X28.7405 Y30.8419
G01 X28.7310 Y30.8443
G01 X28.7217 Y30.8476
G01 X28.7129 Y30.8518
G01 X28.7044 Y30.8569
G01 X28.6966 Y30.8627
G01 X28.6893 Y30.8693
G01 X28.6827 Y30.8766
G01 X28.6769 Y30.8844
G01 X28.6718 Y30.8929
G01 X28.6676 Y30.9017
G01 X28.6643 Y30.9110
G01 X28.6619 Y30.9205
G01 X28.6605 Y30.9302
G01 X28.6600 Y30.9400
G01 X28.6605 Y30.9498
G01 X28.6619 Y30.9595
G01 X28.6643 Y30.9690
G01 X28.6676 Y30.9783
G01 X28.6718 Y30.9871
G01 X28.6769 Y30.9956
G01 X28.6827 Y31.0034
G01 X28.6893 Y31.0107
G01 X28.6966 Y31.0173
G01 X28.7044 Y31.0231
G01 X28.7129 Y31.0282
G01 X28.7217 Y31.0324
G01 X28.7310 Y31.0357
G01 X28.7405 Y31.0381
G01 X28.7502 Y31.0395
G01 X28.7600 Y31.0400
G01 X28.7698 Y31.0395
G01 X28.7795 Y31.0381
G01 X28.7890 Y31.0357
G01 X28.7983 Y31.0324
G01 X28.8071 Y31.0282
G01 X28.8156 Y31.0231
G01 X28.8234 Y31.0173
G01 X28.8307 Y31.0107
G01 X28.8373 Y31.0034
G01 X28.8431 Y30.9956
G01 X28.8482 Y30.9871
G01 X28.8524 Y30.9783
G01 X28.8557 Y30.9690
G01 X28.8581 Y30.9595
G01 X28.8595 Y30.9498
G01 X28.8600 Y30.9400
G00 Z2.0000
G00 X26.3200 Y30.9400
G01 F60.00
G01 Z-2.4000
G01 F120.00
G01 X26.3195 Y30.9302
G01 X26.3181 Y30.9205
G01 X26.3157 Y30.9110
G01 X26.3124 Y30.9017
G01 X26.3082 Y30.8929
G01 X26.3031 Y30.8844
G01 X26.2973 Y30.8766
G01 X26.2907 Y30.8693
G01 X26.2834 Y30.8627
G01 X26.2756 Y30.8569
G01 X26.2671 Y30.8518
G01 X26.2583 Y30.8476
G01 X26.2490 Y30.8443
G01 X26.2395 Y30.8419
G01 X26.2298 Y30.8405
G01 X26.2200 Y30.8400
G01 X26.2102 Y30.8405
G01 X26.2005 Y30.8419
G01 X26.1910 Y30.8443
G01 X26.1817 Y30.8476
G01 X26.1729 Y30.8518
G01 X26.1644 Y30.8569
G01 X26.1566 Y30.8627
G01 X26.1493 Y30.8693
G01 X26.1427 Y30.8766
G01 X26.1369 Y30.8844
G01 X26.1318 Y30.8929
G01 X26.1276 Y30.9017
G01 X26.1243 Y30.9110
G01 X26.1219 Y30.9205
G01 X26.1205 Y30.9302
G01 X26.1200 Y30.9400
G01 X26.1205 Y30.9498
G01 X26.1219 Y30.9595
G01 X26.1243 Y30.9690
G01 X26.1276 Y30.9783
G01 X26.1318 Y30.9871
G01 X26.1369 Y30.9956
G01 X26.1427 Y31.0034
G01 X26.1493 Y31.0107
G01 X26.1566 Y31.0173
G01 X26.1644 Y31.0231
G01 X26.1729 Y31.0282
G01 X26.1817 Y31.0324
G01 X26.1910 Y31.0357
G01 X26.2005 Y31.0381
G01 X26.2102 Y31.0395
G01 X26.2200 Y31.0400
G01 X26.2298 Y31.0395
G01 X26.2395 Y31.0381
G01 X26.2490 Y31.0357
G01 X26.2583 Y31.0324
G01 X26.2671 Y31.0282
G01 X26.2756 Y31.0231
G01 X26.2834 Y31.0173
G01 X26.2907 Y31.0107
G01 X26.2973 Y31.0034
G01 X26.3031 Y30.9956
G01 X26.3082 Y30.9871
G01 X26.3124 Y30.9783
G01 X26.3157 Y30.9690
G01 X26.3181 Y30.9595
G01 X26.3195 Y30.9498
G01 X26.3200 Y30.9400
G00 Z2.0000
G00 X23.7800 Y30.9400
G01 F60.00
G01 Z-2.4000
G01 F120.00
G01 X23.7795 Y30.9302
G01 X23.7781 Y30.9205
G01 X23.7757 Y30.9110
G01 X23.7724 Y30.9017
G01 X23.7682 Y30.8929
G01 X23.7631 Y30.8844
G01 X23.7573 Y30.8766
G01 X23.7507 Y30.8693
G01 X23.7434 Y30.8627
G01 X23.7356 Y30.8569
G01 X23.7271 Y30.8518
G01 X23.7183 Y30.8476
G01 X23.7090 Y30.8443
G01 X23.6995 Y30.8419
G01 X23.6898 Y30.8405
G01 X23.6800 Y30.8400
G01 X23.6702 Y30.8405
G01 X23.6605 Y30.8419
G01 X23.6510 Y30.8443
G01 X23.6417 Y30.8476
G01 X23.6329 Y30.8518
G01 X23.6244 Y30.8569
G01 X23.6166 Y30.8627
G01 X23.6093 Y30.8693
G01 X23.6027 Y30.8766
G01 X23.5969 Y30.8844
G01 X23.5918 Y30.8929
G01 X23.5876 Y30.9017
G01 X23.5843 Y30.9110
G01 X23.5819 Y30.9205
G01 X23.5805 Y30.9302
G01 X23.5800 Y30.9400
G01 X23.5805 Y30.9498
G01 X23.5819 Y30.9595
G01 X23.5843 Y30.9690
G01 X23.5876 Y30.9783
G01 X23.5918 Y30.9871
G01 X23.5969 Y30.9956
G01 X23.6027 Y31.0034
G01 X23.6093 Y31.0107
G01 X23.6166 Y31.0173
G01 X23.6244 Y31.0231
G01 X23.6329 Y31.0282
G01 X23.6417 Y31.0324
G01 X23.6510 Y31.0357
G01 X23.6605 Y31.0381
G01 X23.6702 Y31.0395
G01 X23.6800 Y31.0400
G01 X23.6898 Y31.0395
G01 X23.6995 Y31.0381
G01 X23.7090 Y31.0357
G01 X23.7183 Y31.0324
G01 X23.7271 Y31.0282
G01 X23.7356 Y31.0231
G01 X23.7434 Y31.0173
G01 X23.7507 Y31.0107
G01 X23.7573 Y31.0034
G01 X23.7631 Y30.9956
G01 X23.7682 Y30.9871
G01 X23.7724 Y30.9783
G01 X23.7757 Y30.9690
G01 X23.7781 Y30.9595
G01 X23.7795 Y30.9498
G01 X23.7800 Y30.9400
G00 Z2.0000
G00 X21.2400 Y30.9400
G01 F60.00
G01 Z-2.4000
G01 F120.00
G01 X21.2395 Y30.9302
G01 X21.2381 Y30.9205
G01 X21.2357 Y30.9110
G01 X21.2324 Y30.9017
G01 X21.2282 Y30.8929
G01 X21.2231 Y30.8844
G01 X21.2173 Y30.8766
G01 X21.2107 Y30.8693
G01 X21.2034 Y30.8627
G01 X21.1956 Y30.8569
G01 X21.1871 Y30.8518
G01 X21.1783 Y30.8476
G01 X21.1690 Y30.8443
G01 X21.1595 Y30.8419
G01 X21.1498 Y30.8405
G01 X21.1400 Y30.8400
G01 X21.1302 Y30.8405
G01 X21.1205 Y30.8419
G01 X21.1110 Y30.8443
G01 X21.1017 Y30.8476
G01 X21.0929 Y30.8518
G01 X21.0844 Y30.8569
G01 X21.0766 Y30.8627
G01 X21.0693 Y30.8693
G01 X21.0627 Y30.8766
G01 X21.0569 Y30.8844
G01 X21.0518 Y30.8929
G01 X21.0476 Y30.9017
G01 X21.0443 Y30.9110
G01 X21.0419 Y30.9205
G01 X21.0405 Y30.9302
G01 X21.0400 Y30.9400
G01 X21.0405 Y30.9498
G01 X21.0419 Y30.9595
G01 X21.0443 Y30.9690
G01 X21.0476 Y30.9783
G01 X21.0518 Y30.9871
G01 X21.0569 Y30.9956
G01 X21.0627 Y31.0034
G01 X21.0693 Y31.0107
G01 X21.0766 Y31.0173
G01 X21.0844 Y31.0231
G01 X21.0929 Y31.0282
G01 X21.1017 Y31.0324
G01 X21.1110 Y31.0357
G01 X21.1205 Y31.0381
G01 X21.1302 Y31.0395
G01 X21.1400 Y31.0400
G01 X21.1498 Y31.0395
G01 X21.1595 Y31.0381
G01 X21.1690 Y31.0357
G01 X21.1783 Y31.0324
G01 X21.1871 Y31.0282
G01 X21.1956 Y31.0231
G01 X21.2034 Y31.0173
G01 X21.2107 Y31.0107
G01 X21.2173 Y31.0034
G01 X21.2231 Y30.9956
G01 X21.2282 Y30.9871
G01 X21.2324 Y30.9783
G01 X21.2357 Y30.9690
G01 X21.2381 Y30.9595
G01 X21.2395 Y30.9498
G01 X21.2400 Y30.9400
G00 Z2.0000
G00 X18.7000 Y30.9400
G01 F60.00
G01 Z-2.4000
G01 F120.00
G01 X18.6995 Y30.9302
G01 X18.6981 Y30.9205
G01 X18.6957 Y30.9110
G01 X18.6924 Y30.9017
G01 X18.6882 Y30.8929
G01 X18.6831 Y30.8844
G01 X18.6773 Y30.8766
G01 X18.6707 Y30.8693
G01 X18.6634 Y30.8627
G01 X18.6556 Y30.8569
G01 X18.6471 Y30.8518
G01 X18.6383 Y30.8476
G01 X18.6290 Y30.8443
G01 X18.6195 Y30.8419
G01 X18.6098 Y30.8405
G01 X18.6000 Y30.8400
G01 X18.5902 Y30.8405
G01 X18.5805 Y30.8419
G01 X18.5710 Y30.8443
G01 X18.5617 Y30.8476
G01 X18.5529 Y30.8518
G01 X18.5444 Y30.8569
G01 X18.5366 Y30.8627
G01 X18.5293 Y30.8693
G01 X18.5227 Y30.8766
G01 X18.5169 Y30.8844
G01 X18.5118 Y30.8929
G01 X18.5076 Y30.9017
G01 X18.5043 Y30.9110
G01 X18.5019 Y30.9205
G01 X18.5005 Y30.9302
G01 X18.5000 Y30.9400
G01 X18.5005 Y30.9498
G01 X18.5019 Y30.9595
G01 X18.5043 Y30.9690
G01 X18.5076 Y30.9783
G01 X18.5118 Y30.9871
G01 X18.5169 Y30.9956
G01 X18.5227 Y31.0034
G01 X18.5293 Y31.0107
G01 X18.5366 Y31.0173
G01 X18.5444 Y31.0231
G01 X18.5529 Y31.0282
G01 X18.5617 Y31.0324
G01 X18.5710 Y31.0357
G01 X18.5805 Y31.0381
G01 X18.5902 Y31.0395
G01 X18.6000 Y31.0400
G01 X18.6098 Y31.0395
G01 X18.6195 Y31.0381
G01 X18.6290 Y31.0357
G01 X18.6383 Y31.0324
G01 X18.6471 Y31.0282
G01 X18.6556 Y31.0231
G01 X18.6634 Y31.0173
G01 X18.6707 Y31.0107
G01 X18.6773 Y31.0034
G01 X18.6831 Y30.9956
G01 X18.6882 Y30.9871
G01 X18.6924 Y30.9783
G01 X18.6957 Y30.9690
G01 X18.6981 Y30.9595
G01 X18.6995 Y30.9498
G01 X18.7000 Y30.9400
G00 Z2.0000
G00 X18.7000 Y28.4000
G01 F60.00
G01 Z-2.4000
G01 F120.00
G01 X18.6995 Y28.3902
G01 X18.6981 Y28.3805
G01 X18.6957 Y28.3710
G01 X18.6924 Y28.3617
G01 X18.6882 Y28.3529
G01 X18.6831 Y28.3444
G01 X18.6773 Y28.3366
G01 X18.6707 Y28.3293
G01 X18.6634 Y28.3227
G01 X18.6556 Y28.3169
G01 X18.6471 Y28.3118
G01 X18.6383 Y28.3076
G01 X18.6290 Y28.3043
G01 X18.6195 Y28.3019
G01 X18.6098 Y28.3005
G01 X18.6000 Y28.3000
G01 X18.5902 Y28.3005
G01 X18.5805 Y28.3019
G01 X18.5710 Y28.3043
G01 X18.5617 Y28.3076
G01 X18.5529 Y28.3118
G01 X18.5444 Y28.3169
G01 X18.5366 Y28.3227
G01 X18.5293 Y28.3293
G01 X18.5227 Y28.3366
G01 X18.5169 Y28.3444
G01 X18.5118 Y28.3529
G01 X18.5076 Y28.3617
G01 X18.5043 Y28.3710
G01 X18.5019 Y28.3805
G01 X18.5005 Y28.3902
G01 X18.5000 Y28.4000
G01 X18.5005 Y28.4098
G01 X18.5019 Y28.4195
G01 X18.5043 Y28.4290
G01 X18.5076 Y28.4383
G01 X18.5118 Y28.4471
G01 X18.5169 Y28.4556
G01 X18.5227 Y28.4634
G01 X18.5293 Y28.4707
G01 X18.5366 Y28.4773
G01 X18.5444 Y28.4831
G01 X18.5529 Y28.4882
G01 X18.5617 Y28.4924
G01 X18.5710 Y28.4957
G01 X18.5805 Y28.4981
G01 X18.5902 Y28.4995
G01 X18.6000 Y28.5000
G01 X18.6098 Y28.4995
G01 X18.6195 Y28.4981
G01 X18.6290 Y28.4957
G01 X18.6383 Y28.4924
G01 X18.6471 Y28.4882
G01 X18.6556 Y28.4831
G01 X18.6634 Y28.4773
G01 X18.6707 Y28.4707
G01 X18.6773 Y28.4634
G01 X18.6831 Y28.4556
G01 X18.6882 Y28.4471
G01 X18.6924 Y28.4383
G01 X18.6957 Y28.4290
G01 X18.6981 Y28.4195
G01 X18.6995 Y28.4098
G01 X18.7000 Y28.4000
G00 Z2.0000
G00 X21.2400 Y28.4000
G01 F60.00
G01 Z-2.4000
G01 F120.00
G01 X21.2395 Y28.3902
G01 X21.2381 Y28.3805
G01 X21.2357 Y28.3710
G01 X21.2324 Y28.3617
G01 X21.2282 Y28.3529
G01 X21.2231 Y28.3444
G01 X21.2173 Y28.3366
G01 X21.2107 Y28.3293
G01 X21.2034 Y28.3227
G01 X21.1956 Y28.3169
G01 X21.1871 Y28.3118
G01 X21.1783 Y28.3076
G01 X21.1690 Y28.3043
G01 X21.1595 Y28.3019
G01 X21.1498 Y28.3005
G01 X21.1400 Y28.3000
G01 X21.1302 Y28.3005
G01 X21.1205 Y28.3019
G01 X21.1110 Y28.3043
G01 X21.1017 Y28.3076
G01 X21.0929 Y28.3118
G01 X21.0844 Y28.3169
G01 X21.0766 Y28.3227
G01 X21.0693 Y28.3293
G01 X21.0627 Y28.3366
G01 X21.0569 Y28.3444
G01 X21.0518 Y28.3529
G01 X21.0476 Y28.3617
G01 X21.0443 Y28.3710
G01 X21.0419 Y28.3805
G01 X21.0405 Y28.3902
G01 X21.0400 Y28.4000
G01 X21.0405 Y28.4098
G01 X21.0419 Y28.4195
G01 X21.0443 Y28.4290
G01 X21.0476 Y28.4383
G01 X21.0518 Y28.4471
G01 X21.0569 Y28.4556
G01 X21.0627 Y28.4634
G01 X21.0693 Y28.4707
G01 X21.0766 Y28.4773
G01 X21.0844 Y28.4831
G01 X21.0929 Y28.4882
G01 X21.1017 Y28.4924
G01 X21.1110 Y28.4957
G01 X21.1205 Y28.4981
G01 X21.1302 Y28.4995
G01 X21.1400 Y28.5000
G01 X21.1498 Y28.4995
G01 X21.1595 Y28.4981
G01 X21.1690 Y28.4957
G01 X21.1783 Y28.4924
G01 X21.1871 Y28.4882
G01 X21.1956 Y28.4831
G01 X21.2034 Y28.4773
G01 X21.2107 Y28.4707
G01 X21.2173 Y28.4634
G01 X21.2231 Y28.4556
G01 X21.2282 Y28.4471
G01 X21.2324 Y28.4383
G01 X21.2357 Y28.4290
G01 X21.2381 Y28.4195
G01 X21.2395 Y28.4098
G01 X21.2400 Y28.4000
G00 Z2.0000
G00 X23.7800 Y28.4000
G01 F60.00
G01 Z-2.4000
G01 F120.00
G01 X23.7795 Y28.3902
G01 X23.7781 Y28.3805
G01 X23.7757 Y28.3710
G01 X23.7724 Y28.3617
G01 X23.7682 Y28.3529
G01 X23.7631 Y28.3444
G01 X23.7573 Y28.3366
G01 X23.7507 Y28.3293
G01 X23.7434 Y28.3227
G01 X23.7356 Y28.3169
G01 X23.7271 Y28.3118
G01 X23.7183 Y28.3076
G01 X23.7090 Y28.3043
G01 X23.6995 Y28.3019
G01 X23.6898 Y28.3005
G01 X23.6800 Y28.3000
G01 X23.6702 Y28.3005
G01 X23.6605 Y28.3019
G01 X23.6510 Y28.3043
G01 X23.6417 Y28.3076
G01 X23.6329 Y28.3118
G01 X23.6244 Y28.3169
G01 X23.6166 Y28.3227
G01 X23.6093 Y28.3293
G01 X23.6027 Y28.3366
G01 X23.5969 Y28.3444
G01 X23.5918 Y28.3529
G01 X23.5876 Y28.3617
G01 X23.5843 Y28.3710
G01 X23.5819 Y28.3805
G01 X23.5805 Y28.3902
G01 X23.5800 Y28.4000
G01 X23.5805 Y28.4098
G01 X23.5819 Y28.4195
G01 X23.5843 Y28.4290
G01 X23.5876 Y28.4383
G01 X23.5918 Y28.4471
G01 X23.5969 Y28.4556
G01 X23.6027 Y28.4634
G01 X23.6093 Y28.4707
G01 X23.6166 Y28.4773
G01 X23.6244 Y28.4831
G01 X23.6329 Y28.4882
G01 X23.6417 Y28.4924
G01 X23.6510 Y28.4957
G01 X23.6605 Y28.4981
G01 X23.6702 Y28.4995
G01 X23.6800 Y28.5000
G01 X23.6898 Y28.4995
G01 X23.6995 Y28.4981
G01 X23.7090 Y28.4957
G01 X23.7183 Y28.4924
G01 X23.7271 Y28.4882
G01 X23.7356 Y28.4831
G01 X23.7434 Y28.4773
G01 X23.7507 Y28.4707
G01 X23.7573 Y28.4634
G01 X23.7631 Y28.4556
G01 X23.7682 Y28.4471
G01 X23.7724 Y28.4383
G01 X23.7757 Y28.4290
G01 X23.7781 Y28.4195
G01 X23.7795 Y28.4098
G01 X23.7800 Y28.4000
G00 Z2.0000
G00 X26.3200 Y28.4000
G01 F60.00
G01 Z-2.4000
G01 F120.00
G01 X26.3195 Y28.3902
G01 X26.3181 Y28.3805
G01 X26.3157 Y28.3710
G01 X26.3124 Y28.3617
G01 X26.3082 Y28.3529
G01 X26.3031 Y28.3444
G01 X26.2973 Y28.3366
G01 X26.2907 Y28.3293
G01 X26.2834 Y28.3227
G01 X26.2756 Y28.3169
G01 X26.2671 Y28.3118
G01 X26.2583 Y28.3076
G01 X26.2490 Y28.3043
G01 X26.2395 Y28.3019
G01 X26.2298 Y28.3005
G01 X26.2200 Y28.3000
G01 X26.2102 Y28.3005
G01 X26.2005 Y28.3019
G01 X26.1910 Y28.3043
G01 X26.1817 Y28.3076
G01 X26.1729 Y28.3118
G01 X26.1644 Y28.3169
G01 X26.1566 Y28.3227
G01 X26.1493 Y28.3293
G01 X26.1427 Y28.3366
G01 X26.1369 Y28.3444
G01 X26.1318 Y28.3529
G01 X26.1276 Y28.3617
G01 X26.1243 Y28.3710
G01 X26.1219 Y28.3805
G01 X26.1205 Y28.3902
G01 X26.1200 Y28.4000
G01 X26.1205 Y28.4098
G01 X26.1219 Y28.4195
G01 X26.1243 Y28.4290
G01 X26.1276 Y28.4383
G01 X26.1318 Y28.4471
G01 X26.1369 Y28.4556
G01 X26.1427 Y28.4634
G01 X26.1493 Y28.4707
G01 X26.1566 Y28.4773
G01 X26.1644 Y28.4831
G01 X26.1729 Y28.4882
G01 X26.1817 Y28.4924
G01 X26.1910 Y28.4957
G01 X26.2005 Y28.4981
G01 X26.2102 Y28.4995
G01 X26.2200 Y28.5000
G01 X26.2298 Y28.4995
G01 X26.2395 Y28.4981
G01 X26.2490 Y28.4957
G01 X26.2583 Y28.4924
G01 X26.2671 Y28.4882
G01 X26.2756 Y28.4831
G01 X26.2834 Y28.4773
G01 X26.2907 Y28.4707
G01 X26.2973 Y28.4634
G01 X26.3031 Y28.4556
G01 X26.3082 Y28.4471
G01 X26.3124 Y28.4383
G01 X26.3157 Y28.4290
G01 X26.3181 Y28.4195
G01 X26.3195 Y28.4098
G01 X26.3200 Y28.4000
G00 Z2.0000
G00 X26.3200 Y25.8600
G01 F60.00
G01 Z-2.4000
G01 F120.00
G01 X26.3195 Y25.8502
G01 X26.3181 Y25.8405
G01 X26.3157 Y25.8310
G01 X26.3124 Y25.8217
G01 X26.3082 Y25.8129
G01 X26.3031 Y25.8044
G01 X26.2973 Y25.7966
G01 X26.2907 Y25.7893
G01 X26.2834 Y25.7827
G01 X26.2756 Y25.7769
G01 X26.2671 Y25.7718
G01 X26.2583 Y25.7676
G01 X26.2490 Y25.7643
G01 X26.2395 Y25.7619
G01 X26.2298 Y25.7605
G01 X26.2200 Y25.7600
G01 X26.2102 Y25.7605
G01 X26.2005 Y25.7619
G01 X26.1910 Y25.7643
G01 X26.1817 Y25.7676
G01 X26.1729 Y25.7718
G01 X26.1644 Y25.7769
G01 X26.1566 Y25.7827
G01 X26.1493 Y25.7893
G01 X26.1427 Y25.7966
G01 X26.1369 Y25.8044
G01 X26.1318 Y25.8129
G01 X26.1276 Y25.8217
G01 X26.1243 Y25.8310
G01 X26.1219 Y25.8405
G01 X26.1205 Y25.8502
G01 X26.1200 Y25.8600
G01 X26.1205 Y25.8698
G01 X26.1219 Y25.8795
G01 X26.1243 Y25.8890
G01 X26.1276 Y25.8983
G01 X26.1318 Y25.9071
G01 X26.1369 Y25.9156
G01 X26.1427 Y25.9234
G01 X26.1493 Y25.9307
G01 X26.1566 Y25.9373
G01 X26.1644 Y25.9431
G01 X26.1729 Y25.9482
G01 X26.1817 Y25.9524
G01 X26.1910 Y25.9557
G01 X26.2005 Y25.9581
G01 X26.2102 Y25.9595
G01 X26.2200 Y25.9600
G01 X26.2298 Y25.9595
G01 X26.2395 Y25.9581
G01 X26.2490 Y25.9557
G01 X26.2583 Y25.9524
G01 X26.2671 Y25.9482
G01 X26.2756 Y25.9431
G01 X26.2834 Y25.9373
G01 X26.2907 Y25.9307
G01 X26.2973 Y25.9234
G01 X26.3031 Y25.9156
G01 X26.3082 Y25.9071
G01 X26.3124 Y25.8983
G01 X26.3157 Y25.8890
G01 X26.3181 Y25.8795
G01 X26.3195 Y25.8698
G01 X26.3200 Y25.8600
G00 Z2.0000
G00 X26.3200 Y23.3200
G01 F60.00
G01 Z-2.4000
G01 F120.00
G01 X26.3195 Y23.3102
G01 X26.3181 Y23.3005
G01 X26.3157 Y23.2910
G01 X26.3124 Y23.2817
G01 X26.3082 Y23.2729
G01 X26.3031 Y23.2644
G01 X26.2973 Y23.2566
G01 X26.2907 Y23.2493
G01 X26.2834 Y23.2427
G01 X26.2756 Y23.2369
G01 X26.2671 Y23.2318
G01 X26.2583 Y23.2276
G01 X26.2490 Y23.2243
G01 X26.2395 Y23.2219
G01 X26.2298 Y23.2205
G01 X26.2200 Y23.2200
G01 X26.2102 Y23.2205
G01 X26.2005 Y23.2219
G01 X26.1910 Y23.2243
G01 X26.1817 Y23.2276
G01 X26.1729 Y23.2318
G01 X26.1644 Y23.2369
G01 X26.1566 Y23.2427
G01 X26.1493 Y23.2493
G01 X26.1427 Y23.2566
G01 X26.1369 Y23.2644
G01 X26.1318 Y23.2729
G01 X26.1276 Y23.2817
G01 X26.1243 Y23.2910
G01 X26.1219 Y23.3005
G01 X26.1205 Y23.3102
G01 X26.1200 Y23.3200
G01 X26.1205 Y23.3298
G01 X26.1219 Y23.3395
G01 X26.1243 Y23.3490
G01 X26.1276 Y23.3583
G01 X26.1318 Y23.3671
G01 X26.1369 Y23.3756
G01 X26.1427 Y23.3834
G01 X26.1493 Y23.3907
G01 X26.1566 Y23.3973
G01 X26.1644 Y23.4031
G01 X26.1729 Y23.4082
G01 X26.1817 Y23.4124
G01 X26.1910 Y23.4157
G01 X26.2005 Y23.4181
G01 X26.2102 Y23.4195
G01 X26.2200 Y23.4200
G01 X26.2298 Y23.4195
G01 X26.2395 Y23.4181
G01 X26.2490 Y23.4157
G01 X26.2583 Y23.4124
G01 X26.2671 Y23.4082
G01 X26.2756 Y23.4031
G01 X26.2834 Y23.3973
G01 X26.2907 Y23.3907
G01 X26.2973 Y23.3834
G01 X26.3031 Y23.3756
G01 X26.3082 Y23.3671
G01 X26.3124 Y23.3583
G01 X26.3157 Y23.3490
G01 X26.3181 Y23.3395
G01 X26.3195 Y23.3298
G01 X26.3200 Y23.3200
G00 Z2.0000
G00 X26.3200 Y20.7800
G01 F60.00
G01 Z-2.4000
G01 F120.00
G01 X26.3195 Y20.7702
G01 X26.3181 Y20.7605
G01 X26.3157 Y20.7510
G01 X26.3124 Y20.7417
G01 X26.3082 Y20.7329
G01 X26.3031 Y20.7244
G01 X26.2973 Y20.7166
G01 X26.2907 Y20.7093
G01 X26.2834 Y20.7027
G01 X26.2756 Y20.6969
G01 X26.2671 Y20.6918
G01 X26.2583 Y20.6876
G01 X26.2490 Y20.6843
G01 X26.2395 Y20.6819
G01 X26.2298 Y20.6805
G01 X26.2200 Y20.6800
G01 X26.2102 Y20.6805
G01 X26.2005 Y20.6819
G01 X26.1910 Y20.6843
G01 X26.1817 Y20.6876
G01 X26.1729 Y20.6918
G01 X26.1644 Y20.6969
G01 X26.1566 Y20.7027
G01 X26.1493 Y20.7093
G01 X26.1427 Y20.7166
G01 X26.1369 Y20.7244
G01 X26.1318 Y20.7329
G01 X26.1276 Y20.7417
G01 X26.1243 Y20.7510
G01 X26.1219 Y20.7605
G01 X26.1205 Y20.7702
G01 X26.1200 Y20.7800
G01 X26.1205 Y20.7898
G01 X26.1219 Y20.7995
G01 X26.1243 Y20.8090
G01 X26.1276 Y20.8183
G01 X26.1318 Y20.8271
G01 X26.1369 Y20.8356
G01 X26.1427 Y20.8434
G01 X26.1493 Y20.8507
G01 X26.1566 Y20.8573
G01 X26.1644 Y20.8631
G01 X26.1729 Y20.8682
G01 X26.1817 Y20.8724
G01 X26.1910 Y20.8757
G01 X26.2005 Y20.8781
G01 X26.2102 Y20.8795
G01 X26.2200 Y20.8800
G01 X26.2298 Y20.8795
G01 X26.2395 Y20.8781
G01 X26.2490 Y20.8757
G01 X26.2583 Y20.8724
G01 X26.2671 Y20.8682
G01 X26.2756 Y20.8631
G01 X26.2834 Y20.8573
G01 X26.2907 Y20.8507
G01 X26.2973 Y20.8434
G01 X26.3031 Y20.8356
G01 X26.3082 Y20.8271
G01 X26.3124 Y20.8183
G01 X26.3157 Y20.8090
G01 X26.3181 Y20.7995
G01 X26.3195 Y20.7898
G01 X26.3200 Y20.7800
G00 Z2.0000
G00 X28.8600 Y20.7800
G01 F60.00
G01 Z-2.4000
G01 F120.00
G01 X28.8595 Y20.7702
G01 X28.8581 Y20.7605
G01 X28.8557 Y20.7510
G01 X28.8524 Y20.7417
G01 X28.8482 Y20.7329
G01 X28.8431 Y20.7244
G01 X28.8373 Y20.7166
G01 X28.8307 Y20.7093
G01 X28.8234 Y20.7027
G01 X28.8156 Y20.6969
G01 X28.8071 Y20.6918
G01 X28.7983 Y20.6876
G01 X28.7890 Y20.6843
G01 X28.7795 Y20.6819
G01 X28.7698 Y20.6805
G01 X28.7600 Y20.6800
G01 X28.7502 Y20.6805
G01 X28.7405 Y20.6819
G01 X28.7310 Y20.6843
G01 X28.7217 Y20.6876
G01 X28.7129 Y20.6918
G01 X28.7044 Y20.6969
G01 X28.6966 Y20.7027
G01 X28.6893 Y20.7093
G01 X28.6827 Y20.7166
G01 X28.6769 Y20.7244
G01 X28.6718 Y20.7329
G01 X28.6676 Y20.7417
G01 X28.6643 Y20.7510
G01 X28.6619 Y20.7605
G01 X28.6605 Y20.7702
G01 X28.6600 Y20.7800
G01 X28.6605 Y20.7898
G01 X28.6619 Y20.7995
G01 X28.6643 Y20.8090
G01 X28.6676 Y20.8183
G01 X28.6718 Y20.8271
G01 X28.6769 Y20.8356
G01 X28.6827 Y20.8434
G01 X28.6893 Y20.8507
G01 X28.6966 Y20.8573
G01 X28.7044 Y20.8631
G01 X28.7129 Y20.8682
G01 X28.7217 Y20.8724
G01 X28.7310 Y20.8757
G01 X28.7405 Y20.8781
G01 X28.7502 Y20.8795
G01 X28.7600 Y20.8800
G01 X28.7698 Y20.8795
G01 X28.7795 Y20.8781
G01 X28.7890 Y20.8757
G01 X28.7983 Y20.8724
G01 X28.8071 Y20.8682
G01 X28.8156 Y20.8631
G01 X28.8234 Y20.8573
G01 X28.8307 Y20.8507
G01 X28.8373 Y20.8434
G01 X28.8431 Y20.8356
G01 X28.8482 Y20.8271
G01 X28.8524 Y20.8183
G01 X28.8557 Y20.8090
G01 X28.8581 Y20.7995
G01 X28.8595 Y20.7898
G01 X28.8600 Y20.7800
G00 Z2.0000
G00 X28.8600 Y23.3200
G01 F60.00
G01 Z-2.4000
G01 F120.00
G01 X28.8595 Y23.3102
G01 X28.8581 Y23.3005
G01 X28.8557 Y23.2910
G01 X28.8524 Y23.2817
G01 X28.8482 Y23.2729
G01 X28.8431 Y23.2644
G01 X28.8373 Y23.2566
G01 X28.8307 Y23.2493
G01 X28.8234 Y23.2427
G01 X28.8156 Y23.2369
G01 X28.8071 Y23.2318
G01 X28.7983 Y23.2276
G01 X28.7890 Y23.2243
G01 X28.7795 Y23.2219
G01 X28.7698 Y23.2205
G01 X28.7600 Y23.2200
G01 X28.7502 Y23.2205
G01 X28.7405 Y23.2219
G01 X28.7310 Y23.2243
G01 X28.7217 Y23.2276
G01 X28.7129 Y23.2318
G01 X28.7044 Y23.2369
G01 X28.6966 Y23.2427
G01 X28.6893 Y23.2493
G01 X28.6827 Y23.2566
G01 X28.6769 Y23.2644
G01 X28.6718 Y23.2729
G01 X28.6676 Y23.2817
G01 X28.6643 Y23.2910
G01 X28.6619 Y23.3005
G01 X28.6605 Y23.3102
G01 X28.6600 Y23.3200
G01 X28.6605 Y23.3298
G01 X28.6619 Y23.3395
G01 X28.6643 Y23.3490
G01 X28.6676 Y23.3583
G01 X28.6718 Y23.3671
G01 X28.6769 Y23.3756
G01 X28.6827 Y23.3834
G01 X28.6893 Y23.3907
G01 X28.6966 Y23.3973
G01 X28.7044 Y23.4031
G01 X28.7129 Y23.4082
G01 X28.7217 Y23.4124
G01 X28.7310 Y23.4157
G01 X28.7405 Y23.4181
G01 X28.7502 Y23.4195
G01 X28.7600 Y23.4200
G01 X28.7698 Y23.4195
G01 X28.7795 Y23.4181
G01 X28.7890 Y23.4157
G01 X28.7983 Y23.4124
G01 X28.8071 Y23.4082
G01 X28.8156 Y23.4031
G01 X28.8234 Y23.3973
G01 X28.8307 Y23.3907
G01 X28.8373 Y23.3834
G01 X28.8431 Y23.3756
G01 X28.8482 Y23.3671
G01 X28.8524 Y23.3583
G01 X28.8557 Y23.3490
G01 X28.8581 Y23.3395
G01 X28.8595 Y23.3298
G01 X28.8600 Y23.3200
G00 Z2.0000
G00 X28.8600 Y25.8600
G01 F60.00
G01 Z-2.4000
G01 F120.00
G01 X28.8595 Y25.8502
G01 X28.8581 Y25.8405
G01 X28.8557 Y25.8310
G01 X28.8524 Y25.8217
G01 X28.8482 Y25.8129
G01 X28.8431 Y25.8044
G01 X28.8373 Y25.7966
G01 X28.8307 Y25.7893
G01 X28.8234 Y25.7827
G01 X28.8156 Y25.7769
G01 X28.8071 Y25.7718
G01 X28.7983 Y25.7676
G01 X28.7890 Y25.7643
G01 X28.7795 Y25.7619
G01 X28.7698 Y25.7605
G01 X28.7600 Y25.7600
G01 X28.7502 Y25.7605
G01 X28.7405 Y25.7619
G01 X28.7310 Y25.7643
G01 X28.7217 Y25.7676
G01 X28.7129 Y25.7718
G01 X28.7044 Y25.7769
G01 X28.6966 Y25.7827
G01 X28.6893 Y25.7893
G01 X28.6827 Y25.7966
G01 X28.6769 Y25.8044
G01 X28.6718 Y25.8129
G01 X28.6676 Y25.8217
G01 X28.6643 Y25.8310
G01 X28.6619 Y25.8405
G01 X28.6605 Y25.8502
G01 X28.6600 Y25.8600
G01 X28.6605 Y25.8698
G01 X28.6619 Y25.8795
G01 X28.6643 Y25.8890
G01 X28.6676 Y25.8983
G01 X28.6718 Y25.9071
G01 X28.6769 Y25.9156
G01 X28.6827 Y25.9234
G01 X28.6893 Y25.9307
G01 X28.6966 Y25.9373
G01 X28.7044 Y25.9431
G01 X28.7129 Y25.9482
G01 X28.7217 Y25.9524
G01 X28.7310 Y25.9557
G01 X28.7405 Y25.9581
G01 X28.7502 Y25.9595
G01 X28.7600 Y25.9600
G01 X28.7698 Y25.9595
G01 X28.7795 Y25.9581
G01 X28.7890 Y25.9557
G01 X28.7983 Y25.9524
G01 X28.8071 Y25.9482
G01 X28.8156 Y25.9431
G01 X28.8234 Y25.9373
G01 X28.8307 Y25.9307
G01 X28.8373 Y25.9234
G01 X28.8431 Y25.9156
G01 X28.8482 Y25.9071
G01 X28.8524 Y25.8983
G01 X28.8557 Y25.8890
G01 X28.8581 Y25.8795
G01 X28.8595 Y25.8698
G01 X28.8600 Y25.8600
G00 Z2.0000
G00 X28.8600 Y28.4000
G01 F60.00
G01 Z-2.4000
G01 F120.00
G01 X28.8595 Y28.3902
G01 X28.8581 Y28.3805
G01 X28.8557 Y28.3710
G01 X28.8524 Y28.3617
G01 X28.8482 Y28.3529
G01 X28.8431 Y28.3444
G01 X28.8373 Y28.3366
G01 X28.8307 Y28.3293
G01 X28.8234 Y28.3227
G01 X28.8156 Y28.3169
G01 X28.8071 Y28.3118
G01 X28.7983 Y28.3076
G01 X28.7890 Y28.3043
G01 X28.7795 Y28.3019
G01 X28.7698 Y28.3005
G01 X28.7600 Y28.3000
G01 X28.7502 Y28.3005
G01 X28.7405 Y28.3019
G01 X28.7310 Y28.3043
G01 X28.7217 Y28.3076
G01 X28.7129 Y28.3118
G01 X28.7044 Y28.3169
G01 X28.6966 Y28.3227
G01 X28.6893 Y28.3293
G01 X28.6827 Y28.3366
G01 X28.6769 Y28.3444
G01 X28.6718 Y28.3529
G01 X28.6676 Y28.3617
G01 X28.6643 Y28.3710
G01 X28.6619 Y28.3805
G01 X28.6605 Y28.3902
G01 X28.6600 Y28.4000
G01 X28.6605 Y28.4098
G01 X28.6619 Y28.4195
G01 X28.6643 Y28.4290
G01 X28.6676 Y28.4383
G01 X28.6718 Y28.4471
G01 X28.6769 Y28.4556
G01 X28.6827 Y28.4634
G01 X28.6893 Y28.4707
G01 X28.6966 Y28.4773
G01 X28.7044 Y28.4831
G01 X28.7129 Y28.4882
G01 X28.7217 Y28.4924
G01 X28.7310 Y28.4957
G01 X28.7405 Y28.4981
G01 X28.7502 Y28.4995
G01 X28.7600 Y28.5000
G01 X28.7698 Y28.4995
G01 X28.7795 Y28.4981
G01 X28.7890 Y28.4957
G01 X28.7983 Y28.4924
G01 X28.8071 Y28.4882
G01 X28.8156 Y28.4831
G01 X28.8234 Y28.4773
G01 X28.8307 Y28.4707
G01 X28.8373 Y28.4634
G01 X28.8431 Y28.4556
G01 X28.8482 Y28.4471
G01 X28.8524 Y28.4383
G01 X28.8557 Y28.4290
G01 X28.8581 Y28.4195
G01 X28.8595 Y28.4098
G01 X28.8600 Y28.4000
G00 Z2.0000
G00 X31.4000 Y28.4000
G01 F60.00
G01 Z-2.4000
G01 F120.00
G01 X31.3995 Y28.3902
G01 X31.3981 Y28.3805
G01 X31.3957 Y28.3710
G01 X31.3924 Y28.3617
G01 X31.3882 Y28.3529
G01 X31.3831 Y28.3444
G01 X31.3773 Y28.3366
G01 X31.3707 Y28.3293
G01 X31.3634 Y28.3227
G01 X31.3556 Y28.3169
G01 X31.3471 Y28.3118
G01 X31.3383 Y28.3076
G01 X31.3290 Y28.3043
G01 X31.3195 Y28.3019
G01 X31.3098 Y28.3005
G01 X31.3000 Y28.3000
G01 X31.2902 Y28.3005
G01 X31.2805 Y28.3019
G01 X31.2710 Y28.3043
G01 X31.2617 Y28.3076
G01 X31.2529 Y28.3118
G01 X31.2444 Y28.3169
G01 X31.2366 Y28.3227
G01 X31.2293 Y28.3293
G01 X31.2227 Y28.3366
G01 X31.2169 Y28.3444
G01 X31.2118 Y28.3529
G01 X31.2076 Y28.3617
G01 X31.2043 Y28.3710
G01 X31.2019 Y28.3805
G01 X31.2005 Y28.3902
G01 X31.2000 Y28.4000
G01 X31.2005 Y28.4098
G01 X31.2019 Y28.4195
G01 X31.2043 Y28.4290
G01 X31.2076 Y28.4383
G01 X31.2118 Y28.4471
G01 X31.2169 Y28.4556
G01 X31.2227 Y28.4634
G01 X31.2293 Y28.4707
G01 X31.2366 Y28.4773
G01 X31.2444 Y28.4831
G01 X31.2529 Y28.4882
G01 X31.2617 Y28.4924
G01 X31.2710 Y28.4957
G01 X31.2805 Y28.4981
G01 X31.2902 Y28.4995
G01 X31.3000 Y28.5000
G01 X31.3098 Y28.4995
G01 X31.3195 Y28.4981
G01 X31.3290 Y28.4957
G01 X31.3383 Y28.4924
G01 X31.3471 Y28.4882
G01 X31.3556 Y28.4831
G01 X31.3634 Y28.4773
G01 X31.3707 Y28.4707
G01 X31.3773 Y28.4634
G01 X31.3831 Y28.4556
G01 X31.3882 Y28.4471
G01 X31.3924 Y28.4383
G01 X31.3957 Y28.4290
G01 X31.3981 Y28.4195
G01 X31.3995 Y28.4098
G01 X31.4000 Y28.4000
G00 Z2.0000
G00 X31.4000 Y25.8600
G01 F60.00
G01 Z-2.4000
G01 F120.00
G01 X31.3995 Y25.8502
G01 X31.3981 Y25.8405
G01 X31.3957 Y25.8310
G01 X31.3924 Y25.8217
G01 X31.3882 Y25.8129
G01 X31.3831 Y25.8044
G01 X31.3773 Y25.7966
G01 X31.3707 Y25.7893
G01 X31.3634 Y25.7827
G01 X31.3556 Y25.7769
G01 X31.3471 Y25.7718
G01 X31.3383 Y25.7676
G01 X31.3290 Y25.7643
G01 X31.3195 Y25.7619
G01 X31.3098 Y25.7605
G01 X31.3000 Y25.7600
G01 X31.2902 Y25.7605
G01 X31.2805 Y25.7619
G01 X31.2710 Y25.7643
G01 X31.2617 Y25.7676
G01 X31.2529 Y25.7718
G01 X31.2444 Y25.7769
G01 X31.2366 Y25.7827
G01 X31.2293 Y25.7893
G01 X31.2227 Y25.7966
G01 X31.2169 Y25.8044
G01 X31.2118 Y25.8129
G01 X31.2076 Y25.8217
G01 X31.2043 Y25.8310
G01 X31.2019 Y25.8405
G01 X31.2005 Y25.8502
G01 X31.2000 Y25.8600
G01 X31.2005 Y25.8698
G01 X31.2019 Y25.8795
G01 X31.2043 Y25.8890
G01 X31.2076 Y25.8983
G01 X31.2118 Y25.9071
G01 X31.2169 Y25.9156
G01 X31.2227 Y25.9234
G01 X31.2293 Y25.9307
G01 X31.2366 Y25.9373
G01 X31.2444 Y25.9431
G01 X31.2529 Y25.9482
G01 X31.2617 Y25.9524
G01 X31.2710 Y25.9557
G01 X31.2805 Y25.9581
G01 X31.2902 Y25.9595
G01 X31.3000 Y25.9600
G01 X31.3098 Y25.9595
G01 X31.3195 Y25.9581
G01 X31.3290 Y25.9557
G01 X31.3383 Y25.9524
G01 X31.3471 Y25.9482
G01 X31.3556 Y25.9431
G01 X31.3634 Y25.9373
G01 X31.3707 Y25.9307
G01 X31.3773 Y25.9234
G01 X31.3831 Y25.9156
G01 X31.3882 Y25.9071
G01 X31.3924 Y25.8983
G01 X31.3957 Y25.8890
G01 X31.3981 Y25.8795
G01 X31.3995 Y25.8698
G01 X31.4000 Y25.8600
G00 Z2.0000
G00 X31.4000 Y23.3200
G01 F60.00
G01 Z-2.4000
G01 F120.00
G01 X31.3995 Y23.3102
G01 X31.3981 Y23.3005
G01 X31.3957 Y23.2910
G01 X31.3924 Y23.2817
G01 X31.3882 Y23.2729
G01 X31.3831 Y23.2644
G01 X31.3773 Y23.2566
G01 X31.3707 Y23.2493
G01 X31.3634 Y23.2427
G01 X31.3556 Y23.2369
G01 X31.3471 Y23.2318
G01 X31.3383 Y23.2276
G01 X31.3290 Y23.2243
G01 X31.3195 Y23.2219
G01 X31.3098 Y23.2205
G01 X31.3000 Y23.2200
G01 X31.2902 Y23.2205
G01 X31.2805 Y23.2219
G01 X31.2710 Y23.2243
G01 X31.2617 Y23.2276
G01 X31.2529 Y23.2318
G01 X31.2444 Y23.2369
G01 X31.2366 Y23.2427
G01 X31.2293 Y23.2493
G01 X31.2227 Y23.2566
G01 X31.2169 Y23.2644
G01 X31.2118 Y23.2729
G01 X31.2076 Y23.2817
G01 X31.2043 Y23.2910
G01 X31.2019 Y23.3005
G01 X31.2005 Y23.3102
G01 X31.2000 Y23.3200
G01 X31.2005 Y23.3298
G01 X31.2019 Y23.3395
G01 X31.2043 Y23.3490
G01 X31.2076 Y23.3583
G01 X31.2118 Y23.3671
G01 X31.2169 Y23.3756
G01 X31.2227 Y23.3834
G01 X31.2293 Y23.3907
G01 X31.2366 Y23.3973
G01 X31.2444 Y23.4031
G01 X31.2529 Y23.4082
G01 X31.2617 Y23.4124
G01 X31.2710 Y23.4157
G01 X31.2805 Y23.4181
G01 X31.2902 Y23.4195
G01 X31.3000 Y23.4200
G01 X31.3098 Y23.4195
G01 X31.3195 Y23.4181
G01 X31.3290 Y23.4157
G01 X31.3383 Y23.4124
G01 X31.3471 Y23.4082
G01 X31.3556 Y23.4031
G01 X31.3634 Y23.3973
G01 X31.3707 Y23.3907
G01 X31.3773 Y23.3834
G01 X31.3831 Y23.3756
G01 X31.3882 Y23.3671
G01 X31.3924 Y23.3583
G01 X31.3957 Y23.3490
G01 X31.3981 Y23.3395
G01 X31.3995 Y23.3298
G01 X31.4000 Y23.3200
G00 Z2.0000
G00 X31.4000 Y20.7800
G01 F60.00
G01 Z-2.4000
G01 F120.00
G01 X31.3995 Y20.7702
G01 X31.3981 Y20.7605
G01 X31.3957 Y20.7510
G01 X31.3924 Y20.7417
G01 X31.3882 Y20.7329
G01 X31.3831 Y20.7244
G01 X31.3773 Y20.7166
G01 X31.3707 Y20.7093
G01 X31.3634 Y20.7027
G01 X31.3556 Y20.6969
G01 X31.3471 Y20.6918
G01 X31.3383 Y20.6876
G01 X31.3290 Y20.6843
G01 X31.3195 Y20.6819
G01 X31.3098 Y20.6805
G01 X31.3000 Y20.6800
G01 X31.2902 Y20.6805
G01 X31.2805 Y20.6819
G01 X31.2710 Y20.6843
G01 X31.2617 Y20.6876
G01 X31.2529 Y20.6918
G01 X31.2444 Y20.6969
G01 X31.2366 Y20.7027
G01 X31.2293 Y20.7093
G01 X31.2227 Y20.7166
G01 X31.2169 Y20.7244
G01 X31.2118 Y20.7329
G01 X31.2076 Y20.7417
G01 X31.2043 Y20.7510
G01 X31.2019 Y20.7605
G01 X31.2005 Y20.7702
G01 X31.2000 Y20.7800
G01 X31.2005 Y20.7898
G01 X31.2019 Y20.7995
G01 X31.2043 Y20.8090
G01 X31.2076 Y20.8183
G01 X31.2118 Y20.8271
G01 X31.2169 Y20.8356
G01 X31.2227 Y20.8434
G01 X31.2293 Y20.8507
G01 X31.2366 Y20.8573
G01 X31.2444 Y20.8631
G01 X31.2529 Y20.8682
G01 X31.2617 Y20.8724
G01 X31.2710 Y20.8757
G01 X31.2805 Y20.8781
G01 X31.2902 Y20.8795
G01 X31.3000 Y20.8800
G01 X31.3098 Y20.8795
G01 X31.3195 Y20.8781
G01 X31.3290 Y20.8757
G01 X31.3383 Y20.8724
G01 X31.3471 Y20.8682
G01 X31.3556 Y20.8631
G01 X31.3634 Y20.8573
G01 X31.3707 Y20.8507
G01 X31.3773 Y20.8434
G01 X31.3831 Y20.8356
G01 X31.3882 Y20.8271
G01 X31.3924 Y20.8183
G01 X31.3957 Y20.8090
G01 X31.3981 Y20.7995
G01 X31.3995 Y20.7898
G01 X31.4000 Y20.7800
G00 Z2.0000
G00 X21.2400 Y20.7800
G01 F60.00
G01 Z-2.4000
G01 F120.00
G01 X21.2395 Y20.7702
G01 X21.2381 Y20.7605
G01 X21.2357 Y20.7510
G01 X21.2324 Y20.7417
G01 X21.2282 Y20.7329
G01 X21.2231 Y20.7244
G01 X21.2173 Y20.7166
G01 X21.2107 Y20.7093
G01 X21.2034 Y20.7027
G01 X21.1956 Y20.6969
G01 X21.1871 Y20.6918
G01 X21.1783 Y20.6876
G01 X21.1690 Y20.6843
G01 X21.1595 Y20.6819
G01 X21.1498 Y20.6805
G01 X21.1400 Y20.6800
G01 X21.1302 Y20.6805
G01 X21.1205 Y20.6819
G01 X21.1110 Y20.6843
G01 X21.1017 Y20.6876
G01 X21.0929 Y20.6918
G01 X21.0844 Y20.6969
G01 X21.0766 Y20.7027
G01 X21.0693 Y20.7093
G01 X21.0627 Y20.7166
G01 X21.0569 Y20.7244
G01 X21.0518 Y20.7329
G01 X21.0476 Y20.7417
G01 X21.0443 Y20.7510
G01 X21.0419 Y20.7605
G01 X21.0405 Y20.7702
G01 X21.0400 Y20.7800
G01 X21.0405 Y20.7898
G01 X21.0419 Y20.7995
G01 X21.0443 Y20.8090
G01 X21.0476 Y20.8183
G01 X21.0518 Y20.8271
G01 X21.0569 Y20.8356
G01 X21.0627 Y20.8434
G01 X21.0693 Y20.8507
G01 X21.0766 Y20.8573
G01 X21.0844 Y20.8631
G01 X21.0929 Y20.8682
G01 X21.1017 Y20.8724
G01 X21.1110 Y20.8757
G01 X21.1205 Y20.8781
G01 X21.1302 Y20.8795
G01 X21.1400 Y20.8800
G01 X21.1498 Y20.8795
G01 X21.1595 Y20.8781
G01 X21.1690 Y20.8757
G01 X21.1783 Y20.8724
G01 X21.1871 Y20.8682
G01 X21.1956 Y20.8631
G01 X21.2034 Y20.8573
G01 X21.2107 Y20.8507
G01 X21.2173 Y20.8434
G01 X21.2231 Y20.8356
G01 X21.2282 Y20.8271
G01 X21.2324 Y20.8183
G01 X21.2357 Y20.8090
G01 X21.2381 Y20.7995
G01 X21.2395 Y20.7898
G01 X21.2400 Y20.7800
G00 Z2.0000
G00 X18.7000 Y20.7800
G01 F60.00
G01 Z-2.4000
G01 F120.00
G01 X18.6995 Y20.7702
G01 X18.6981 Y20.7605
G01 X18.6957 Y20.7510
G01 X18.6924 Y20.7417
G01 X18.6882 Y20.7329
G01 X18.6831 Y20.7244
G01 X18.6773 Y20.7166
G01 X18.6707 Y20.7093
G01 X18.6634 Y20.7027
G01 X18.6556 Y20.6969
G01 X18.6471 Y20.6918
G01 X18.6383 Y20.6876
G01 X18.6290 Y20.6843
G01 X18.6195 Y20.6819
G01 X18.6098 Y20.6805
G01 X18.6000 Y20.6800
G01 X18.5902 Y20.6805
G01 X18.5805 Y20.6819
G01 X18.5710 Y20.6843
G01 X18.5617 Y20.6876
G01 X18.5529 Y20.6918
G01 X18.5444 Y20.6969
G01 X18.5366 Y20.7027
G01 X18.5293 Y20.7093
G01 X18.5227 Y20.7166
G01 X18.5169 Y20.7244
G01 X18.5118 Y20.7329
G01 X18.5076 Y20.7417
G01 X18.5043 Y20.7510
G01 X18.5019 Y20.7605
G01 X18.5005 Y20.7702
G01 X18.5000 Y20.7800
G01 X18.5005 Y20.7898
G01 X18.5019 Y20.7995
G01 X18.5043 Y20.8090
G01 X18.5076 Y20.8183
G01 X18.5118 Y20.8271
G01 X18.5169 Y20.8356
G01 X18.5227 Y20.8434
G01 X18.5293 Y20.8507
G01 X18.5366 Y20.8573
G01 X18.5444 Y20.8631
G01 X18.5529 Y20.8682
G01 X18.5617 Y20.8724
G01 X18.5710 Y20.8757
G01 X18.5805 Y20.8781
G01 X18.5902 Y20.8795
G01 X18.6000 Y20.8800
G01 X18.6098 Y20.8795
G01 X18.6195 Y20.8781
G01 X18.6290 Y20.8757
G01 X18.6383 Y20.8724
G01 X18.6471 Y20.8682
G01 X18.6556 Y20.8631
G01 X18.6634 Y20.8573
G01 X18.6707 Y20.8507
G01 X18.6773 Y20.8434
G01 X18.6831 Y20.8356
G01 X18.6882 Y20.8271
G01 X18.6924 Y20.8183
G01 X18.6957 Y20.8090
G01 X18.6981 Y20.7995
G01 X18.6995 Y20.7898
G01 X18.7000 Y20.7800
G00 Z2.0000
G00 X16.1600 Y20.7800
G01 F60.00
G01 Z-2.4000
G01 F120.00
G01 X16.1595 Y20.7702
G01 X16.1581 Y20.7605
G01 X16.1557 Y20.7510
G01 X16.1524 Y20.7417
G01 X16.1482 Y20.7329
G01 X16.1431 Y20.7244
G01 X16.1373 Y20.7166
G01 X16.1307 Y20.7093
G01 X16.1234 Y20.7027
G01 X16.1156 Y20.6969
G01 X16.1071 Y20.6918
G01 X16.0983 Y20.6876
G01 X16.0890 Y20.6843
G01 X16.0795 Y20.6819
G01 X16.0698 Y20.6805
G01 X16.0600 Y20.6800
G01 X16.0502 Y20.6805
G01 X16.0405 Y20.6819
G01 X16.0310 Y20.6843
G01 X16.0217 Y20.6876
G01 X16.0129 Y20.6918
G01 X16.0044 Y20.6969
G01 X15.9966 Y20.7027
G01 X15.9893 Y20.7093
G01 X15.9827 Y20.7166
G01 X15.9769 Y20.7244
G01 X15.9718 Y20.7329
G01 X15.9676 Y20.7417
G01 X15.9643 Y20.7510
G01 X15.9619 Y20.7605
G01 X15.9605 Y20.7702
G01 X15.9600 Y20.7800
G01 X15.9605 Y20.7898
G01 X15.9619 Y20.7995
G01 X15.9643 Y20.8090
G01 X15.9676 Y20.8183
G01 X15.9718 Y20.8271
G01 X15.9769 Y20.8356
G01 X15.9827 Y20.8434
G01 X15.9893 Y20.8507
G01 X15.9966 Y20.8573
G01 X16.0044 Y20.8631
G01 X16.0129 Y20.8682
G01 X16.0217 Y20.8724
G01 X16.0310 Y20.8757
G01 X16.0405 Y20.8781
G01 X16.0502 Y20.8795
G01 X16.0600 Y20.8800
G01 X16.0698 Y20.8795
G01 X16.0795 Y20.8781
G01 X16.0890 Y20.8757
G01 X16.0983 Y20.8724
G01 X16.1071 Y20.8682
G01 X16.1156 Y20.8631
G01 X16.1234 Y20.8573
G01 X16.1307 Y20.8507
G01 X16.1373 Y20.8434
G01 X16.1431 Y20.8356
G01 X16.1482 Y20.8271
G01 X16.1524 Y20.8183
G01 X16.1557 Y20.8090
G01 X16.1581 Y20.7995
G01 X16.1595 Y20.7898
G01 X16.1600 Y20.7800
G00 Z2.0000
G00 X13.6200 Y20.7800
G01 F60.00
G01 Z-2.4000
G01 F120.00
G01 X13.6195 Y20.7702
G01 X13.6181 Y20.7605
G01 X13.6157 Y20.7510
G01 X13.6124 Y20.7417
G01 X13.6082 Y20.7329
G01 X13.6031 Y20.7244
G01 X13.5973 Y20.7166
G01 X13.5907 Y20.7093
G01 X13.5834 Y20.7027
G01 X13.5756 Y20.6969
G01 X13.5671 Y20.6918
G01 X13.5583 Y20.6876
G01 X13.5490 Y20.6843
G01 X13.5395 Y20.6819
G01 X13.5298 Y20.6805
G01 X13.5200 Y20.6800
G01 X13.5102 Y20.6805
G01 X13.5005 Y20.6819
G01 X13.4910 Y20.6843
G01 X13.4817 Y20.6876
G01 X13.4729 Y20.6918
G01 X13.4644 Y20.6969
