(G-CODE GENERATED BY FLATCAM v8.994 - www.flatcam.org - Version Date: 2020/11/7)

(Name: EVBPusher_nano.drl_mill_slot_cnc)
(Type: G-code from Geometry)
(Units: MM)

(Created on Monday, 14 April 2025 at 16:58)

(This preprocessor is the default preprocessor used by FlatCAM.)
(It is made to work with MACH3 compatible motion controllers.)

(TOOL DIAMETER: 0.8 mm)
(Feedrate_XY: 120.0 mm/min)
(Feedrate_Z: 60.0 mm/min)
(Feedrate rapids 1500.0 mm/min)

(Z_Cut: -2.4 mm)
(Z_Move: 2.0 mm)
(Z Start: None mm)
(Z End: 15.0 mm)
(X,Y End: None mm)
(Steps per circle: 64)
(Preprocessor Geometry: default)

(X range:   33.7149 ...   39.9151  mm)
(Y range:   55.2589 ...   60.4591  mm)

(Spindle Speed: 7500.0 RPM)
G21
G90
G94

G01 F120.00

M5
G00 Z15.0000
G00 X0.0000 Y0.0000
T1
M6    
(MSG, Change to Tool Dia = 0.8000)
M0
G00 Z15.0000

M03 S7500.0
G01 F120.00
G00 X37.1150 Y55.4591
G01 F60.00
G01 Z-2.4000
G01 F120.00
G01 X37.1248 Y55.4586
G01 X37.1345 Y55.4572
G01 X37.1417 Y55.4555
G01 X37.1510 Y55.4524
G01 X37.1578 Y55.4495
G01 X37.1665 Y55.4449
G01 X37.1746 Y55.4394
G01 X37.1822 Y55.4332
G01 X37.1892 Y55.4262
G01 X37.1954 Y55.4186
G01 X37.2009 Y55.4105
G01 X37.2044 Y55.4040
G01 X37.2084 Y55.3950
G01 X37.2115 Y55.3857
G01 X37.2132 Y55.3785
G01 X37.2146 Y55.3688
G01 X37.2151 Y55.3590
G01 X37.2146 Y55.3492
G01 X37.2132 Y55.3395
G01 X37.2115 Y55.3323
G01 X37.2084 Y55.3230
G01 X37.2055 Y55.3162
G01 X37.2009 Y55.3075
G01 X37.1954 Y55.2994
G01 X37.1892 Y55.2918
G01 X37.1822 Y55.2848
G01 X37.1746 Y55.2786
G01 X37.1665 Y55.2731
G01 X37.1578 Y55.2685
G01 X37.1510 Y55.2656
G01 X37.1417 Y55.2625
G01 X37.1321 Y55.2604
G01 X37.1224 Y55.2592
G01 X37.1150 Y55.2589
G01 X36.5150 Y55.2589
G01 X36.5027 Y55.2597
G01 X36.4955 Y55.2608
G01 X36.4883 Y55.2625
G01 X36.4790 Y55.2656
G01 X36.4722 Y55.2685
G01 X36.4657 Y55.2719
G01 X36.4594 Y55.2758
G01 X36.4534 Y55.2801
G01 X36.4460 Y55.2865
G01 X36.4408 Y55.2918
G01 X36.4346 Y55.2994
G01 X36.4304 Y55.3054
G01 X36.4267 Y55.3118
G01 X36.4235 Y55.3184
G01 X36.4200 Y55.3276
G01 X36.4179 Y55.3347
G01 X36.4164 Y55.3419
G01 X36.4152 Y55.3516
G01 X36.4149 Y55.3615
G01 X36.4157 Y55.3713
G01 X36.4173 Y55.3809
G01 X36.4200 Y55.3904
G01 X36.4235 Y55.3996
G01 X36.4279 Y55.4083
G01 X36.4332 Y55.4166
G01 X36.4392 Y55.4244
G01 X36.4460 Y55.4315
G01 X36.4534 Y55.4379
G01 X36.4614 Y55.4436
G01 X36.4700 Y55.4484
G01 X36.4790 Y55.4524
G01 X36.4883 Y55.4555
G01 X36.4979 Y55.4576
G01 X36.5076 Y55.4588
G01 X36.5150 Y55.4591
G01 X37.1150 Y55.4591
G00 Z2.0000
G00 X39.9151 Y59.7590
G01 F60.00
G01 Z-2.4000
G01 F120.00
G01 X39.9146 Y59.7492
G01 X39.9132 Y59.7395
G01 X39.9115 Y59.7323
G01 X39.9084 Y59.7230
G01 X39.9055 Y59.7162
G01 X39.9009 Y59.7075
G01 X39.8954 Y59.6994
G01 X39.8892 Y59.6918
G01 X39.8822 Y59.6848
G01 X39.8746 Y59.6786
G01 X39.8665 Y59.6731
G01 X39.8600 Y59.6696
G01 X39.8510 Y59.6656
G01 X39.8417 Y59.6625
G01 X39.8345 Y59.6608
G01 X39.8248 Y59.6594
G01 X39.8150 Y59.6589
G01 X39.8052 Y59.6594
G01 X39.7955 Y59.6608
G01 X39.7883 Y59.6625
G01 X39.7790 Y59.6656
G01 X39.7722 Y59.6685
G01 X39.7635 Y59.6731
G01 X39.7554 Y59.6786
G01 X39.7478 Y59.6848
G01 X39.7408 Y59.6918
G01 X39.7346 Y59.6994
G01 X39.7291 Y59.7075
G01 X39.7245 Y59.7162
G01 X39.7216 Y59.7230
G01 X39.7185 Y59.7323
G01 X39.7164 Y59.7419
G01 X39.7152 Y59.7516
G01 X39.7149 Y59.7590
G01 X39.7149 Y60.3590
G01 X39.7157 Y60.3713
G01 X39.7168 Y60.3785
G01 X39.7185 Y60.3857
G01 X39.7216 Y60.3950
G01 X39.7245 Y60.4018
G01 X39.7279 Y60.4083
G01 X39.7318 Y60.4146
G01 X39.7361 Y60.4206
G01 X39.7425 Y60.4280
G01 X39.7478 Y60.4332
G01 X39.7554 Y60.4394
G01 X39.7614 Y60.4436
G01 X39.7678 Y60.4473
G01 X39.7744 Y60.4505
G01 X39.7836 Y60.4540
G01 X39.7907 Y60.4561
G01 X39.7979 Y60.4576
G01 X39.8076 Y60.4588
G01 X39.8175 Y60.4591
G01 X39.8273 Y60.4583
G01 X39.8369 Y60.4567
G01 X39.8464 Y60.4540
G01 X39.8556 Y60.4505
G01 X39.8643 Y60.4461
G01 X39.8726 Y60.4408
G01 X39.8804 Y60.4348
G01 X39.8875 Y60.4280
G01 X39.8939 Y60.4206
G01 X39.8996 Y60.4126
G01 X39.9044 Y60.4040
G01 X39.9084 Y60.3950
G01 X39.9115 Y60.3857
G01 X39.9136 Y60.3761
G01 X39.9148 Y60.3664
G01 X39.9151 Y60.3590
G01 X39.9151 Y59.7590
G00 Z2.0000
G00 X33.9151 Y59.7590
G01 F60.00
G01 Z-2.4000
G01 F120.00
G01 X33.9146 Y59.7492
G01 X33.9132 Y59.7395
G01 X33.9115 Y59.7323
G01 X33.9084 Y59.7230
G01 X33.9055 Y59.7162
G01 X33.9009 Y59.7075
G01 X33.8954 Y59.6994
G01 X33.8892 Y59.6918
G01 X33.8822 Y59.6848
G01 X33.8746 Y59.6786
G01 X33.8665 Y59.6731
G01 X33.8600 Y59.6696
G01 X33.8510 Y59.6656
G01 X33.8417 Y59.6625
G01 X33.8345 Y59.6608
G01 X33.8248 Y59.6594
G01 X33.8150 Y59.6589
G01 X33.8052 Y59.6594
G01 X33.7955 Y59.6608
G01 X33.7883 Y59.6625
G01 X33.7790 Y59.6656
G01 X33.7722 Y59.6685
G01 X33.7635 Y59.6731
G01 X33.7554 Y59.6786
G01 X33.7478 Y59.6848
G01 X33.7408 Y59.6918
G01 X33.7346 Y59.6994
G01 X33.7291 Y59.7075
G01 X33.7245 Y59.7162
G01 X33.7216 Y59.7230
G01 X33.7185 Y59.7323
G01 X33.7164 Y59.7419
G01 X33.7152 Y59.7516
G01 X33.7149 Y59.7590
G01 X33.7149 Y60.3590
G01 X33.7157 Y60.3713
G01 X33.7168 Y60.3785
G01 X33.7185 Y60.3857
G01 X33.7216 Y60.3950
G01 X33.7245 Y60.4018
G01 X33.7279 Y60.4083
G01 X33.7318 Y60.4146
G01 X33.7361 Y60.4206
G01 X33.7425 Y60.4280
G01 X33.7478 Y60.4332
G01 X33.7554 Y60.4394
G01 X33.7614 Y60.4436
G01 X33.7678 Y60.4473
G01 X33.7744 Y60.4505
G01 X33.7836 Y60.4540
G01 X33.7907 Y60.4561
G01 X33.7979 Y60.4576
G01 X33.8076 Y60.4588
G01 X33.8175 Y60.4591
G01 X33.8273 Y60.4583
G01 X33.8369 Y60.4567
G01 X33.8464 Y60.4540
G01 X33.8556 Y60.4505
G01 X33.8643 Y60.4461
G01 X33.8726 Y60.4408
G01 X33.8804 Y60.4348
G01 X33.8875 Y60.4280
G01 X33.8939 Y60.4206
G01 X33.8996 Y60.4126
G01 X33.9044 Y60.4040
G01 X33.9084 Y60.3950
G01 X33.9115 Y60.3857
G01 X33.9136 Y60.3761
G01 X33.9148 Y60.3664
G01 X33.9151 Y60.3590
G01 X33.9151 Y59.7590
G00 Z2.0000
M05
G00 Z2.0000
G00 Z15.00


