(G-CODE GENERATED BY FLATCAM v8.994 - www.flatcam.org - Version Date: 2020/11/7)

(Name: EVBPusher_nano-B_Cu.gbl_cutout_cnc)
(Type: G-code from Geometry)
(Units: MM)

(Created on Monday, 14 April 2025 at 16:42)

(This preprocessor is the default preprocessor used by FlatCAM.)
(It is made to work with MACH3 compatible motion controllers.)

(TOOL DIAMETER: 0.8 mm)
(Feedrate_XY: 120.0 mm/min)
(Feedrate_Z: 60.0 mm/min)
(Feedrate rapids 1500.0 mm/min)

(Z_Cut: -2.3 mm)
(DepthPerCut: 0.6 mm <=>4 passes)
(Z_Move: 2.0 mm)
(Z Start: None mm)
(Z End: 15.0 mm)
(X,Y End: None mm)
(Steps per circle: 64)
(Preprocessor Geometry: default)

(X range:   -0.5000 ...   47.5000  mm)
(Y range:   -0.5000 ...   72.5000  mm)

(Spindle Speed: 7500.0 RPM)
G21
G90
G94

G01 F120.00

M5
G00 Z15.0000
G00 X0.0000 Y0.0000
T1
M6    
(MSG, Change to Tool Dia = 0.8000)
M0
G00 Z15.0000

M03 S7500.0
G01 F120.00
G00 X47.0000 Y-0.5000
G01 F60.00
G01 Z-0.6000
G01 F120.00
G01 X0.0000 Y-0.5000
G01 X-0.0490 Y-0.4976
G01 X-0.0975 Y-0.4904
G01 X-0.1451 Y-0.4785
G01 X-0.1913 Y-0.4619
G01 X-0.2357 Y-0.4410
G01 X-0.2778 Y-0.4157
G01 X-0.3172 Y-0.3865
G01 X-0.3536 Y-0.3536
G01 X-0.3865 Y-0.3172
G01 X-0.4157 Y-0.2778
G01 X-0.4410 Y-0.2357
G01 X-0.4619 Y-0.1913
G01 X-0.4785 Y-0.1451
G01 X-0.4904 Y-0.0975
G01 X-0.4976 Y-0.0490
G01 X-0.5000 Y0.0000
G01 X-0.5000 Y72.0000
G01 X-0.4976 Y72.0490
G01 X-0.4904 Y72.0975
G01 X-0.4785 Y72.1451
G01 X-0.4619 Y72.1913
G01 X-0.4410 Y72.2357
G01 X-0.4157 Y72.2778
G01 X-0.3865 Y72.3172
G01 X-0.3536 Y72.3536
G01 X-0.3172 Y72.3865
G01 X-0.2778 Y72.4157
G01 X-0.2357 Y72.4410
G01 X-0.1913 Y72.4619
G01 X-0.1451 Y72.4785
G01 X-0.0975 Y72.4904
G01 X-0.0490 Y72.4976
G01 X0.0000 Y72.5000
G01 X47.0000 Y72.5000
G01 X47.0490 Y72.4976
G01 X47.0975 Y72.4904
G01 X47.1451 Y72.4785
G01 X47.1913 Y72.4619
G01 X47.2357 Y72.4410
G01 X47.2778 Y72.4157
G01 X47.3172 Y72.3865
G01 X47.3536 Y72.3536
G01 X47.3865 Y72.3172
G01 X47.4157 Y72.2778
G01 X47.4410 Y72.2357
G01 X47.4619 Y72.1913
G01 X47.4785 Y72.1451
G01 X47.4904 Y72.0975
G01 X47.4976 Y72.0490
G01 X47.5000 Y72.0000
G01 X47.5000 Y0.0000
G01 X47.4976 Y-0.0490
G01 X47.4904 Y-0.0975
G01 X47.4785 Y-0.1451
G01 X47.4619 Y-0.1913
G01 X47.4410 Y-0.2357
G01 X47.4157 Y-0.2778
G01 X47.3865 Y-0.3172
G01 X47.3536 Y-0.3536
G01 X47.3172 Y-0.3865
G01 X47.2778 Y-0.4157
G01 X47.2357 Y-0.4410
G01 X47.1913 Y-0.4619
G01 X47.1451 Y-0.4785
G01 X47.0975 Y-0.4904
G01 X47.0490 Y-0.4976
G01 X47.0000 Y-0.5000
G00 X47.0000 Y-0.5000
G01 F60.00
G01 Z-1.2000
G01 F120.00
G01 X0.0000 Y-0.5000
G01 X-0.0490 Y-0.4976
G01 X-0.0975 Y-0.4904
G01 X-0.1451 Y-0.4785
G01 X-0.1913 Y-0.4619
G01 X-0.2357 Y-0.4410
G01 X-0.2778 Y-0.4157
G01 X-0.3172 Y-0.3865
G01 X-0.3536 Y-0.3536
G01 X-0.3865 Y-0.3172
G01 X-0.4157 Y-0.2778
G01 X-0.4410 Y-0.2357
G01 X-0.4619 Y-0.1913
G01 X-0.4785 Y-0.1451
G01 X-0.4904 Y-0.0975
G01 X-0.4976 Y-0.0490
G01 X-0.5000 Y0.0000
G01 X-0.5000 Y72.0000
G01 X-0.4976 Y72.0490
G01 X-0.4904 Y72.0975
G01 X-0.4785 Y72.1451
G01 X-0.4619 Y72.1913
G01 X-0.4410 Y72.2357
G01 X-0.4157 Y72.2778
G01 X-0.3865 Y72.3172
G01 X-0.3536 Y72.3536
G01 X-0.3172 Y72.3865
G01 X-0.2778 Y72.4157
G01 X-0.2357 Y72.4410
G01 X-0.1913 Y72.4619
G01 X-0.1451 Y72.4785
G01 X-0.0975 Y72.4904
G01 X-0.0490 Y72.4976
G01 X0.0000 Y72.5000
G01 X47.0000 Y72.5000
G01 X47.0490 Y72.4976
G01 X47.0975 Y72.4904
G01 X47.1451 Y72.4785
G01 X47.1913 Y72.4619
G01 X47.2357 Y72.4410
G01 X47.2778 Y72.4157
G01 X47.3172 Y72.3865
G01 X47.3536 Y72.3536
G01 X47.3865 Y72.3172
G01 X47.4157 Y72.2778
G01 X47.4410 Y72.2357
G01 X47.4619 Y72.1913
G01 X47.4785 Y72.1451
G01 X47.4904 Y72.0975
G01 X47.4976 Y72.0490
G01 X47.5000 Y72.0000
G01 X47.5000 Y0.0000
G01 X47.4976 Y-0.0490
G01 X47.4904 Y-0.0975
G01 X47.4785 Y-0.1451
G01 X47.4619 Y-0.1913
G01 X47.4410 Y-0.2357
G01 X47.4157 Y-0.2778
G01 X47.3865 Y-0.3172
G01 X47.3536 Y-0.3536
G01 X47.3172 Y-0.3865
G01 X47.2778 Y-0.4157
G01 X47.2357 Y-0.4410
G01 X47.1913 Y-0.4619
G01 X47.1451 Y-0.4785
G01 X47.0975 Y-0.4904
G01 X47.0490 Y-0.4976
G01 X47.0000 Y-0.5000
G00 X47.0000 Y-0.5000
G01 F60.00
G01 Z-1.8000
G01 F120.00
G01 X0.0000 Y-0.5000
G01 X-0.0490 Y-0.4976
G01 X-0.0975 Y-0.4904
G01 X-0.1451 Y-0.4785
G01 X-0.1913 Y-0.4619
G01 X-0.2357 Y-0.4410
G01 X-0.2778 Y-0.4157
G01 X-0.3172 Y-0.3865
G01 X-0.3536 Y-0.3536
G01 X-0.3865 Y-0.3172
G01 X-0.4157 Y-0.2778
G01 X-0.4410 Y-0.2357
G01 X-0.4619 Y-0.1913
G01 X-0.4785 Y-0.1451
G01 X-0.4904 Y-0.0975
G01 X-0.4976 Y-0.0490
G01 X-0.5000 Y0.0000
G01 X-0.5000 Y72.0000
G01 X-0.4976 Y72.0490
G01 X-0.4904 Y72.0975
G01 X-0.4785 Y72.1451
G01 X-0.4619 Y72.1913
G01 X-0.4410 Y72.2357
G01 X-0.4157 Y72.2778
G01 X-0.3865 Y72.3172
G01 X-0.3536 Y72.3536
G01 X-0.3172 Y72.3865
G01 X-0.2778 Y72.4157
G01 X-0.2357 Y72.4410
G01 X-0.1913 Y72.4619
G01 X-0.1451 Y72.4785
G01 X-0.0975 Y72.4904
G01 X-0.0490 Y72.4976
G01 X0.0000 Y72.5000
G01 X47.0000 Y72.5000
G01 X47.0490 Y72.4976
G01 X47.0975 Y72.4904
G01 X47.1451 Y72.4785
G01 X47.1913 Y72.4619
G01 X47.2357 Y72.4410
G01 X47.2778 Y72.4157
G01 X47.3172 Y72.3865
G01 X47.3536 Y72.3536
G01 X47.3865 Y72.3172
G01 X47.4157 Y72.2778
G01 X47.4410 Y72.2357
G01 X47.4619 Y72.1913
G01 X47.4785 Y72.1451
G01 X47.4904 Y72.0975
G01 X47.4976 Y72.0490
G01 X47.5000 Y72.0000
G01 X47.5000 Y0.0000
G01 X47.4976 Y-0.0490
G01 X47.4904 Y-0.0975
G01 X47.4785 Y-0.1451
G01 X47.4619 Y-0.1913
G01 X47.4410 Y-0.2357
G01 X47.4157 Y-0.2778
G01 X47.3865 Y-0.3172
G01 X47.3536 Y-0.3536
G01 X47.3172 Y-0.3865
G01 X47.2778 Y-0.4157
G01 X47.2357 Y-0.4410
G01 X47.1913 Y-0.4619
G01 X47.1451 Y-0.4785
G01 X47.0975 Y-0.4904
G01 X47.0490 Y-0.4976
G01 X47.0000 Y-0.5000
G00 X47.0000 Y-0.5000
G01 F60.00
G01 Z-2.3000
G01 F120.00
G01 X0.0000 Y-0.5000
G01 X-0.0490 Y-0.4976
G01 X-0.0975 Y-0.4904
G01 X-0.1451 Y-0.4785
G01 X-0.1913 Y-0.4619
G01 X-0.2357 Y-0.4410
G01 X-0.2778 Y-0.4157
G01 X-0.3172 Y-0.3865
G01 X-0.3536 Y-0.3536
G01 X-0.3865 Y-0.3172
G01 X-0.4157 Y-0.2778
G01 X-0.4410 Y-0.2357
G01 X-0.4619 Y-0.1913
G01 X-0.4785 Y-0.1451
G01 X-0.4904 Y-0.0975
G01 X-0.4976 Y-0.0490
G01 X-0.5000 Y0.0000
G01 X-0.5000 Y72.0000
G01 X-0.4976 Y72.0490
G01 X-0.4904 Y72.0975
G01 X-0.4785 Y72.1451
G01 X-0.4619 Y72.1913
G01 X-0.4410 Y72.2357
G01 X-0.4157 Y72.2778
G01 X-0.3865 Y72.3172
G01 X-0.3536 Y72.3536
G01 X-0.3172 Y72.3865
G01 X-0.2778 Y72.4157
G01 X-0.2357 Y72.4410
G01 X-0.1913 Y72.4619
G01 X-0.1451 Y72.4785
G01 X-0.0975 Y72.4904
G01 X-0.0490 Y72.4976
G01 X0.0000 Y72.5000
G01 X47.0000 Y72.5000
G01 X47.0490 Y72.4976
G01 X47.0975 Y72.4904
G01 X47.1451 Y72.4785
G01 X47.1913 Y72.4619
G01 X47.2357 Y72.4410
G01 X47.2778 Y72.4157
G01 X47.3172 Y72.3865
G01 X47.3536 Y72.3536
G01 X47.3865 Y72.3172
G01 X47.4157 Y72.2778
G01 X47.4410 Y72.2357
G01 X47.4619 Y72.1913
G01 X47.4785 Y72.1451
G01 X47.4904 Y72.0975
G01 X47.4976 Y72.0490
G01 X47.5000 Y72.0000
G01 X47.5000 Y0.0000
G01 X47.4976 Y-0.0490
G01 X47.4904 Y-0.0975
G01 X47.4785 Y-0.1451
G01 X47.4619 Y-0.1913
G01 X47.4410 Y-0.2357
G01 X47.4157 Y-0.2778
G01 X47.3865 Y-0.3172
G01 X47.3536 Y-0.3536
G01 X47.3172 Y-0.3865
G01 X47.2778 Y-0.4157
G01 X47.2357 Y-0.4410
G01 X47.1913 Y-0.4619
G01 X47.1451 Y-0.4785
G01 X47.0975 Y-0.4904
G01 X47.0490 Y-0.4976
G01 X47.0000 Y-0.5000
G00 Z2.0000
M05
G00 Z2.0000
G00 Z15.00


