(G-CODE GENERATED BY FLATCAM v8.994 - www.flatcam.org - Version Date: 2020/11/7)

(Name: SFX-BO-01-B_Cu.gbl_ncc_cnc)
(Type: G-code from Geometry)
(Units: MM)

(Created on Monday, 02 March 2026 at 14:18)

(This preprocessor is the default preprocessor used by FlatCAM.)
(It is made to work with MACH3 compatible motion controllers.)

(TOOL DIAMETER: 0.2 mm)
(Feedrate_XY: 120.0 mm/min)
(Feedrate_Z: 60.0 mm/min)
(Feedrate rapids 1500.0 mm/min)

(Z_Cut: -0.1905 mm)
(Z_Move: 0.6 mm)
(Z Start: None mm)
(Z End: 15.0 mm)
(X,Y End: None mm)
(Steps per circle: 64)
(Preprocessor Geometry: default)

(X range:    0.7895 ...   46.2105  mm)
(Y range:    0.9895 ...   70.4105  mm)

(Spindle Speed: 7500.0 RPM)
G21
G90
G94

G01 F120.00

M5
G00 Z15.0000
G00 X0.0000 Y0.0000
T1
M6    
(MSG, Change to Tool Dia = 0.2000)
M0
G00 Z15.0000

M03 S7500.0
G01 F120.00
G00 X1.9882 Y9.6764
G01 F60.00
G01 Z-0.1905
G01 F120.00
G01 X1.9799 Y9.6662
G01 X1.8877 Y9.7430
G01 X1.8791 Y9.7336
G01 X1.7964 Y9.8207
G01 X1.7889 Y9.8135
G01 X1.7063 Y9.9000
G01 X1.7117 Y9.9054
G01 X1.7167 Y9.9092
G00 Z0.6000
G00 X1.6485 Y10.0080
G01 F60.00
G01 Z-0.1905
G01 F120.00
G01 X1.6437 Y10.0045
G01 X1.6402 Y10.0018
G01 X1.6389 Y10.0008
G01 X1.5866 Y10.1000
G01 X1.5994 Y10.1000
G01 X1.6234 Y10.0500
G01 X1.6675 Y9.9764
G01 X1.6715 Y9.9702
G01 X1.7256 Y9.8973
G01 X1.7882 Y9.8282
G01 X1.8573 Y9.7656
G01 X1.9302 Y9.7115
G01 X1.9364 Y9.7075
G01 X2.0100 Y9.6634
G01 X2.0600 Y9.6394
G01 X2.0600 Y9.6266
G01 X2.0053 Y9.6493
G01 X1.8480 Y9.7543
G01 X1.7143 Y9.8880
G01 X1.6093 Y10.0453
G01 X1.5866 Y10.1000
G00 Z0.6000
G00 X1.5866 Y10.9000
G01 F60.00
G01 Z-0.1905
G01 F120.00
G01 X1.6093 Y10.9547
G01 X1.7143 Y11.1120
G01 X1.8480 Y11.2457
G01 X2.0053 Y11.3507
G01 X2.0600 Y11.3734
G01 X2.0600 Y11.3606
G01 X2.0100 Y11.3366
G01 X1.9364 Y11.2925
G01 X1.9302 Y11.2885
G01 X1.8573 Y11.2344
G01 X1.7882 Y11.1718
G01 X1.7256 Y11.1027
G01 X1.6715 Y11.0298
G01 X1.6675 Y11.0236
G01 X1.6234 Y10.9500
G01 X1.5994 Y10.9000
G01 X1.5866 Y10.9000
G01 X1.6485 Y10.9920
G01 X1.6389 Y10.9992
G01 X1.7167 Y11.0908
G01 X1.7117 Y11.0946
G01 X1.7063 Y11.1000
G01 X1.7889 Y11.1865
G01 X1.7890 Y11.1865
G01 X1.7901 Y11.1855
G01 X1.7923 Y11.1835
G01 X1.7964 Y11.1793
G00 Z0.6000
G00 X1.8877 Y11.2570
G01 F60.00
G01 Z-0.1905
G01 F120.00
G01 X1.8791 Y11.2664
G01 X1.9799 Y11.3338
G01 X1.9882 Y11.3236
G00 Z0.6000
G00 X2.8600 Y11.3734
G01 F60.00
G01 Z-0.1905
G01 F120.00
G01 X2.8600 Y11.3606
G01 X2.9100 Y11.3366
G01 X2.9836 Y11.2925
G01 X2.9898 Y11.2885
G01 X3.0627 Y11.2344
G01 X3.1318 Y11.1718
G01 X3.1944 Y11.1027
G01 X3.2485 Y11.0298
G01 X3.2525 Y11.0236
G01 X3.2966 Y10.9500
G01 X3.3206 Y10.9000
G01 X3.3334 Y10.9000
G01 X3.3107 Y10.9547
G01 X3.2057 Y11.1120
G01 X3.0720 Y11.2457
G01 X2.9147 Y11.3507
G01 X2.8600 Y11.3734
G01 X2.9318 Y11.3236
G01 X2.9401 Y11.3338
G01 X3.0409 Y11.2664
G01 X3.0387 Y11.2642
G01 X3.0357 Y11.2610
G01 X3.0323 Y11.2570
G00 Z0.6000
G00 X3.1236 Y11.1793
G01 F60.00
G01 Z-0.1905
G01 F120.00
G01 X3.1311 Y11.1865
G01 X3.2137 Y11.1000
G01 X3.2083 Y11.0946
G01 X3.2033 Y11.0908
G00 Z0.6000
G00 X3.2715 Y10.9920
G01 F60.00
G01 Z-0.1905
G01 F120.00
G01 X3.2811 Y10.9992
G00 Z0.6000
G00 X4.0395 Y10.6824
G01 F60.00
G01 Z-0.1905
G01 F120.00
G01 X4.0500 Y10.7316
G01 X4.0395 Y11.1300
G01 X4.0490 Y11.1575
G01 X4.0500 Y11.1603
G01 X4.0459 Y11.3931
G01 X4.0395 Y11.3609
G01 X4.0395 Y9.6391
G01 X4.0459 Y9.6069
G01 X4.0703 Y9.5703
G01 X4.1069 Y9.5459
G01 X4.1391 Y9.5395
G01 X5.1561 Y9.5395
G01 X5.1640 Y9.5392
G01 X5.1843 Y9.5375
G01 X5.1940 Y9.5357
G01 X5.2034 Y9.5331
G01 X5.2148 Y9.5285
G01 X5.2737 Y9.4985
G01 X5.2839 Y9.4921
G01 X5.2933 Y9.4845
G01 X5.7146 Y9.0635
G01 X5.7982 Y9.0076
G01 X5.8911 Y8.9691
G01 X5.9897 Y8.9495
G01 X7.1406 Y8.9495
G01 X7.1508 Y8.9490
G01 X7.1832 Y8.9447
G01 X7.1904 Y8.9432
G01 X7.1975 Y8.9411
G01 X7.2044 Y8.9385
G01 X7.2111 Y8.9354
G01 X7.2196 Y8.9305
G01 X7.2475 Y8.9126
G01 X7.2588 Y8.9075
G01 X7.2652 Y8.9038
G01 X7.2712 Y8.8996
G01 X7.2770 Y8.8950
G01 X7.2824 Y8.8900
G01 X7.4196 Y8.7528
G01 X7.5687 Y8.6531
G01 X7.7344 Y8.5845
G01 X7.9103 Y8.5495
G01 X8.0897 Y8.5495
G01 X8.2656 Y8.5845
G01 X8.4313 Y8.6531
G01 X8.5804 Y8.7528
G01 X8.7072 Y8.8796
G01 X8.8069 Y9.0287
G01 X8.8755 Y9.1944
G01 X8.9105 Y9.3703
G01 X8.9105 Y9.5497
G01 X8.8755 Y9.7256
G01 X8.8069 Y9.8913
G01 X8.7072 Y10.0404
G01 X8.5804 Y10.1672
G01 X8.4313 Y10.2669
G01 X8.2656 Y10.3355
G01 X8.0897 Y10.3705
G01 X7.9103 Y10.3705
G01 X7.7344 Y10.3355
G01 X7.5687 Y10.2669
G01 X7.4196 Y10.1672
G01 X7.2824 Y10.0300
G01 X7.2638 Y10.0134
G01 X7.2560 Y10.0074
G01 X7.2455 Y10.0010
G01 X7.2389 Y9.9978
G01 X7.2321 Y9.9951
G01 X7.1692 Y9.9747
G01 X7.1622 Y9.9729
G01 X7.1551 Y9.9715
G01 X7.1479 Y9.9708
G01 X7.1406 Y9.9705
G01 X6.3286 Y9.9706
G01 X6.3081 Y9.9723
G01 X6.3008 Y9.9733
G01 X6.2913 Y9.9755
G01 X6.2819 Y9.9786
G01 X6.2730 Y9.9826
G01 X6.2185 Y10.0104
G01 X6.2121 Y10.0139
G01 X6.2041 Y10.0193
G01 X6.1985 Y10.0239
G01 X6.1932 Y10.0288
G01 X6.0188 Y10.2032
G01 X6.0018 Y10.2226
G01 X5.9974 Y10.2285
G01 X5.9934 Y10.2347
G01 X5.9888 Y10.2434
G01 X5.9859 Y10.2502
G01 X5.9654 Y10.3130
G01 X5.9629 Y10.3223
G01 X5.9610 Y10.3342
G01 X5.9605 Y10.3439
G01 X5.9605 Y11.3609
G01 X5.9541 Y11.3931
G01 X5.9297 Y11.4297
G01 X5.8931 Y11.4541
G01 X5.8609 Y11.4605
G01 X4.1391 Y11.4605
G01 X4.1069 Y11.4541
G01 X4.0703 Y11.4297
G01 X4.0459 Y11.3931
G00 Z0.6000
G00 X4.1694 Y11.4500
G01 F60.00
G01 Z-0.1905
G01 F120.00
G01 X4.1742 Y11.4605
G01 X4.3024 Y11.4500
G01 X4.3075 Y11.4605
G01 X4.4363 Y11.4500
G01 X4.4418 Y11.4605
G01 X4.5716 Y11.4500
G01 X4.5774 Y11.4605
G01 X4.7085 Y11.4500
G01 X4.7145 Y11.4605
G01 X4.8473 Y11.4500
G01 X4.8536 Y11.4605
G01 X4.9881 Y11.4500
G01 X4.9949 Y11.4605
G01 X5.1316 Y11.4500
G01 X5.1388 Y11.4605
G01 X5.2782 Y11.4500
G01 X5.2858 Y11.4605
G01 X5.4283 Y11.4500
G01 X5.4367 Y11.4605
G01 X5.5835 Y11.4500
G01 X5.5926 Y11.4605
G01 X5.7450 Y11.4500
G01 X5.7551 Y11.4605
G00 Z0.6000
G00 X3.2715 Y10.0080
G01 F60.00
G01 Z-0.1905
G01 F120.00
G01 X3.2811 Y10.0008
G00 Z0.6000
G00 X3.2033 Y9.9092
G01 F60.00
G01 Z-0.1905
G01 F120.00
G01 X3.2036 Y9.9090
G01 X3.2048 Y9.9081
G01 X3.2060 Y9.9072
G01 X3.2083 Y9.9054
G01 X3.2115 Y9.9023
G01 X3.2125 Y9.9013
G01 X3.2136 Y9.9002
G01 X3.2137 Y9.9000
G01 X3.1311 Y9.8135
G01 X3.1310 Y9.8135
G01 X3.1299 Y9.8145
G01 X3.1277 Y9.8165
G01 X3.1237 Y9.8207
G01 X3.0409 Y9.7336
G01 X3.0323 Y9.7430
G01 X2.9401 Y9.6662
G01 X2.9372 Y9.6696
G01 X2.9326 Y9.6754
G01 X2.9318 Y9.6764
G01 X2.8600 Y9.6266
G01 X2.9147 Y9.6493
G01 X3.0720 Y9.7543
G01 X3.2057 Y9.8880
G01 X3.3107 Y10.0453
G01 X3.3334 Y10.1000
G01 X3.3206 Y10.1000
G01 X3.2966 Y10.0500
G01 X3.2525 Y9.9764
G01 X3.2485 Y9.9702
G01 X3.1944 Y9.8973
G01 X3.1318 Y9.8282
G01 X3.0627 Y9.7656
G01 X2.9898 Y9.7115
G01 X2.9836 Y9.7075
G01 X2.9100 Y9.6634
G01 X2.8600 Y9.6394
G01 X2.8600 Y9.6266
G00 Z0.6000
G00 X4.1214 Y9.5542
G01 F60.00
G01 Z-0.1905
G01 F120.00
G01 X4.1229 Y9.5427
G00 Z0.6000
G00 X4.2432 Y9.5500
G01 F60.00
G01 Z-0.1905
G01 F120.00
G01 X4.2449 Y9.5395
G01 X4.3647 Y9.5500
G01 X4.3664 Y9.5395
G01 X4.4863 Y9.5500
G01 X4.4879 Y9.5395
G01 X4.6078 Y9.5500
G01 X4.6096 Y9.5395
G01 X4.7297 Y9.5500
G01 X4.7316 Y9.5395
G01 X4.8517 Y9.5500
G01 X4.8537 Y9.5395
G01 X4.9738 Y9.5500
G01 X4.9760 Y9.5395
G01 X5.0964 Y9.5500
G01 X5.0986 Y9.5395
G01 X5.2191 Y9.5500
G01 X5.2253 Y9.5231
G00 Z0.6000
G00 X5.3800 Y9.4126
G01 F60.00
G01 Z-0.1905
G01 F120.00
G01 X5.3867 Y9.3913
G01 X5.5925 Y9.2001
G01 X5.6064 Y9.1717
G00 Z0.6000
G00 X5.8512 Y8.9968
G01 F60.00
G01 Z-0.1905
G01 F120.00
G01 X5.8628 Y8.9809
G00 Z0.6000
G00 X6.0315 Y8.9601
G01 F60.00
G01 Z-0.1905
G01 F120.00
G01 X6.0404 Y8.9495
G01 X6.1936 Y8.9598
G01 X6.2037 Y8.9495
G01 X6.3684 Y8.9598
G01 X6.3806 Y8.9495
G01 X6.5659 Y8.9598
G01 X6.5816 Y8.9495
G01 X6.8148 Y8.9598
G01 X6.8393 Y8.9495
G00 Z0.6000
G00 X7.2518 Y8.9598
G01 F60.00
G01 Z-0.1905
G01 F120.00
G01 X7.3043 Y8.8890
G01 X7.3636 Y8.8236
G01 X7.4290 Y8.7643
G01 X7.5000 Y8.7117
G01 X7.5757 Y8.6663
G01 X7.6556 Y8.6285
G01 X7.7387 Y8.5988
G01 X7.8244 Y8.5773
G01 X7.9118 Y8.5643
G01 X8.0000 Y8.5600
G01 X8.0882 Y8.5643
G01 X8.1756 Y8.5773
G01 X8.2615 Y8.5988
G01 X8.3444 Y8.6285
G01 X8.4243 Y8.6663
G01 X8.5000 Y8.7117
G01 X8.5710 Y8.7643
G01 X8.6364 Y8.8236
G01 X8.6957 Y8.8890
G01 X8.7483 Y8.9600
G01 X8.7937 Y9.0357
G01 X8.8315 Y9.1156
G01 X8.8613 Y9.1990
G01 X8.8827 Y9.2844
G01 X8.8957 Y9.3718
G01 X8.9000 Y9.4600
G01 X8.8957 Y9.5482
G01 X8.8827 Y9.6356
G01 X8.8612 Y9.7215
G01 X8.8315 Y9.8044
G01 X8.7937 Y9.8843
G01 X8.7483 Y9.9600
G01 X8.6957 Y10.0310
G01 X8.6398 Y10.0928
G01 X8.6328 Y10.0998
G01 X8.5710 Y10.1557
G01 X8.5040 Y10.2055
G01 X8.4959 Y10.2109
G01 X8.4243 Y10.2537
G01 X8.3444 Y10.2915
G01 X8.2659 Y10.3197
G01 X8.2565 Y10.3226
G01 X8.1756 Y10.3427
G01 X8.0931 Y10.3551
G01 X8.0833 Y10.3560
G01 X8.0000 Y10.3600
G01 X7.9167 Y10.3560
G01 X7.9069 Y10.3551
G01 X7.8244 Y10.3427
G01 X7.7435 Y10.3226
G01 X7.7341 Y10.3197
G01 X7.6556 Y10.2915
G01 X7.5757 Y10.2537
G01 X7.5000 Y10.2083
G01 X7.4329 Y10.1587
G01 X7.4253 Y10.1525
G01 X7.3636 Y10.0964
G01 X7.3075 Y10.0347
G01 X7.3013 Y10.0271
G01 X7.2518 Y9.9602
G01 X6.2472 Y9.9602
G01 X5.9500 Y10.2574
G01 X5.9499 Y11.3549
G01 X5.9485 Y11.3671
G01 X5.9457 Y11.3790
G01 X5.9414 Y11.3905
G01 X5.9370 Y11.3993
G01 X5.9303 Y11.4096
G01 X5.9241 Y11.4172
G01 X5.9153 Y11.4257
G01 X5.9056 Y11.4331
G01 X5.8993 Y11.4370
G01 X5.8928 Y11.4404
G01 X5.8860 Y11.4433
G01 X5.8790 Y11.4457
G01 X5.8719 Y11.4476
G01 X5.8647 Y11.4489
G01 X5.8574 Y11.4497
G01 X5.8500 Y11.4500
G01 X4.1500 Y11.4500
G01 X4.1378 Y11.4492
G01 X4.1281 Y11.4476
G01 X4.1186 Y11.4450
G01 X4.1072 Y11.4404
G01 X4.0986 Y11.4358
G01 X4.0885 Y11.4288
G01 X4.0793 Y11.4207
G01 X4.0712 Y11.4115
G01 X4.0669 Y11.4056
G01 X4.0618 Y11.3971
G01 X4.0586 Y11.3905
G01 X4.0550 Y11.3814
G01 X4.0524 Y11.3719
G01 X4.0511 Y11.3647
G01 X4.0503 Y11.3574
G01 X4.0500 Y11.3500
G01 X4.0500 Y9.6500
G01 X4.0508 Y9.6378
G01 X4.0530 Y9.6257
G01 X4.0558 Y9.6163
G01 X4.0607 Y9.6050
G01 X4.0655 Y9.5965
G01 X4.0727 Y9.5866
G01 X4.0793 Y9.5793
G01 X4.0885 Y9.5712
G01 X4.0944 Y9.5669
G01 X4.1007 Y9.5630
G01 X4.1072 Y9.5596
G01 X4.1163 Y9.5558
G01 X4.1233 Y9.5536
G01 X4.1305 Y9.5519
G01 X4.1378 Y9.5508
G01 X4.1475 Y9.5500
G01 X5.2426 Y9.5500
G01 X5.6899 Y9.1029
G01 X5.7227 Y9.0733
G01 X5.7621 Y9.0441
G01 X5.8042 Y9.0189
G01 X5.8509 Y8.9970
G01 X5.8948 Y8.9813
G01 X5.9424 Y8.9694
G01 X5.9910 Y8.9622
G01 X6.0375 Y8.9598
G01 X7.2518 Y8.9598
G01 X7.3063 Y8.8660
G01 X7.3244 Y8.8667
G01 X7.4181 Y8.7542
G01 X7.4388 Y8.7569
G01 X7.5628 Y8.6570
G01 X7.5845 Y8.6620
G01 X7.7440 Y8.5826
G01 X7.7688 Y8.5911
G00 Z0.6000
G00 X7.9794 Y8.5495
G01 F60.00
G01 Z-0.1905
G01 F120.00
G01 X8.0007 Y8.5600
G00 Z0.6000
G00 X8.2839 Y8.5921
G01 F60.00
G01 Z-0.1905
G01 F120.00
G01 X8.3056 Y8.6077
G01 X8.3223 Y8.6205
G00 Z0.6000
G00 X8.8967 Y9.3906
G01 F60.00
G01 Z-0.1905
G01 F120.00
G01 X8.9105 Y9.4283
G00 Z0.6000
G00 X8.8628 Y9.7155
G01 F60.00
G01 Z-0.1905
G01 F120.00
G01 X8.8678 Y9.7443
G00 Z0.6000
G00 X8.7671 Y9.9290
G01 F60.00
G01 Z-0.1905
G01 F120.00
G01 X8.7679 Y9.9496
G00 Z0.6000
G00 X8.6466 Y10.0853
G01 F60.00
G01 Z-0.1905
G01 F120.00
G01 X8.6456 Y10.1020
G01 X8.5142 Y10.1980
G01 X8.5117 Y10.2131
G01 X8.3762 Y10.2766
G01 X8.3725 Y10.2912
G00 Z0.6000
G00 X8.2368 Y10.3275
G01 F60.00
G01 Z-0.1905
G01 F120.00
G01 X8.2317 Y10.3422
G01 X8.0986 Y10.3542
G01 X8.0918 Y10.3701
G01 X7.9645 Y10.3584
G01 X7.9583 Y10.3705
G01 X7.8353 Y10.3444
G01 X7.8292 Y10.3544
G01 X7.7133 Y10.3123
G01 X7.7053 Y10.3235
G01 X7.5992 Y10.2649
G01 X7.5903 Y10.2758
G01 X7.4939 Y10.2039
G01 X7.4865 Y10.2120
G01 X7.3996 Y10.1292
G01 X7.3905 Y10.1382
G01 X7.3054 Y10.0530
G01 X7.3104 Y10.0488
G01 X7.3154 Y10.0434
G00 Z0.6000
G00 X7.2115 Y9.9884
G01 F60.00
G01 Z-0.1905
G01 F120.00
G01 X7.2142 Y9.9810
G01 X7.2184 Y9.9732
G01 X7.2236 Y9.9661
G01 X7.2295 Y9.9602
G01 X7.0948 Y9.9602
G01 X7.0925 Y9.9705
G01 X6.9725 Y9.9602
G01 X6.9711 Y9.9705
G01 X6.8515 Y9.9602
G01 X6.8505 Y9.9705
G01 X6.7310 Y9.9602
G01 X6.7302 Y9.9705
G01 X6.6106 Y9.9602
G01 X6.6100 Y9.9705
G01 X6.4904 Y9.9602
G01 X6.4899 Y9.9705
G01 X6.3698 Y9.9705
G01 X6.3702 Y9.9602
G01 X6.2501 Y9.9602
G01 X6.2492 Y9.9948
G00 Z0.6000
G00 X6.1313 Y10.0761
G01 F60.00
G01 Z-0.1905
G01 F120.00
G01 X6.1322 Y10.0898
G01 X6.0220 Y10.1854
G01 X6.0239 Y10.1980
G00 Z0.6000
G00 X5.9500 Y10.4107
G01 F60.00
G01 Z-0.1905
G01 F120.00
G01 X5.9605 Y10.4434
G01 X5.9500 Y10.7194
G01 X5.9605 Y10.7385
G01 X5.9500 Y10.9457
G01 X5.9605 Y10.9602
G01 X5.9500 Y11.1401
G01 X5.9605 Y11.1520
G01 X5.9500 Y11.3166
G01 X5.9605 Y11.3271
G00 Z0.6000
G00 X5.9006 Y11.4362
G01 F60.00
G01 Z-0.1905
G01 F120.00
G01 X5.9085 Y11.4438
G00 Z0.6000
G00 X7.1889 Y11.5789
G01 F60.00
G01 Z-0.1905
G01 F120.00
G01 X7.1900 Y11.6098
G00 Z0.6000
G00 X7.3035 Y11.4300
G01 F60.00
G01 Z-0.1905
G01 F120.00
G01 X7.3027 Y11.4096
G01 X7.4212 Y11.3112
G01 X7.4210 Y11.2919
G00 Z0.6000
G00 X7.5402 Y11.2275
G01 F60.00
G01 Z-0.1905
G01 F120.00
G01 X7.5400 Y11.2123
G00 Z0.6000
G00 X7.6594 Y11.1670
G01 F60.00
G01 Z-0.1905
G01 F120.00
G01 X7.6593 Y11.1556
G01 X7.7790 Y11.1286
G01 X7.7788 Y11.1157
G01 X7.8987 Y11.1062
G01 X7.8985 Y11.0919
G01 X8.0185 Y11.0895
G01 X8.0186 Y11.1008
G01 X8.1386 Y11.0992
G01 X8.1387 Y11.1117
G01 X8.2589 Y11.1232
G01 X8.2591 Y11.1381
G00 Z0.6000
G00 X8.3795 Y11.1717
G01 F60.00
G01 Z-0.1905
G01 F120.00
G01 X8.3796 Y11.1850
G01 X8.5003 Y11.2392
G01 X8.5005 Y11.2520
G00 Z0.6000
G00 X8.6215 Y11.3338
G01 F60.00
G01 Z-0.1905
G01 F120.00
G01 X8.6217 Y11.3501
G00 Z0.6000
G00 X8.7461 Y11.4778
G01 F60.00
G01 Z-0.1905
G01 F120.00
G01 X8.7469 Y11.4979
G00 Z0.6000
G00 X8.8757 Y11.7353
G01 F60.00
G01 Z-0.1905
G01 F120.00
G01 X8.8783 Y11.8063
G00 Z0.6000
G00 X8.8933 Y12.1052
G01 F60.00
G01 Z-0.1905
G01 F120.00
G01 X8.8966 Y12.1596
G00 Z0.6000
G00 X8.7928 Y12.4260
G01 F60.00
G01 Z-0.1905
G01 F120.00
G01 X8.7942 Y12.4502
G00 Z0.6000
G00 X8.6832 Y12.5849
G01 F60.00
G01 Z-0.1905
G01 F120.00
G01 X8.6847 Y12.6029
G00 Z0.6000
G00 X8.5722 Y12.6947
G01 F60.00
G01 Z-0.1905
G01 F120.00
G01 X8.5739 Y12.7138
G00 Z0.6000
G00 X8.5002 Y13.2360
G01 F60.00
G01 Z-0.1905
G01 F120.00
G01 X8.5105 Y13.3289
G00 Z0.6000
G00 X8.5881 Y13.9788
G01 F60.00
G01 Z-0.1905
G01 F120.00
G01 X8.5905 Y13.9966
G01 X8.7266 Y14.1076
G01 X8.7294 Y14.1279
G01 X8.8707 Y14.2765
G01 X8.8742 Y14.3023
G00 Z0.6000
G00 X9.0325 Y14.5334
G01 F60.00
G01 Z-0.1905
G01 F120.00
G01 X9.0411 Y14.5868
G00 Z0.6000
G00 X9.1931 Y15.4434
G01 F60.00
G01 Z-0.1905
G01 F120.00
G01 X9.1969 Y15.4636
G01 X9.2011 Y15.4836
G00 Z0.6000
G00 X9.1362 Y15.7565
G01 F60.00
G01 Z-0.1905
G01 F120.00
G01 X9.1416 Y15.7822
G00 Z0.6000
G00 X9.0596 Y15.9741
G01 F60.00
G01 Z-0.1905
G01 F120.00
G01 X9.0863 Y16.0996
G01 X9.1981 Y16.0488
G01 X9.2021 Y16.0676
G01 X9.2097 Y16.0996
G01 X9.3306 Y16.0895
G01 X9.3330 Y16.0996
G01 X9.4539 Y16.0895
G01 X9.4563 Y16.0996
G01 X9.5772 Y16.0895
G01 X9.5796 Y16.0996
G01 X9.7006 Y16.0895
G01 X9.7030 Y16.0996
G01 X9.8239 Y16.0895
G01 X9.8263 Y16.0996
G01 X9.9472 Y16.0895
G01 X9.9496 Y16.0996
G01 X10.0706 Y16.0895
G01 X10.0730 Y16.0996
G01 X10.1939 Y16.0895
G01 X10.1963 Y16.0996
G01 X10.3172 Y16.0895
G01 X10.3196 Y16.0996
G01 X10.4405 Y16.0895
G01 X10.4429 Y16.0996
G01 X10.5639 Y16.0895
G01 X10.5663 Y16.0996
G01 X10.6872 Y16.0895
G01 X10.6896 Y16.0996
G01 X10.8105 Y16.0895
G01 X10.8129 Y16.0996
G01 X10.9339 Y16.0895
G01 X10.9363 Y16.0996
G01 X11.0572 Y16.0895
G01 X11.0596 Y16.0996
G01 X11.1805 Y16.0895
G01 X11.1829 Y16.0996
G01 X11.3038 Y16.0895
G01 X11.3062 Y16.0996
G01 X11.4272 Y16.0895
G01 X11.4296 Y16.0996
G01 X11.5504 Y16.0890
G01 X11.5531 Y16.0996
G01 X11.6668 Y16.0599
G01 X11.6633 Y16.0454
G00 Z0.6000
G00 X11.7664 Y15.9602
G01 F60.00
G01 Z-0.1905
G01 F120.00
G01 X11.7637 Y15.9487
G01 X11.8661 Y15.8605
G01 X11.8634 Y15.8490
G01 X11.9658 Y15.7609
G01 X11.9630 Y15.7493
G01 X12.0654 Y15.6612
G01 X12.0627 Y15.6497
G01 X12.1651 Y15.5616
G01 X12.1623 Y15.5500
G01 X12.2648 Y15.4619
G01 X12.2620 Y15.4503
G01 X12.3644 Y15.3622
G01 X12.3618 Y15.3505
G01 X12.4655 Y15.2611
G01 X12.4630 Y15.2493
G01 X12.5668 Y15.1599
G01 X12.5643 Y15.1481
G01 X12.6680 Y15.0587
G01 X12.6655 Y15.0469
G01 X12.7692 Y14.9574
G01 X12.7667 Y14.9457
G01 X12.8704 Y14.8562
G01 X12.8679 Y14.8444
G01 X12.9716 Y14.7550
G01 X12.9691 Y14.7432
G01 X13.0737 Y14.6530
G01 X13.0714 Y14.6409
G01 X13.1766 Y14.5501
G01 X13.1743 Y14.5380
G01 X13.2795 Y14.4472
G01 X13.2772 Y14.4351
G01 X13.3824 Y14.3443
G01 X13.3801 Y14.3322
G01 X13.4853 Y14.2414
G01 X13.4830 Y14.2293
G01 X13.5881 Y14.1385
G01 X13.5859 Y14.1265
G01 X13.6921 Y14.0346
G01 X13.6901 Y14.0223
G01 X13.7968 Y13.9299
G01 X13.7948 Y13.9176
G01 X13.9015 Y13.8252
G01 X13.8995 Y13.8129
G01 X14.0061 Y13.7205
G01 X14.0042 Y13.7082
G01 X14.1108 Y13.6158
G01 X14.1089 Y13.6035
G01 X14.2158 Y13.5108
G01 X14.2141 Y13.4982
G01 X14.3224 Y13.4042
G01 X14.3207 Y13.3916
G01 X14.4291 Y13.2976
G01 X14.4274 Y13.2850
G01 X14.5357 Y13.1910
G01 X14.5340 Y13.1784
G01 X14.6423 Y13.0844
G01 X14.6406 Y13.0718
G01 X14.7493 Y12.9773
G01 X14.7479 Y12.9645
G01 X14.8580 Y12.8687
G01 X14.8565 Y12.8558
G01 X14.9666 Y12.7600
G01 X14.9652 Y12.7471
G01 X15.0753 Y12.6513
G01 X15.0739 Y12.6385
G01 X15.1842 Y12.5443
G01 X15.1826 Y12.5298
G00 Z0.6000
G00 X15.2959 Y12.4541
G01 F60.00
G01 Z-0.1905
G01 F120.00
G01 X15.2949 Y12.4425
G01 X15.4107 Y12.3892
G01 X15.4096 Y12.3762
G01 X15.5271 Y12.3424
G01 X15.5259 Y12.3280
G01 X15.6451 Y12.3137
G01 X15.6441 Y12.3027
G01 X15.7634 Y12.2895
G01 X15.7644 Y12.3012
G01 X15.8839 Y12.2895
G01 X15.8847 Y12.2996
G01 X16.0043 Y12.2895
G01 X16.0052 Y12.2996
G01 X16.1247 Y12.2895
G01 X16.1256 Y12.2996
G01 X16.2452 Y12.2895
G01 X16.2460 Y12.2996
G01 X16.3656 Y12.2895
G01 X16.3665 Y12.2996
G01 X16.4860 Y12.2895
G01 X16.4869 Y12.2996
G01 X16.6065 Y12.2895
G01 X16.6073 Y12.2996
G01 X16.7269 Y12.2895
G01 X16.7278 Y12.2996
G01 X16.8473 Y12.2895
G01 X16.8482 Y12.2996
G01 X16.9678 Y12.2895
G01 X16.9686 Y12.2996
G01 X17.0882 Y12.2895
G01 X17.0891 Y12.2996
G01 X17.2086 Y12.2895
G01 X17.2095 Y12.2996
G01 X17.3291 Y12.2895
G01 X17.3301 Y12.2996
G01 X17.4497 Y12.2895
G01 X17.4508 Y12.2996
G01 X17.5704 Y12.2895
G01 X17.5716 Y12.2996
G01 X17.6912 Y12.2895
G01 X17.6923 Y12.2996
G01 X17.8119 Y12.2895
G01 X17.8130 Y12.2996
G01 X17.9326 Y12.2895
G01 X17.9337 Y12.2996
G01 X18.0534 Y12.2895
G01 X18.0545 Y12.2996
G01 X18.1741 Y12.2895
G01 X18.1752 Y12.2996
G01 X18.2948 Y12.2895
G01 X18.2959 Y12.2996
G01 X18.4155 Y12.2895
G01 X18.4167 Y12.2996
G01 X18.5363 Y12.2895
G01 X18.5374 Y12.2996
G01 X18.6570 Y12.2895
G01 X18.6581 Y12.2996
G01 X18.7777 Y12.2895
G01 X18.7788 Y12.2996
G01 X18.8984 Y12.2895
G01 X18.8996 Y12.2996
G01 X19.0192 Y12.2895
G01 X19.0203 Y12.2996
G01 X19.1399 Y12.2895
G01 X19.1410 Y12.2996
G00 Z0.6000
G00 X19.2599 Y12.2831
G01 F60.00
G01 Z-0.1905
G01 F120.00
G01 X19.2617 Y12.2996
G01 X19.3747 Y12.2297
G01 X19.3727 Y12.2118
G01 X19.4834 Y12.1213
G01 X19.4814 Y12.1031
G01 X19.5951 Y12.0308
G01 X19.5939 Y12.0167
G01 X19.7090 Y11.9555
G01 X19.7076 Y11.9391
G01 X19.8241 Y11.8938
G01 X19.8186 Y11.8300
G00 Z0.6000
G00 X19.7833 Y10.3183
G01 F60.00
G01 Z-0.1905
G01 F120.00
G01 X19.7845 Y10.2874
G01 X19.6663 Y10.2359
G01 X19.6669 Y10.2192
G01 X19.5494 Y10.1509
G01 X19.5499 Y10.1357
G00 Z0.6000
G00 X19.4346 Y10.0500
G01 F60.00
G01 Z-0.1905
G01 F120.00
G01 X19.4355 Y10.0352
G00 Z0.6000
G00 X19.3216 Y9.9316
G01 F60.00
G01 Z-0.1905
G01 F120.00
G01 X19.3228 Y9.9116
G01 X19.2108 Y9.7791
G01 X19.2127 Y9.7530
G01 X19.1071 Y9.5814
G01 X19.1095 Y9.5528
G00 Z0.6000
G00 X19.0158 Y9.2808
G01 F60.00
G01 Z-0.1905
G01 F120.00
G01 X19.0208 Y9.2358
G00 Z0.6000
G00 X18.9936 Y8.5463
G01 F60.00
G01 Z-0.1905
G01 F120.00
G01 X18.9976 Y8.5210
G01 X18.8910 Y8.4286
G01 X18.8929 Y8.4163
G01 X18.7866 Y8.3242
G01 X18.7888 Y8.3122
G01 X18.6837 Y8.2213
G01 X18.6859 Y8.2093
G01 X18.5808 Y8.1184
G01 X18.5830 Y8.1064
G01 X18.4779 Y8.0155
G01 X18.4801 Y8.0035
G01 X18.3750 Y7.9127
G01 X18.3773 Y7.9006
G01 X18.2736 Y7.8112
G01 X18.2761 Y7.7994
G01 X18.1723 Y7.7100
G01 X18.1748 Y7.6982
G01 X18.0711 Y7.6088
G01 X18.0736 Y7.5970
G01 X17.9699 Y7.5075
G01 X17.9724 Y7.4958
G01 X17.8689 Y7.4066
G01 X17.8717 Y7.3950
G01 X17.7693 Y7.3069
G01 X17.7720 Y7.2954
G01 X17.6696 Y7.2072
G01 X17.6723 Y7.1957
G01 X17.5699 Y7.1076
G01 X17.5727 Y7.0960
G01 X17.4703 Y7.0079
G01 X17.4730 Y6.9964
G01 X17.3706 Y6.9083
G01 X17.3736 Y6.8969
G01 X17.2724 Y6.8100
G01 X17.2753 Y6.7987
G01 X17.1742 Y6.7118
G01 X17.1771 Y6.7005
G01 X17.0760 Y6.6136
G01 X17.0789 Y6.6023
G01 X16.9778 Y6.5154
G01 X16.9807 Y6.5041
G01 X16.8808 Y6.4125
G01 X16.8851 Y6.3960
G01 X16.7929 Y6.2808
G01 X16.7989 Y6.2600
G01 X16.7210 Y6.0979
G01 X16.7284 Y6.0722
G00 Z0.6000
G00 X16.6895 Y5.7841
G01 F60.00
G01 Z-0.1905
G01 F120.00
G01 X16.6996 Y5.7523
G01 X16.6895 Y5.3913
G01 X16.6996 Y5.3620
G01 X16.6895 Y5.0225
G01 X16.6996 Y4.9943
G01 X16.6895 Y4.6771
G01 X16.6996 Y4.6499
G01 X16.6895 Y4.3465
G01 X16.6996 Y4.3213
G01 X16.6895 Y4.0277
G01 X16.6996 Y4.0042
G01 X16.6895 Y3.7232
G01 X16.6996 Y3.6996
G01 X16.6895 Y3.4301
G01 X16.6996 Y3.4080
G00 Z0.6000
G00 X17.0594 Y2.6672
G01 F60.00
G01 Z-0.1905
G01 F120.00
G01 X17.0748 Y2.6375
G01 X17.3471 Y2.3795
G01 X17.3646 Y2.3478
G01 X17.6587 Y2.0680
G01 X17.6786 Y2.0338
G01 X18.0020 Y1.7246
G01 X18.0249 Y1.6874
G01 X18.3889 Y1.3378
G01 X18.4155 Y1.2969
G00 Z0.6000
G00 X18.6951 Y1.0965
G01 F60.00
G01 Z-0.1905
G01 F120.00
G01 X18.7088 Y1.0765
G00 Z0.6000
G00 X18.8893 Y1.0255
G01 F60.00
G01 Z-0.1905
G01 F120.00
G01 X18.8988 Y1.0117
G00 Z0.6000
G00 X19.0533 Y1.0018
G01 F60.00
G01 Z-0.1905
G01 F120.00
G01 X19.0622 Y0.9895
G01 X19.2030 Y0.9996
G01 X19.2103 Y0.9895
G01 X19.3510 Y0.9996
G01 X19.3583 Y0.9895
G01 X19.4991 Y0.9996
G01 X19.5064 Y0.9895
G01 X19.6476 Y0.9996
G01 X19.6553 Y0.9895
G01 X19.7984 Y0.9996
G01 X19.8061 Y0.9895
G01 X19.9492 Y0.9996
G01 X19.9568 Y0.9895
G01 X20.0999 Y0.9996
G01 X20.1076 Y0.9895
G01 X20.2507 Y0.9996
G01 X20.2584 Y0.9895
G01 X20.4039 Y0.9996
G01 X20.4120 Y0.9895
G01 X20.5576 Y0.9996
G01 X20.5657 Y0.9895
G01 X20.7113 Y0.9996
G01 X20.7194 Y0.9895
G01 X20.8650 Y0.9996
G01 X20.8731 Y0.9895
G01 X21.0213 Y0.9996
G01 X21.0298 Y0.9895
G01 X21.1781 Y0.9996
G01 X21.1866 Y0.9895
G01 X21.3349 Y0.9996
G01 X21.3434 Y0.9895
G01 X21.4923 Y0.9996
G01 X21.5012 Y0.9895
G01 X21.6524 Y0.9996
G01 X21.6614 Y0.9895
G01 X21.8126 Y0.9996
G01 X21.8215 Y0.9895
G01 X21.9728 Y0.9996
G01 X21.9817 Y0.9895
G01 X22.1356 Y0.9996
G01 X22.1450 Y0.9895
G01 X22.2994 Y0.9996
G01 X22.3088 Y0.9895
G01 X22.4632 Y0.9996
G01 X22.4725 Y0.9895
G01 X22.6292 Y0.9996
G01 X22.6390 Y0.9895
G01 X22.7968 Y0.9996
G01 X22.8067 Y0.9895
G01 X22.9645 Y0.9996
G01 X22.9743 Y0.9895
G01 X23.1348 Y0.9996
G01 X23.1451 Y0.9895
G01 X23.3066 Y0.9996
G01 X23.3169 Y0.9895
G01 X23.4784 Y0.9996
G01 X23.4889 Y0.9895
G01 X23.6543 Y0.9996
G01 X23.6652 Y0.9895
G01 X23.8306 Y0.9996
G01 X23.8415 Y0.9895
G01 X24.0088 Y0.9996
G01 X24.0202 Y0.9895
G01 X24.1899 Y0.9996
G01 X24.2014 Y0.9895
G01 X24.3712 Y0.9996
G01 X24.3832 Y0.9895
G01 X24.5576 Y0.9996
G01 X24.5696 Y0.9895
G01 X24.7439 Y0.9996
G01 X24.7559 Y0.9895
G01 X24.9350 Y0.9996
G01 X24.9476 Y0.9895
G01 X25.1270 Y0.9996
G01 X25.1396 Y0.9895
G01 X25.3238 Y0.9996
G01 X25.3371 Y0.9895
G01 X25.5220 Y0.9996
G01 X25.5353 Y0.9895
G01 X25.7259 Y0.9996
G01 X25.7399 Y0.9895
G01 X25.9314 Y0.9996
G01 X25.9461 Y0.9895
G01 X26.1435 Y0.9996
G01 X26.1582 Y0.9895
G01 X26.3589 Y0.9996
G01 X26.3744 Y0.9895
G01 X26.5789 Y0.9996
G01 X26.5945 Y0.9895
G01 X26.8065 Y0.9996
G01 X26.8229 Y0.9895
G01 X27.0393 Y0.9996
G01 X27.0566 Y0.9895
G01 X27.2784 Y0.9996
G01 X27.2967 Y0.9895
G01 X27.5272 Y0.9996
G01 X27.5456 Y0.9895
G01 X27.7857 Y0.9996
G01 X27.8051 Y0.9895
G01 X28.0547 Y0.9996
G01 X28.0754 Y0.9895
G01 X28.3365 Y0.9996
G01 X28.3585 Y0.9895
G01 X28.6338 Y0.9996
G01 X28.6574 Y0.9895
G01 X28.9500 Y0.9996
G01 X28.9753 Y0.9895
G00 Z0.6000
G00 X29.2160 Y1.0269
G01 F60.00
G01 Z-0.1905
G01 F120.00
G01 X29.2375 Y1.0189
G00 Z0.6000
G00 X29.3927 Y1.0907
G01 F60.00
G01 Z-0.1905
G01 F120.00
G01 X29.4106 Y1.0846
G01 X29.5273 Y1.1713
G01 X29.5412 Y1.1665
G01 X29.6346 Y1.2613
G01 X29.6453 Y1.2576
G01 X29.7299 Y1.3565
G01 X29.7407 Y1.3531
G01 X29.8255 Y1.4521
G01 X29.8363 Y1.4487
G01 X29.9211 Y1.5477
G01 X29.9319 Y1.5443
G01 X30.0166 Y1.6433
G01 X30.0275 Y1.6399
G01 X30.1133 Y1.7400
G01 X30.1244 Y1.7367
G01 X30.2102 Y1.8368
G01 X30.2212 Y1.8336
G01 X30.3070 Y1.9336
G01 X30.3181 Y1.9304
G01 X30.4044 Y2.0310
G01 X30.4157 Y2.0281
G01 X30.5026 Y2.1292
G01 X30.5139 Y2.1263
G01 X30.6008 Y2.2274
G01 X30.6121 Y2.2245
G01 X30.6994 Y2.3260
G01 X30.7109 Y2.3233
G01 X30.7991 Y2.4257
G01 X30.8106 Y2.4230
G01 X30.8987 Y2.5254
G01 X30.9103 Y2.5226
G01 X30.9990 Y2.6257
G01 X31.0108 Y2.6232
G01 X31.1003 Y2.7269
G01 X31.1121 Y2.7244
G01 X31.2015 Y2.8281
G01 X31.2133 Y2.8256
G01 X31.3041 Y2.9307
G01 X31.3161 Y2.9285
G01 X31.4070 Y3.0336
G01 X31.4190 Y3.0314
G01 X31.5107 Y3.1374
G01 X31.5230 Y3.1354
G01 X31.6154 Y3.2421
G01 X31.6277 Y3.2401
G01 X31.7207 Y3.3473
G01 X31.7333 Y3.3456
G01 X31.8273 Y3.4539
G01 X31.8399 Y3.4522
G01 X31.9345 Y3.5612
G01 X31.9474 Y3.5598
G01 X32.0432 Y3.6699
G01 X32.0561 Y3.6684
G01 X32.1529 Y3.7796
G01 X32.1661 Y3.7784
G01 X32.2638 Y3.8905
G01 X32.2770 Y3.8893
G01 X32.3765 Y4.0032
G01 X32.3900 Y4.0024
G01 X32.4903 Y4.1170
G01 X32.5041 Y4.1165
G01 X32.6061 Y4.2328
G01 X32.6199 Y4.2323
G01 X32.7240 Y4.3506
G01 X32.7381 Y4.3505
G01 X32.8437 Y4.4704
G01 X32.8582 Y4.4706
G01 X32.9657 Y4.5923
G01 X32.9805 Y4.5929
G01 X33.0904 Y4.7170
G01 X33.1055 Y4.7179
G01 X33.2184 Y4.8451
G01 X33.2337 Y4.8461
G01 X33.3498 Y4.9765
G01 X33.3655 Y4.9778
G01 X33.4852 Y5.1119
G01 X33.5015 Y5.1139
G01 X33.6255 Y5.2521
G01 X33.6425 Y5.2549
G01 X33.7716 Y5.3983
G01 X33.7892 Y5.4015
G01 X33.9244 Y5.5510
G01 X33.9425 Y5.5549
G01 X34.0855 Y5.7122
G01 X34.1049 Y5.7173
G01 X34.2577 Y5.8844
G01 X34.2779 Y5.8903
G00 Z0.6000
G00 X34.4220 Y6.0636
G01 F60.00
G01 Z-0.1905
G01 F120.00
G01 X34.4410 Y6.0701
G00 Z0.6000
G00 X34.5180 Y6.2259
G01 F60.00
G01 Z-0.1905
G01 F120.00
G01 X34.5328 Y6.2314
G00 Z0.6000
G00 X34.5710 Y6.3756
G01 F60.00
G01 Z-0.1905
G01 F120.00
G01 X34.5848 Y6.3811
G00 Z0.6000
G00 X34.5964 Y6.5160
G01 F60.00
G01 Z-0.1905
G01 F120.00
G01 X34.6105 Y6.5220
G01 X34.6004 Y6.6482
G01 X34.6105 Y6.6526
G01 X34.6004 Y6.7797
G01 X34.6105 Y6.7843
G01 X34.6004 Y6.9117
G01 X34.6105 Y6.9163
G01 X34.6004 Y7.0447
G01 X34.6105 Y7.0496
G01 X34.6004 Y7.1782
G01 X34.6105 Y7.1834
G01 X34.6004 Y7.3134
G01 X34.6105 Y7.3186
G01 X34.6004 Y7.4493
G01 X34.6105 Y7.4549
G01 X34.6004 Y7.5863
G01 X34.6105 Y7.5922
G01 X34.6004 Y7.7252
G01 X34.6105 Y7.7311
G01 X34.6004 Y7.8657
G01 X34.6105 Y7.8719
G01 X34.6004 Y8.0080
G01 X34.6105 Y8.0146
G01 X34.6004 Y8.1525
G01 X34.6105 Y8.1595
G01 X34.6004 Y8.2997
G01 X34.6105 Y8.3070
G01 X34.6004 Y8.4498
G01 X34.6105 Y8.4578
G01 X34.6004 Y8.6041
G01 X34.6105 Y8.6126
G01 X34.6004 Y8.7627
G01 X34.6105 Y8.7717
G01 X34.6004 Y8.9274
G01 X34.6105 Y8.9373
G01 X34.6004 Y9.0996
G01 X34.6105 Y9.1104
G01 X34.6004 Y9.2817
G01 X34.6105 Y9.2942
G01 X34.6004 Y9.4788
G01 X34.6105 Y9.4928
G01 X34.6004 Y9.6981
G01 X34.6105 Y9.7154
G01 X34.6004 Y9.9580
G01 X34.6105 Y9.9810
G01 X34.6004 Y10.3245
G01 X34.6105 Y10.3676
G01 X34.6105 Y11.1719
G01 X34.6004 Y11.2150
G01 X34.6105 Y11.5586
G01 X34.6004 Y11.5815
G01 X34.6105 Y11.8241
G01 X34.6004 Y11.8415
G01 X34.6105 Y12.0467
G01 X34.6004 Y12.0608
G01 X34.6106 Y12.2452
G01 X34.6004 Y12.2578
G00 Z0.6000
G00 X34.6609 Y12.3723
G01 F60.00
G01 Z-0.1905
G01 F120.00
G01 X34.6538 Y12.3805
G01 X34.7455 Y12.4579
G01 X34.7388 Y12.4655
G01 X34.8306 Y12.5429
G01 X34.8238 Y12.5505
G01 X34.9156 Y12.6279
G01 X34.9089 Y12.6355
G01 X35.0006 Y12.7129
G01 X34.9939 Y12.7205
G01 X35.0856 Y12.7979
G01 X35.0789 Y12.8055
G01 X35.1706 Y12.8829
G01 X35.1639 Y12.8905
G01 X35.2556 Y12.9679
G01 X35.2489 Y12.9755
G01 X35.3406 Y13.0529
G01 X35.3339 Y13.0605
G01 X35.4256 Y13.1380
G01 X35.4189 Y13.1455
G01 X35.5106 Y13.2230
G01 X35.5038 Y13.2305
G01 X35.5887 Y13.3154
G01 X35.5956 Y13.3080
G01 X35.6805 Y13.3929
G01 X35.6736 Y13.4003
G01 X35.7585 Y13.4852
G01 X35.7654 Y13.4778
G00 Z0.6000
G00 X35.8503 Y13.5627
G01 F60.00
G01 Z-0.1905
G01 F120.00
G01 X35.8434 Y13.5701
G01 X35.9284 Y13.6550
G01 X35.9352 Y13.6476
G01 X36.0201 Y13.7325
G01 X36.0133 Y13.7399
G01 X36.0982 Y13.8248
G01 X36.1050 Y13.8174
G01 X36.1899 Y13.9023
G01 X36.1831 Y13.9097
G01 X36.2680 Y13.9946
G01 X36.2748 Y13.9872
G01 X36.3598 Y14.0721
G01 X36.3529 Y14.0795
G01 X36.4378 Y14.1644
G01 X36.4447 Y14.1570
G01 X36.5296 Y14.2419
G01 X36.5227 Y14.2493
G01 X36.6076 Y14.3342
G01 X36.6145 Y14.3268
G00 Z0.6000
G00 X36.6994 Y14.4117
G01 F60.00
G01 Z-0.1905
G01 F120.00
G01 X36.6925 Y14.4191
G01 X36.7774 Y14.5040
G01 X36.7843 Y14.4966
G01 X36.8692 Y14.5815
G01 X36.8623 Y14.5889
G01 X36.9472 Y14.6738
G01 X36.9541 Y14.6664
G00 Z0.6000
G00 X37.0390 Y14.7513
G01 F60.00
G01 Z-0.1905
G01 F120.00
G01 X37.0321 Y14.7587
G01 X37.1170 Y14.8436
G01 X37.1239 Y14.8362
G00 Z0.6000
G00 X37.2088 Y14.9211
G01 F60.00
G01 Z-0.1905
G01 F120.00
G01 X37.2019 Y14.9286
G01 X37.2868 Y15.0135
G01 X37.2937 Y15.0061
G00 Z0.6000
G00 X37.3786 Y15.0910
G01 F60.00
G01 Z-0.1905
G01 F120.00
G01 X37.3717 Y15.0984
G01 X37.4566 Y15.1833
G01 X37.4635 Y15.1759
G00 Z0.6000
G00 X37.5484 Y15.2608
G01 F60.00
G01 Z-0.1905
G01 F120.00
G01 X37.5415 Y15.2682
G01 X37.6264 Y15.3531
G01 X37.6333 Y15.3457
G00 Z0.6000
G00 X37.7182 Y15.4306
G01 F60.00
G01 Z-0.1905
G01 F120.00
G01 X37.7113 Y15.4380
G01 X37.7962 Y15.5229
G01 X37.8031 Y15.5155
G01 X37.8880 Y15.6004
G01 X37.8811 Y15.6078
G01 X37.9660 Y15.6927
G01 X37.9729 Y15.6853
G01 X38.0578 Y15.7702
G01 X38.0509 Y15.7776
G01 X38.1358 Y15.8624
G01 X38.1427 Y15.8551
G00 Z0.6000
G00 X38.2276 Y15.9400
G01 F60.00
G01 Z-0.1905
G01 F120.00
G01 X38.2206 Y15.9473
G01 X38.3055 Y16.0321
G01 X38.3125 Y16.0249
G00 Z0.6000
G00 X38.3974 Y16.1097
G01 F60.00
G01 Z-0.1905
G01 F120.00
G01 X38.3903 Y16.1170
G01 X38.4752 Y16.2018
G01 X38.4822 Y16.1946
G01 X38.5671 Y16.2794
G01 X38.5600 Y16.2867
G01 X38.6449 Y16.3715
G01 X38.6519 Y16.3643
G01 X38.7368 Y16.4491
G01 X38.7297 Y16.4564
G01 X38.8146 Y16.5412
G01 X38.8216 Y16.5340
G01 X38.9065 Y16.6188
G01 X38.8994 Y16.6261
G01 X38.9843 Y16.7109
G01 X38.9913 Y16.7037
G00 Z0.6000
G00 X39.0801 Y16.7845
G01 F60.00
G01 Z-0.1905
G01 F120.00
G01 X39.0691 Y16.7958
G01 X39.2051 Y16.8271
G01 X39.2194 Y16.8117
G01 X39.3891 Y16.8053
G01 X39.4038 Y16.7895
G01 X39.5532 Y16.8025
G01 X39.5647 Y16.7895
G01 X39.7036 Y16.8135
G01 X39.7131 Y16.8028
G01 X39.8439 Y16.8356
G01 X39.8537 Y16.8239
G01 X39.9734 Y16.8680
G01 X39.9817 Y16.8582
G01 X40.0953 Y16.9095
G01 X40.1043 Y16.8989
G01 X40.2113 Y16.9580
G01 X40.2206 Y16.9470
G01 X40.3220 Y17.0129
G01 X40.3331 Y16.9997
G01 X40.4262 Y17.0754
G01 X40.4474 Y17.0503
G01 X40.5283 Y16.9491
G00 Z0.6000
G00 X40.5629 Y16.9059
G01 F60.00
G01 Z-0.1905
G01 F120.00
G01 X40.6008 Y16.8585
G00 Z0.6000
G00 X40.6003 Y16.6610
G01 F60.00
G01 Z-0.1905
G01 F120.00
G01 X40.6159 Y16.6405
G00 Z0.6000
G00 X40.6734 Y16.3584
G01 F60.00
G01 Z-0.1905
G01 F120.00
G01 X40.6924 Y16.3321
G01 X40.7009 Y16.3197
G00 Z0.6000
G00 X41.0097 Y15.8504
G01 F60.00
G01 Z-0.1905
G01 F120.00
G01 X41.0336 Y15.8117
G00 Z0.6000
G00 X41.2713 Y15.6463
G01 F60.00
G01 Z-0.1905
G01 F120.00
G01 X41.2864 Y15.6206
G00 Z0.6000
G00 X41.4653 Y15.5462
G01 F60.00
G01 Z-0.1905
G01 F120.00
G01 X41.4757 Y15.5273
G01 X41.6329 Y15.4903
G01 X41.6417 Y15.4733
G01 X41.7847 Y15.4582
G01 X41.7916 Y15.4449
G01 X41.9276 Y15.4434
G01 X41.9348 Y15.4295
G01 X42.0630 Y15.4430
G01 X42.0697 Y15.4295
G01 X42.1910 Y15.4546
G01 X42.1966 Y15.4431
G01 X42.3136 Y15.4769
G01 X42.3206 Y15.4627
G01 X42.4314 Y15.5091
G01 X42.4365 Y15.4987
G01 X42.5447 Y15.5507
G01 X42.5510 Y15.5377
G00 Z0.6000
G00 X42.6579 Y15.5922
G01 F60.00
G01 Z-0.1905
G01 F120.00
G01 X42.6532 Y15.6020
G01 X42.7629 Y15.6508
G01 X42.7568 Y15.6632
G01 X42.8614 Y15.7224
G01 X42.8559 Y15.7337
G01 X42.9563 Y15.8016
G01 X42.9503 Y15.8139
G01 X43.0460 Y15.8913
G01 X43.0395 Y15.9046
G01 X43.1289 Y15.9941
G01 X43.1226 Y16.0061
G01 X43.2075 Y16.1030
G01 X43.1988 Y16.1199
G01 X43.2745 Y16.2344
G01 X43.2672 Y16.2485
G01 X43.3338 Y16.3806
G01 X43.3262 Y16.3954
G01 X43.3813 Y16.5443
G01 X43.3719 Y16.5614
G00 Z0.6000
G00 X43.4105 Y16.7400
G01 F60.00
G01 Z-0.1905
G01 F120.00
G01 X43.3965 Y16.7655
G00 Z0.6000
G00 X43.4474 Y16.9168
G01 F60.00
G01 Z-0.1905
G01 F120.00
G01 X43.4116 Y16.9783
G01 X43.4994 Y17.0660
G01 X43.5425 Y16.9919
G00 Z0.6000
G00 X43.6644 Y17.0211
G01 F60.00
G01 Z-0.1905
G01 F120.00
G01 X43.6811 Y16.9925
G00 Z0.6000
G00 X43.8554 Y16.9272
G01 F60.00
G01 Z-0.1905
G01 F120.00
G01 X43.8636 Y16.9122
G00 Z0.6000
G00 X44.0246 Y16.8685
G01 F60.00
G01 Z-0.1905
G01 F120.00
G01 X44.0323 Y16.8545
G00 Z0.6000
G00 X44.1818 Y16.8305
G01 F60.00
G01 Z-0.1905
G01 F120.00
G01 X44.1896 Y16.8156
G01 X44.3283 Y16.8088
G01 X44.3347 Y16.7965
G01 X44.4673 Y16.8015
G01 X44.4735 Y16.7895
G01 X44.6007 Y16.8048
G01 X44.6087 Y16.7895
G01 X44.7294 Y16.8174
G01 X44.7354 Y16.8057
G01 X44.8538 Y16.8381
G01 X44.8599 Y16.8256
G01 X44.9728 Y16.8679
G01 X44.9780 Y16.8572
G01 X45.0874 Y16.9067
G01 X45.0934 Y16.8943
G01 X45.1987 Y16.9520
G01 X45.2044 Y16.9404
G01 X45.3119 Y16.9937
G01 X45.3069 Y17.0039
G01 X45.4161 Y17.0538
G01 X45.4102 Y17.0658
G01 X45.5157 Y17.1233
G01 X45.5100 Y17.1350
G01 X45.6128 Y17.1979
G01 X45.6064 Y17.2110
G01 X45.7036 Y17.2846
G01 X45.6985 Y17.2945
G01 X45.7922 Y17.3743
G01 X45.7847 Y17.3889
G01 X45.8729 Y17.4794
G01 X45.8664 Y17.4919
G01 X45.9502 Y17.5909
G01 X45.9431 Y17.6047
G01 X46.0214 Y17.7142
G01 X46.0138 Y17.7290
G01 X46.0839 Y17.8542
G01 X46.0771 Y17.8674
G01 X46.1383 Y18.0052
G01 X46.1303 Y18.0198
G01 X46.1823 Y18.1740
G01 X46.1713 Y18.1941
G01 X46.2088 Y18.3746
G01 X46.1951 Y18.3980
G01 X46.2105 Y18.6099
G01 X46.1933 Y18.6395
G00 Z0.6000
G00 X46.1529 Y18.9402
G01 F60.00
G01 Z-0.1905
G01 F120.00
G01 X46.1316 Y18.9747
G00 Z0.6000
G00 X45.5780 Y19.8145
G01 F60.00
G01 Z-0.1905
G01 F120.00
G01 X45.5547 Y19.8467
G00 Z0.6000
G00 X45.2937 Y20.0030
G01 F60.00
G01 Z-0.1905
G01 F120.00
G01 X45.2765 Y20.0268
G01 X45.0705 Y20.0994
G01 X45.0530 Y20.1224
G01 X44.8765 Y20.1562
G01 X44.8634 Y20.1735
G01 X44.6991 Y20.1871
G01 X44.6884 Y20.2005
G01 X44.5365 Y20.1983
G01 X44.5267 Y20.2105
G01 X44.3858 Y20.1945
G01 X44.3744 Y20.2087
G01 X44.2445 Y20.1787
G01 X44.2347 Y20.1903
G01 X44.1095 Y20.1527
G01 X44.1003 Y20.1637
G01 X43.9818 Y20.1181
G01 X43.9723 Y20.1294
G01 X43.8613 Y20.0750
G01 X43.8539 Y20.0838
G01 X43.7483 Y20.0229
G01 X43.7380 Y20.0352
G01 X43.6406 Y19.9646
G01 X43.6324 Y19.9742
G01 X43.5377 Y19.9004
G01 X43.5289 Y19.9109
G01 X43.4336 Y19.8378
G01 X43.4412 Y19.8288
G00 Z0.6000
G00 X43.3506 Y19.7500
G01 F60.00
G01 Z-0.1905
G01 F120.00
G01 X43.3417 Y19.7607
G01 X43.2565 Y19.6755
G01 X43.2648 Y19.6657
G01 X43.1762 Y19.5846
G01 X43.1837 Y19.5757
G00 Z0.6000
G00 X43.1014 Y19.4871
G01 F60.00
G01 Z-0.1905
G01 F120.00
G01 X43.1102 Y19.4767
G01 X43.0176 Y19.4004
G01 X42.9986 Y19.4229
G00 Z0.6000
G00 X42.8608 Y19.4004
G01 F60.00
G01 Z-0.1905
G01 F120.00
G01 X42.8523 Y19.4105
G01 X42.7019 Y19.4004
G01 X42.6930 Y19.4105
G01 X42.5417 Y19.4004
G01 X42.5328 Y19.4105
G01 X42.3815 Y19.4004
G01 X42.3726 Y19.4105
G01 X42.2192 Y19.4004
G01 X42.2098 Y19.4105
G01 X42.0554 Y19.4004
G01 X42.0461 Y19.4105
G01 X41.8917 Y19.4004
G01 X41.8823 Y19.4105
G01 X41.7248 Y19.4004
G01 X41.7149 Y19.4105
G01 X41.5571 Y19.4004
G01 X41.5473 Y19.4105
G01 X41.3886 Y19.4004
G01 X41.3782 Y19.4105
G01 X41.2168 Y19.4004
G01 X41.2064 Y19.4105
G01 X41.0450 Y19.4004
G01 X41.0322 Y19.4128
G00 Z0.6000
G00 X40.7207 Y19.6983
G01 F60.00
G01 Z-0.1905
G01 F120.00
G01 X40.5934 Y19.8108
G01 X40.5101 Y19.8810
G00 Z0.6000
G00 X40.0350 Y20.1121
G01 F60.00
G01 Z-0.1905
G01 F120.00
G01 X40.0037 Y20.1359
G00 Z0.6000
G00 X39.7465 Y20.1801
G01 F60.00
G01 Z-0.1905
G01 F120.00
G01 X39.7250 Y20.1956
G01 X39.5150 Y20.1994
G01 X39.4996 Y20.2105
G00 Z0.6000
G00 X39.3196 Y20.1899
G01 F60.00
G01 Z-0.1905
G01 F120.00
G01 X39.3054 Y20.1996
G00 Z0.6000
G00 X39.1477 Y20.1623
G01 F60.00
G01 Z-0.1905
G01 F120.00
G01 X39.1329 Y20.1725
G01 X38.9926 Y20.1219
G01 X38.9785 Y20.1311
G00 Z0.6000
G00 X38.8507 Y20.0711
G01 F60.00
G01 Z-0.1905
G01 F120.00
G01 X38.8400 Y20.0781
G01 X38.7231 Y20.0110
G01 X38.7104 Y20.0192
G01 X38.6061 Y19.9439
G01 X38.5935 Y19.9517
G01 X38.4970 Y19.8702
G01 X38.4853 Y19.8774
G01 X38.3963 Y19.7914
G01 X38.3835 Y19.7993
G01 X38.3037 Y19.7075
G01 X38.2943 Y19.7133
G01 X38.2211 Y19.6175
G01 X38.2077 Y19.6257
G01 X38.1449 Y19.5234
G01 X38.1343 Y19.5300
G01 X38.0750 Y19.4256
G01 X38.0634 Y19.4327
G01 X38.0034 Y19.3288
G01 X38.0133 Y19.3226
G01 X37.9477 Y19.2221
G01 X37.9596 Y19.2148
G01 X37.9012 Y19.1099
G01 X37.9123 Y19.1030
G01 X37.8614 Y18.9934
G01 X37.8715 Y18.9872
G01 X37.8290 Y18.8725
G01 X37.8409 Y18.8651
G01 X37.8070 Y18.7451
G01 X37.8186 Y18.7379
G01 X37.7898 Y18.6141
G01 X37.8050 Y18.6042
G01 X37.7895 Y18.4711
G01 X37.8017 Y18.4632
G01 X37.7981 Y18.3223
G01 X37.8109 Y18.3140
G00 Z0.6000
G00 X37.8133 Y18.1675
G01 F60.00
G01 Z-0.1905
G01 F120.00
G01 X37.8368 Y18.1513
G00 Z0.6000
G00 X37.7656 Y18.0547
G01 F60.00
G01 Z-0.1905
G01 F120.00
G01 X37.7749 Y18.0483
G01 X37.6886 Y17.9620
G01 X37.6801 Y17.9678
G01 X37.6023 Y17.8757
G01 X37.5938 Y17.8815
G01 X37.5160 Y17.7894
G01 X37.5075 Y17.7952
G01 X37.4297 Y17.7031
G01 X37.4211 Y17.7087
G01 X37.3430 Y17.6164
G01 X37.3344 Y17.6220
G01 X37.2563 Y17.5296
G01 X37.2476 Y17.5353
G01 X37.1696 Y17.4429
G01 X37.1609 Y17.4485
G01 X37.0828 Y17.3562
G01 X37.0742 Y17.3618
G01 X36.9961 Y17.2695
G01 X36.9875 Y17.2751
G01 X36.9094 Y17.1827
G01 X36.9007 Y17.1884
G01 X36.8227 Y17.0960
G01 X36.8140 Y17.1016
G01 X36.7358 Y17.0091
G01 X36.7269 Y17.0146
G01 X36.6486 Y16.9219
G01 X36.6397 Y16.9274
G01 X36.5614 Y16.8347
G01 X36.5525 Y16.8402
G01 X36.4742 Y16.7475
G01 X36.4653 Y16.7530
G01 X36.3870 Y16.6603
G01 X36.3781 Y16.6658
G01 X36.2997 Y16.5731
G01 X36.2909 Y16.5786
G01 X36.2124 Y16.4858
G01 X36.2034 Y16.4910
G01 X36.1247 Y16.3980
G01 X36.1156 Y16.4033
G01 X36.0369 Y16.3103
G01 X36.0279 Y16.3155
G01 X35.9492 Y16.2225
G01 X35.9402 Y16.2278
G01 X35.8614 Y16.1348
G01 X35.8524 Y16.1401
G01 X35.7735 Y16.0469
G01 X35.7643 Y16.0520
G01 X35.6852 Y15.9585
G01 X35.6760 Y15.9636
G01 X35.5968 Y15.8702
G01 X35.5876 Y15.8753
G01 X35.5085 Y15.7819
G01 X35.4993 Y15.7869
G01 X35.4201 Y15.6934
G01 X35.4107 Y15.6983
G01 X35.3311 Y15.6044
G01 X35.3217 Y15.6093
G01 X35.2421 Y15.5154
G01 X35.2327 Y15.5203
G01 X35.1531 Y15.4264
G01 X35.1437 Y15.4313
G01 X35.0636 Y15.3369
G01 X35.0540 Y15.3416
G01 X34.9738 Y15.2472
G01 X34.9642 Y15.2519
G01 X34.8841 Y15.1575
G01 X34.8745 Y15.1622
G01 X34.7938 Y15.0672
G01 X34.7840 Y15.0717
G01 X34.7033 Y14.9767
G01 X34.6935 Y14.9812
G01 X34.6127 Y14.8860
G01 X34.6027 Y14.8903
G01 X34.5213 Y14.7947
G01 X34.5113 Y14.7990
G01 X34.4299 Y14.7033
G01 X34.4198 Y14.7075
G01 X34.3377 Y14.6111
G01 X34.3275 Y14.6152
G01 X34.2454 Y14.5188
G01 X34.2351 Y14.5227
G01 X34.1522 Y14.4255
G01 X34.1418 Y14.4294
G01 X34.0587 Y14.3320
G01 X34.0480 Y14.3357
G01 X33.9642 Y14.2376
G01 X33.9536 Y14.2413
G01 X33.8691 Y14.1425
G01 X33.8583 Y14.1459
G01 X33.7732 Y14.0466
G01 X33.7622 Y14.0498
G01 X33.6764 Y13.9497
G01 X33.6651 Y13.9528
G01 X33.5782 Y13.8516
G01 X33.5669 Y13.8545
G01 X33.4788 Y13.7521
G01 X33.4672 Y13.7549
G01 X33.3779 Y13.6512
G01 X33.3660 Y13.6537
G01 X33.2751 Y13.5485
G01 X33.2628 Y13.5505
G01 X33.1700 Y13.4434
G01 X33.1574 Y13.4451
G00 Z0.6000
G00 X33.0624 Y13.3357
G01 F60.00
G01 Z-0.1905
G01 F120.00
G01 X33.0495 Y13.3371
G01 X32.9685 Y13.2235
G01 X32.9553 Y13.2243
G00 Z0.6000
G00 X32.8977 Y13.1074
G01 F60.00
G01 Z-0.1905
G01 F120.00
G01 X32.8834 Y13.1079
G01 X32.8482 Y12.9891
G01 X32.8343 Y12.9893
G00 Z0.6000
G00 X32.8159 Y12.8695
G01 F60.00
G01 Z-0.1905
G01 F120.00
G01 X32.8054 Y12.8696
G01 X32.8019 Y12.7497
G01 X32.7895 Y12.7497
G01 X32.7895 Y12.6297
G01 X32.7996 Y12.6297
G01 X32.7996 Y12.5097
G01 X32.7895 Y12.5097
G01 X32.7895 Y12.3897
G01 X32.7996 Y12.3897
G01 X32.7996 Y12.2697
G01 X32.7895 Y12.2697
G01 X32.7895 Y12.1497
G01 X32.7996 Y12.1497
G01 X32.7996 Y12.0297
G01 X32.7895 Y12.0297
G01 X32.7895 Y11.9097
G01 X32.7996 Y11.9097
G01 X32.7996 Y11.7897
G01 X32.7895 Y11.7897
G01 X32.7895 Y11.6697
G01 X32.7996 Y11.6697
G01 X32.7996 Y11.5497
G01 X32.7895 Y11.5497
G01 X32.7895 Y11.4297
G01 X32.7996 Y11.4297
G01 X32.7996 Y11.3097
G01 X32.7895 Y11.3097
G01 X32.7895 Y11.1897
G01 X32.7996 Y11.1897
G01 X32.7996 Y11.0697
G01 X32.7895 Y11.0697
G01 X32.7895 Y10.9497
G01 X32.7996 Y10.9497
G01 X32.7996 Y10.8296
G01 X32.7895 Y10.8296
G01 X32.7895 Y10.7100
G01 X32.7996 Y10.7100
G01 X32.7996 Y10.5898
G01 X32.7895 Y10.5898
G01 X32.7895 Y10.4698
G01 X32.7996 Y10.4698
G01 X32.7996 Y10.3498
G01 X32.7895 Y10.3498
G01 X32.7895 Y10.2298
G01 X32.7996 Y10.2298
G01 X32.7996 Y10.1098
G01 X32.7895 Y10.1098
G01 X32.7895 Y9.9898
G01 X32.7996 Y9.9898
G01 X32.7996 Y9.8698
G01 X32.7895 Y9.8698
G01 X32.7895 Y9.7498
G01 X32.7996 Y9.7498
G01 X32.7996 Y9.6298
G01 X32.7895 Y9.6298
G01 X32.7895 Y9.5098
G01 X32.7996 Y9.5098
G01 X32.7996 Y9.3898
G01 X32.7895 Y9.3898
G01 X32.7895 Y9.2698
G01 X32.7996 Y9.2698
G01 X32.7996 Y9.1498
G01 X32.7895 Y9.1498
G01 X32.7895 Y9.0298
G01 X32.7996 Y9.0298
G01 X32.7996 Y8.9098
G01 X32.7895 Y8.9098
G01 X32.7895 Y8.7898
G01 X32.7996 Y8.7898
G01 X32.7996 Y8.6698
G01 X32.7895 Y8.6698
G01 X32.7895 Y8.5498
G01 X32.7996 Y8.5498
G01 X32.7996 Y8.4298
G01 X32.7895 Y8.4298
G01 X32.7895 Y8.3098
G01 X32.7996 Y8.3098
G01 X32.7996 Y8.1898
G01 X32.7895 Y8.1898
G01 X32.7895 Y8.0698
G01 X32.7996 Y8.0698
G01 X32.7996 Y7.9498
G01 X32.7895 Y7.9498
G01 X32.7895 Y7.8298
G01 X32.7996 Y7.8298
G01 X32.7996 Y7.7098
G01 X32.7895 Y7.7098
G01 X32.7895 Y7.5898
G01 X32.7996 Y7.5898
G01 X32.7996 Y7.4698
G01 X32.7895 Y7.4698
G01 X32.7895 Y7.3498
G01 X32.7996 Y7.3498
G01 X32.7996 Y7.2298
G01 X32.7895 Y7.2298
G01 X32.7895 Y7.1098
G01 X32.7996 Y7.1098
G01 X32.7996 Y6.9898
G01 X32.7730 Y6.9900
G00 Z0.6000
G00 X32.6976 Y6.8710
G01 F60.00
G01 Z-0.1905
G01 F120.00
G01 X32.6839 Y6.8715
G01 X32.5822 Y6.7555
G01 X32.5687 Y6.7564
G01 X32.4694 Y6.6428
G01 X32.4563 Y6.6439
G01 X32.3589 Y6.5323
G01 X32.3461 Y6.5337
G01 X32.2504 Y6.4238
G01 X32.2379 Y6.4255
G01 X32.1438 Y6.3172
G01 X32.1313 Y6.3190
G01 X32.0389 Y6.2123
G01 X32.0266 Y6.2143
G01 X31.9353 Y6.1087
G01 X31.9233 Y6.1109
G01 X31.8327 Y6.0061
G01 X31.8209 Y6.0086
G01 X31.7315 Y5.9048
G01 X31.7197 Y5.9073
G01 X31.6312 Y5.8046
G01 X31.6197 Y5.8073
G01 X31.5316 Y5.7049
G01 X31.5202 Y5.7078
G01 X31.4333 Y5.6066
G01 X31.4220 Y5.6096
G01 X31.3351 Y5.5085
G01 X31.3240 Y5.5117
G01 X31.2383 Y5.4116
G01 X31.2272 Y5.4148
G01 X31.1414 Y5.3148
G01 X31.1305 Y5.3182
G01 X31.0458 Y5.2192
G01 X31.0350 Y5.2226
G01 X30.9502 Y5.1236
G01 X30.9394 Y5.1270
G01 X30.8554 Y5.0288
G01 X30.8448 Y5.0324
G01 X30.7610 Y4.9344
G01 X30.7504 Y4.9380
G01 X30.6667 Y4.8401
G01 X30.6563 Y4.8439
G01 X30.5734 Y4.7467
G01 X30.5630 Y4.7506
G01 X30.4801 Y4.6534
G01 X30.4696 Y4.6573
G01 X30.3870 Y4.5603
G01 X30.3768 Y4.5644
G01 X30.2946 Y4.4680
G01 X30.2844 Y4.4721
G01 X30.2023 Y4.3757
G01 X30.1921 Y4.3798
G01 X30.1100 Y4.2834
G01 X30.1000 Y4.2876
G01 X30.0186 Y4.1920
G01 X30.0086 Y4.1962
G01 X29.9272 Y4.1006
G01 X29.9172 Y4.1049
G01 X29.8358 Y4.0092
G01 X29.8258 Y4.0135
G01 X29.7447 Y3.9180
G01 X29.7349 Y3.9225
G01 X29.6542 Y3.8275
G01 X29.6444 Y3.8320
G01 X29.5636 Y3.7370
G01 X29.5538 Y3.7415
G01 X29.4731 Y3.6465
G01 X29.4633 Y3.6510
G01 X29.3826 Y3.5560
G01 X29.3730 Y3.5606
G01 X29.2929 Y3.4662
G01 X29.2833 Y3.4709
G01 X29.2032 Y3.3765
G01 X29.1936 Y3.3812
G01 X29.1134 Y3.2868
G01 X29.1038 Y3.2915
G01 X29.0237 Y3.1971
G01 X29.0141 Y3.2017
G01 X28.9340 Y3.1074
G01 X28.9246 Y3.1123
G01 X28.8450 Y3.0184
G01 X28.8356 Y3.0233
G01 X28.7560 Y2.9294
G01 X28.7466 Y2.9343
G01 X28.6670 Y2.8404
G01 X28.6548 Y2.8467
G00 Z0.6000
G00 X28.4858 Y2.8004
G01 F60.00
G01 Z-0.1905
G01 F120.00
G01 X28.4675 Y2.8105
G01 X28.2388 Y2.8004
G01 X28.2215 Y2.8105
G01 X28.0012 Y2.8004
G01 X27.9848 Y2.8105
G01 X27.7725 Y2.8004
G01 X27.7561 Y2.8105
G01 X27.5515 Y2.8004
G01 X27.5360 Y2.8105
G01 X27.3365 Y2.8004
G01 X27.3217 Y2.8105
G01 X27.1263 Y2.8004
G01 X27.1124 Y2.8105
G01 X26.9215 Y2.8004
G01 X26.9075 Y2.8105
G01 X26.7221 Y2.8004
G01 X26.7088 Y2.8105
G01 X26.5255 Y2.8004
G01 X26.5129 Y2.8105
G01 X26.3335 Y2.8004
G01 X26.3209 Y2.8105
G01 X26.1448 Y2.8004
G01 X26.1328 Y2.8105
G01 X25.9584 Y2.8004
G01 X25.9464 Y2.8105
G01 X25.7762 Y2.8004
G01 X25.7648 Y2.8105
G01 X25.5951 Y2.8004
G01 X25.5837 Y2.8105
G01 X25.4181 Y2.8004
G01 X25.4073 Y2.8105
G01 X25.2418 Y2.8004
G01 X25.2310 Y2.8105
G01 X25.0691 Y2.8004
G01 X25.0588 Y2.8105
G01 X24.8973 Y2.8004
G01 X24.8870 Y2.8105
G01 X24.7279 Y2.8004
G01 X24.7181 Y2.8105
G01 X24.5603 Y2.8004
G01 X24.5504 Y2.8105
G01 X24.3934 Y2.8004
G01 X24.3840 Y2.8105
G01 X24.2296 Y2.8004
G01 X24.2202 Y2.8105
G01 X24.0658 Y2.8004
G01 X24.0564 Y2.8105
G01 X23.9042 Y2.8004
G01 X23.8953 Y2.8105
G01 X23.7441 Y2.8004
G01 X23.7351 Y2.8105
G01 X23.5839 Y2.8004
G01 X23.5750 Y2.8105
G01 X23.4265 Y2.8004
G01 X23.4180 Y2.8105
G01 X23.2697 Y2.8004
G01 X23.2612 Y2.8105
G01 X23.1128 Y2.8004
G01 X23.1043 Y2.8105
G01 X22.9586 Y2.8004
G01 X22.9505 Y2.8105
G01 X22.8049 Y2.8004
G01 X22.7968 Y2.8105
G01 X22.6512 Y2.8004
G01 X22.6431 Y2.8105
G01 X22.4991 Y2.8004
G01 X22.4914 Y2.8105
G01 X22.3484 Y2.8004
G01 X22.3407 Y2.8105
G01 X22.1976 Y2.8004
G01 X22.1899 Y2.8105
G01 X22.0468 Y2.8004
G01 X22.0395 Y2.8105
G01 X21.8988 Y2.8004
G01 X21.8915 Y2.8105
G01 X21.7507 Y2.8004
G01 X21.7434 Y2.8105
G01 X21.6027 Y2.8004
G01 X21.5954 Y2.8105
G01 X21.4550 Y2.8004
G01 X21.4481 Y2.8105
G01 X21.3095 Y2.8004
G01 X21.3026 Y2.8105
G01 X21.1640 Y2.8004
G01 X21.1571 Y2.8105
G01 X21.0185 Y2.8004
G01 X21.0116 Y2.8105
G01 X20.8730 Y2.8004
G01 X20.8663 Y2.8105
G01 X20.7297 Y2.8004
G01 X20.7232 Y2.8105
G01 X20.5866 Y2.8004
G01 X20.5800 Y2.8105
G01 X20.4435 Y2.8004
G01 X20.4369 Y2.8105
G01 X20.3003 Y2.8004
G01 X20.2937 Y2.8105
G01 X20.1580 Y2.8004
G01 X20.1517 Y2.8105
G01 X20.0170 Y2.8004
G01 X20.0108 Y2.8105
G01 X19.8761 Y2.8004
G01 X19.8699 Y2.8105
G01 X19.7351 Y2.8004
G01 X19.7289 Y2.8105
G01 X19.5942 Y2.8004
G01 X19.5880 Y2.8105
G00 Z0.6000
G00 X19.4273 Y2.8460
G01 F60.00
G01 Z-0.1905
G01 F120.00
G01 X19.4074 Y2.8803
G01 X19.1036 Y3.1697
G01 X19.0861 Y3.2015
G01 X18.8084 Y3.4650
G01 X18.7930 Y3.4946
G01 X18.5350 Y3.7384
G01 X18.5004 Y3.8092
G01 X18.5105 Y4.0646
G01 X18.5004 Y4.0867
G01 X18.5105 Y4.3528
G01 X18.5004 Y4.3748
G01 X18.5105 Y4.6525
G01 X18.5004 Y4.6760
G01 X18.5105 Y4.9634
G01 X18.5004 Y4.9886
G01 X18.5105 Y5.2883
G01 X18.5004 Y5.3155
G00 Z0.6000
G00 X18.5548 Y5.5136
G01 F60.00
G01 Z-0.1905
G01 F120.00
G01 X18.5499 Y5.5266
G01 X18.6471 Y5.6095
G01 X18.6433 Y5.6199
G01 X18.7405 Y5.7028
G01 X18.7366 Y5.7132
G01 X18.8342 Y5.7965
G01 X18.8305 Y5.8072
G01 X18.9286 Y5.8909
G01 X18.9249 Y5.9016
G00 Z0.6000
G00 X19.0245 Y5.9810
G01 F60.00
G01 Z-0.1905
G01 F120.00
G01 X19.0193 Y5.9960
G00 Z0.6000
G00 X19.1390 Y6.0169
G01 F60.00
G01 Z-0.1905
G01 F120.00
G01 X19.1138 Y6.0904
G01 X19.2295 Y6.1228
G01 X19.2082 Y6.1848
G01 X19.3062 Y6.2686
G01 X19.3026 Y6.2792
G01 X19.4010 Y6.3633
G01 X19.3975 Y6.3742
G01 X19.4966 Y6.4589
G01 X19.4931 Y6.4698
G01 X19.5922 Y6.5545
G01 X19.5887 Y6.5654
G01 X19.6877 Y6.6501
G01 X19.6843 Y6.6609
G01 X19.7833 Y6.7457
G01 X19.7799 Y6.7565
G01 X19.8789 Y6.8413
G01 X19.8755 Y6.8521
G01 X19.9756 Y6.9379
G01 X19.9724 Y6.9490
G01 X20.0724 Y7.0348
G01 X20.0692 Y7.0458
G01 X20.1693 Y7.1316
G01 X20.1660 Y7.1427
G01 X20.2661 Y7.2285
G01 X20.2629 Y7.2395
G01 X20.3630 Y7.3253
G01 X20.3599 Y7.3365
G01 X20.4611 Y7.4234
G01 X20.4581 Y7.4347
G00 Z0.6000
G00 X20.5617 Y7.5124
G01 F60.00
G01 Z-0.1905
G01 F120.00
G01 X20.5563 Y7.5329
G01 X20.6759 Y7.5500
G01 X20.6787 Y7.5395
G01 X20.8000 Y7.5500
G01 X20.8028 Y7.5395
G01 X20.9241 Y7.5500
G01 X20.9268 Y7.5395
G01 X21.0482 Y7.5500
G01 X21.0509 Y7.5395
G01 X21.1707 Y7.5558
G01 X21.1749 Y7.5411
G01 X21.2910 Y7.5715
G01 X21.2944 Y7.5600
G01 X21.4087 Y7.5967
G01 X21.4129 Y7.5822
G01 X21.5270 Y7.6193
G01 X21.5236 Y7.6312
G01 X21.6398 Y7.6614
G01 X21.6359 Y7.6749
G01 X21.7487 Y7.7169
G01 X21.7457 Y7.7284
G01 X21.8561 Y7.7804
G01 X21.8528 Y7.7926
G00 Z0.6000
G00 X21.9602 Y7.8560
G01 F60.00
G01 Z-0.1905
G01 F120.00
G01 X21.9567 Y7.8692
G01 X22.0608 Y7.9453
G01 X22.0574 Y7.9583
G01 X22.1590 Y8.0435
G01 X22.1542 Y8.0616
G01 X22.2511 Y8.1684
G01 X22.2476 Y8.1834
G00 Z0.6000
G00 X22.3398 Y8.3143
G01 F60.00
G01 Z-0.1905
G01 F120.00
G01 X22.3358 Y8.3311
G01 X22.4216 Y8.4950
G01 X22.4164 Y8.5195
G00 Z0.6000
G00 X22.4900 Y8.7554
G01 F60.00
G01 Z-0.1905
G01 F120.00
G01 X22.4833 Y8.7913
G00 Z0.6000
G00 X22.3583 Y9.6213
G01 F60.00
G01 Z-0.1905
G01 F120.00
G01 X22.3544 Y9.6570
G00 Z0.6000
G00 X22.2143 Y9.8616
G01 F60.00
G01 Z-0.1905
G01 F120.00
G01 X22.2122 Y9.8851
G01 X22.0812 Y10.0189
G01 X22.0802 Y10.0352
G00 Z0.6000
G00 X21.9540 Y10.1328
G01 F60.00
G01 Z-0.1905
G01 F120.00
G01 X21.9530 Y10.1492
G01 X21.8283 Y10.2221
G01 X21.8274 Y10.2404
G01 X21.7054 Y10.2922
G01 X21.7042 Y10.3259
G00 Z0.6000
G00 X21.7547 Y11.9183
G01 F60.00
G01 Z-0.1905
G01 F120.00
G01 X21.7566 Y11.9349
G01 X21.8846 Y12.0011
G01 X21.8864 Y12.0171
G01 X22.0165 Y12.1010
G01 X22.0196 Y12.1240
G01 X22.1566 Y12.2411
G01 X22.1603 Y12.2683
G00 Z0.6000
G00 X22.3101 Y12.4560
G01 F60.00
G01 Z-0.1905
G01 F120.00
G01 X22.3165 Y12.4957
G00 Z0.6000
G00 X22.4923 Y13.3479
G01 F60.00
G01 Z-0.1905
G01 F120.00
G01 X22.5004 Y13.3789
G01 X22.4389 Y13.6163
G01 X22.4440 Y13.6358
G00 Z0.6000
G00 X22.3674 Y13.8022
G01 F60.00
G01 Z-0.1905
G01 F120.00
G01 X22.3728 Y13.8209
G01 X22.2865 Y13.9543
G01 X22.2928 Y13.9742
G01 X22.2005 Y14.0802
G01 X22.2051 Y14.0949
G01 X22.1089 Y14.1884
G01 X22.1133 Y14.2022
G01 X22.0127 Y14.2822
G01 X22.0177 Y14.2978
G01 X21.9126 Y14.3635
G01 X21.9167 Y14.3756
G01 X21.8097 Y14.4333
G01 X21.8152 Y14.4493
G01 X21.7034 Y14.4932
G01 X21.7072 Y14.5043
G01 X21.5939 Y14.5437
G01 X21.5986 Y14.5574
G01 X21.4845 Y14.5945
G01 X21.4809 Y14.5841
G01 X21.3692 Y14.6282
G01 X21.3644 Y14.6144
G01 X21.2488 Y14.6472
G01 X21.2448 Y14.6353
G01 X21.1265 Y14.6605
G01 X21.1217 Y14.6466
G01 X20.9998 Y14.6605
G01 X20.9964 Y14.6500
G01 X20.8739 Y14.6605
G01 X20.8706 Y14.6500
G01 X20.7480 Y14.6605
G01 X20.7447 Y14.6500
G01 X20.6222 Y14.6605
G01 X20.6188 Y14.6500
G01 X20.4963 Y14.6605
G01 X20.4930 Y14.6500
G01 X20.3704 Y14.6605
G01 X20.3658 Y14.6460
G01 X20.2398 Y14.6454
G01 X20.2357 Y14.6324
G01 X20.1072 Y14.6243
G01 X20.1017 Y14.6059
G01 X19.9691 Y14.5794
G01 X19.9649 Y14.5647
G01 X19.8275 Y14.5220
G01 X19.8228 Y14.5055
G01 X19.6807 Y14.4463
G01 X19.6740 Y14.4235
G00 Z0.6000
G00 X19.5257 Y14.3338
G01 F60.00
G01 Z-0.1905
G01 F120.00
G01 X19.5200 Y14.3118
G01 X19.3599 Y14.1754
G01 X19.3520 Y14.1452
G00 Z0.6000
G00 X19.2203 Y14.1108
G01 F60.00
G01 Z-0.1905
G01 F120.00
G01 X19.2178 Y14.1004
G01 X19.0969 Y14.1105
G01 X19.0945 Y14.1004
G01 X18.9735 Y14.1105
G01 X18.9711 Y14.1004
G01 X18.8502 Y14.1105
G01 X18.8478 Y14.1004
G01 X18.7269 Y14.1105
G01 X18.7245 Y14.1004
G01 X18.6035 Y14.1105
G01 X18.6011 Y14.1004
G01 X18.4802 Y14.1105
G01 X18.4778 Y14.1004
G01 X18.3569 Y14.1105
G01 X18.3545 Y14.1004
G01 X18.2336 Y14.1105
G01 X18.2312 Y14.1004
G01 X18.1102 Y14.1105
G01 X18.1078 Y14.1004
G01 X17.9869 Y14.1105
G01 X17.9845 Y14.1004
G01 X17.8639 Y14.1105
G01 X17.8617 Y14.1004
G01 X17.7412 Y14.1105
G01 X17.7391 Y14.1004
G01 X17.6186 Y14.1105
G01 X17.6164 Y14.1004
G01 X17.4959 Y14.1105
G01 X17.4938 Y14.1004
G01 X17.3733 Y14.1105
G01 X17.3711 Y14.1004
G01 X17.2506 Y14.1105
G01 X17.2485 Y14.1004
G01 X17.1280 Y14.1105
G01 X17.1258 Y14.1004
G01 X17.0053 Y14.1105
G01 X17.0032 Y14.1004
G01 X16.8827 Y14.1105
G01 X16.8805 Y14.1004
G01 X16.7600 Y14.1105
G01 X16.7579 Y14.1004
G01 X16.6374 Y14.1105
G01 X16.6352 Y14.1004
G01 X16.5147 Y14.1105
G01 X16.5126 Y14.1004
G01 X16.3921 Y14.1105
G01 X16.3899 Y14.1004
G01 X16.2694 Y14.1105
G01 X16.2673 Y14.1004
G01 X16.1496 Y14.1238
G01 X16.1541 Y14.1453
G00 Z0.6000
G00 X16.0484 Y14.2250
G01 F60.00
G01 Z-0.1905
G01 F120.00
G01 X16.0508 Y14.2368
G01 X15.9471 Y14.3262
G01 X15.9496 Y14.3380
G01 X15.8459 Y14.4274
G01 X15.8484 Y14.4392
G01 X15.7447 Y14.5287
G01 X15.7472 Y14.5405
G01 X15.6436 Y14.6297
G01 X15.6464 Y14.6413
G01 X15.5440 Y14.7294
G01 X15.5467 Y14.7409
G01 X15.4443 Y14.8290
G01 X15.4471 Y14.8406
G01 X15.3447 Y14.9287
G01 X15.3474 Y14.9402
G01 X15.2450 Y15.0284
G01 X15.2477 Y15.0399
G01 X15.1453 Y15.1280
G01 X15.1481 Y15.1396
G01 X15.0459 Y15.2274
G01 X15.0489 Y15.2387
G01 X14.9477 Y15.3256
G01 X14.9507 Y15.3370
G01 X14.8495 Y15.4239
G01 X14.8525 Y15.4352
G01 X14.7513 Y15.5221
G01 X14.7543 Y15.5334
G01 X14.6531 Y15.6203
G01 X14.6561 Y15.6316
G01 X14.5549 Y15.7185
G01 X14.5579 Y15.7298
G01 X14.4567 Y15.8167
G01 X14.4597 Y15.8280
G01 X14.3593 Y15.9141
G01 X14.3625 Y15.9251
G01 X14.2625 Y16.0109
G01 X14.2657 Y16.0220
G01 X14.1656 Y16.1078
G01 X14.1688 Y16.1188
G01 X14.0688 Y16.2046
G01 X14.0720 Y16.2157
G01 X13.9719 Y16.3015
G01 X13.9751 Y16.3125
G01 X13.8751 Y16.3983
G01 X13.8783 Y16.4094
G01 X13.7782 Y16.4951
G01 X13.7814 Y16.5062
G01 X13.6818 Y16.5915
G01 X13.6853 Y16.6024
G01 X13.5862 Y16.6871
G01 X13.5897 Y16.6980
G01 X13.4906 Y16.7827
G01 X13.4941 Y16.7936
G01 X13.3951 Y16.8783
G01 X13.3985 Y16.8891
G01 X13.2995 Y16.9739
G01 X13.3029 Y16.9847
G01 X13.2039 Y17.0695
G01 X13.2073 Y17.0803
G01 X13.1083 Y17.1651
G01 X13.1117 Y17.1759
G01 X13.0127 Y17.2606
G01 X13.0161 Y17.2715
G01 X12.9175 Y17.3559
G01 X12.9211 Y17.3665
G01 X12.8231 Y17.4503
G01 X12.8267 Y17.4609
G01 X12.7287 Y17.5447
G01 X12.7323 Y17.5553
G00 Z0.6000
G00 X12.6342 Y17.6390
G01 F60.00
G01 Z-0.1905
G01 F120.00
G01 X12.6379 Y17.6497
G01 X12.5360 Y17.7223
G01 X12.5401 Y17.7342
G01 X12.4322 Y17.7896
G01 X12.4369 Y17.8031
G01 X12.3226 Y17.8398
G01 X12.3263 Y17.8504
G01 X12.2117 Y17.8862
G01 X12.2079 Y17.8752
G01 X12.0929 Y17.9099
G01 X12.0882 Y17.8961
G01 X11.9663 Y17.9105
G01 X11.9628 Y17.9004
G01 X11.8394 Y17.9105
G01 X11.8359 Y17.9004
G01 X11.7125 Y17.9105
G01 X11.7090 Y17.9004
G01 X11.5856 Y17.9105
G01 X11.5821 Y17.9004
G01 X11.4587 Y17.9105
G01 X11.4552 Y17.9004
G01 X11.3318 Y17.9105
G01 X11.3283 Y17.9004
G01 X11.2049 Y17.9105
G01 X11.2015 Y17.9004
G01 X11.0788 Y17.9105
G01 X11.0756 Y17.9004
G01 X10.9530 Y17.9105
G01 X10.9498 Y17.9004
G01 X10.8271 Y17.9105
G01 X10.8239 Y17.9004
G01 X10.7012 Y17.9105
G01 X10.6980 Y17.9004
G01 X10.5753 Y17.9105
G01 X10.5721 Y17.9004
G01 X10.4495 Y17.9105
G01 X10.4463 Y17.9004
G01 X10.3236 Y17.9105
G01 X10.3204 Y17.9004
G01 X10.1977 Y17.9105
G01 X10.1945 Y17.9004
G01 X10.0719 Y17.9105
G01 X10.0687 Y17.9004
G01 X9.9460 Y17.9105
G01 X9.9428 Y17.9004
G01 X9.8201 Y17.9105
G01 X9.8169 Y17.9004
G01 X9.6943 Y17.9105
G01 X9.6911 Y17.9004
G01 X9.5684 Y17.9105
G01 X9.5652 Y17.9004
G01 X9.4425 Y17.9105
G01 X9.4393 Y17.9004
G01 X9.3167 Y17.9105
G01 X9.3135 Y17.9004
G01 X9.1913 Y17.9105
G01 X9.1883 Y17.9004
G01 X9.0663 Y17.9105
G01 X9.0634 Y17.9004
G01 X8.9414 Y17.9105
G01 X8.9385 Y17.9004
G01 X8.8165 Y17.9105
G01 X8.8135 Y17.9004
G01 X8.6915 Y17.9105
G01 X8.6886 Y17.9004
G01 X8.5666 Y17.9105
G01 X8.5637 Y17.9004
G01 X8.4417 Y17.9105
G01 X8.4387 Y17.9004
G01 X8.3167 Y17.9105
G01 X8.3138 Y17.9004
G01 X8.1918 Y17.9105
G01 X8.1889 Y17.9004
G01 X8.0669 Y17.9105
G01 X8.0639 Y17.9004
G01 X7.9419 Y17.9105
G01 X7.9390 Y17.9004
G01 X7.8170 Y17.9105
G01 X7.8141 Y17.9004
G01 X7.6921 Y17.9105
G01 X7.6891 Y17.9004
G01 X7.5671 Y17.9105
G01 X7.5642 Y17.9004
G01 X7.4422 Y17.9105
G01 X7.4384 Y17.8975
G00 Z0.6000
G00 X7.3116 Y17.8909
G01 F60.00
G01 Z-0.1905
G01 F120.00
G01 X7.3082 Y17.8792
G01 X7.1753 Y17.8510
G01 X7.1718 Y17.8378
G00 Z0.6000
G00 X7.0333 Y17.7832
G01 F60.00
G01 Z-0.1905
G01 F120.00
G01 X7.0288 Y17.7662
G00 Z0.6000
G00 X6.8783 Y17.6660
G01 F60.00
G01 Z-0.1905
G01 F120.00
G01 X6.8730 Y17.6456
G00 Z0.6000
G00 X6.7097 Y17.4972
G01 F60.00
G01 Z-0.1905
G01 F120.00
G01 X6.6714 Y17.3518
G01 X6.5785 Y17.4702
G01 X6.5455 Y17.3448
G01 X6.4271 Y16.8463
G01 X6.5268 Y16.7466
G01 X6.6027 Y17.0665
G01 X6.4000 Y17.2514
G01 X6.4291 Y17.3740
G01 X6.4692 Y17.5263
G00 Z0.6000
G00 X6.4000 Y17.7344
G01 F60.00
G01 Z-0.1905
G01 F120.00
G01 X6.4105 Y17.7742
G00 Z0.6000
G00 X6.3863 Y18.1467
G01 F60.00
G01 Z-0.1905
G01 F120.00
G01 X6.3916 Y18.1652
G00 Z0.6000
G00 X6.3033 Y18.2913
G01 F60.00
G01 Z-0.1905
G01 F120.00
G01 X6.3080 Y18.3075
G00 Z0.6000
G00 X6.2000 Y18.3659
G01 F60.00
G01 Z-0.1905
G01 F120.00
G01 X6.2035 Y18.3782
G01 X6.0880 Y18.4105
G01 X6.0844 Y18.3983
G00 Z0.6000
G00 X5.9630 Y18.4105
G01 F60.00
G01 Z-0.1905
G01 F120.00
G01 X5.9600 Y18.4000
G01 X5.8381 Y18.4105
G01 X5.8351 Y18.4000
G01 X5.7132 Y18.4105
G01 X5.7101 Y18.4000
G01 X5.5882 Y18.4105
G01 X5.5852 Y18.4000
G01 X5.4633 Y18.4105
G01 X5.4603 Y18.4000
G01 X5.3384 Y18.4105
G01 X5.3353 Y18.4000
G01 X5.2134 Y18.4105
G01 X5.2105 Y18.4000
G01 X5.0891 Y18.4105
G01 X5.0864 Y18.4000
G01 X4.9651 Y18.4105
G01 X4.9623 Y18.4000
G01 X4.8410 Y18.4105
G01 X4.8382 Y18.4000
G01 X4.7169 Y18.4105
G01 X4.7141 Y18.4000
G01 X4.5928 Y18.4105
G01 X4.5900 Y18.4000
G01 X4.4687 Y18.4105
G01 X4.4659 Y18.4000
G01 X4.3446 Y18.4105
G01 X4.3418 Y18.4000
G01 X4.2205 Y18.4105
G01 X4.2178 Y18.4000
G01 X4.0964 Y18.4105
G01 X4.0937 Y18.4000
G01 X3.9723 Y18.4105
G01 X3.9696 Y18.4000
G00 Z0.6000
G00 X3.8441 Y18.3949
G01 F60.00
G01 Z-0.1905
G01 F120.00
G01 X3.8408 Y18.3824
G00 Z0.6000
G00 X3.6983 Y18.3123
G01 F60.00
G01 Z-0.1905
G01 F120.00
G01 X3.6911 Y18.2851
G00 Z0.6000
G00 X3.6000 Y17.9246
G01 F60.00
G01 Z-0.1905
G01 F120.00
G01 X3.5895 Y17.8804
G01 X3.6000 Y17.4053
G01 X3.5895 Y17.3611
G00 Z0.6000
G00 X3.4731 Y16.8150
G01 F60.00
G01 Z-0.1905
G01 F120.00
G01 X3.4547 Y16.7280
G01 X3.3420 Y16.7751
G01 X3.3475 Y16.8014
G00 Z0.6000
G00 X3.2315 Y16.8325
G01 F60.00
G01 Z-0.1905
G01 F120.00
G01 X3.2346 Y16.8472
G01 X3.1193 Y16.8819
G01 X3.1218 Y16.8939
G01 X3.0053 Y16.9227
G01 X3.0078 Y16.9348
G01 X2.8918 Y16.9659
G01 X2.8891 Y16.9531
G00 Z0.6000
G00 X2.7713 Y16.9764
G01 F60.00
G01 Z-0.1905
G01 F120.00
G01 X2.7740 Y16.9892
G01 X2.6547 Y17.0049
G01 X2.6521 Y16.9926
G01 X2.5333 Y17.0105
G01 X2.5307 Y16.9986
G01 X2.4106 Y17.0105
G01 X2.4074 Y16.9956
G01 X2.2851 Y16.9970
G01 X2.2824 Y16.9844
G01 X2.1587 Y16.9794
G01 X2.1555 Y16.9642
G01 X2.0287 Y16.9446
G01 X2.0260 Y16.9318
G01 X1.8973 Y16.9018
G01 X1.8946 Y16.8869
G01 X1.7651 Y16.8470
G01 X1.7618 Y16.8293
G01 X1.6291 Y16.7723
G01 X1.6261 Y16.7559
G01 X1.4901 Y16.6811
G01 X1.4866 Y16.6625
G01 X1.3465 Y16.5655
G01 X1.3422 Y16.5424
G01 X1.1954 Y16.4097
G01 X1.1906 Y16.3839
G00 Z0.6000
G00 X1.0332 Y16.1804
G01 F60.00
G01 Z-0.1905
G01 F120.00
G01 X1.0277 Y16.1467
G00 Z0.6000
G00 X0.8313 Y15.6813
G01 F60.00
G01 Z-0.1905
G01 F120.00
G01 X0.8046 Y15.5150
G01 X0.7895 Y15.4040
G00 Z0.6000
G00 X0.8078 Y15.1383
G01 F60.00
G01 Z-0.1905
G01 F120.00
G01 X0.8088 Y15.1285
G01 X0.8318 Y14.9732
G01 X0.8337 Y14.9636
G01 X0.8732 Y14.8065
G01 X0.9294 Y14.6494
G01 X1.0007 Y14.4986
G01 X1.0839 Y14.3597
G01 X1.0893 Y14.3515
G01 X1.1829 Y14.2254
G01 X1.1891 Y14.2178
G01 X1.2979 Y14.0979
G01 X1.4215 Y13.9859
G01 X1.5555 Y13.8865
G01 X1.6944 Y13.8032
G01 X1.7030 Y13.7985
G01 X1.8450 Y13.7314
G01 X1.8540 Y13.7276
G01 X2.0065 Y13.6732
G01 X2.1659 Y13.6332
G01 X2.1732 Y13.6318
G01 X2.3285 Y13.6088
G01 X2.3383 Y13.6078
G01 X2.5000 Y13.6000
G01 X2.6663 Y13.6082
G01 X2.8317 Y13.6327
G01 X2.9888 Y13.6719
G01 X2.9981 Y13.6747
G01 X3.1460 Y13.7276
G01 X3.1528 Y13.7304
G01 X3.3014 Y13.8007
G01 X3.4403 Y13.8839
G01 X3.4485 Y13.8893
G01 X3.5746 Y13.9829
G01 X3.5803 Y13.9875
G01 X3.7021 Y14.0979
G01 X3.8125 Y14.2197
G01 X3.8171 Y14.2254
G01 X3.9121 Y14.3535
G01 X3.9401 Y14.3996
G01 X6.0599 Y14.3996
G01 X6.0879 Y14.3535
G01 X6.1843 Y14.2234
G01 X6.1891 Y14.2178
G01 X6.2945 Y14.1015
G01 X6.2997 Y14.0962
G01 X6.4215 Y13.9859
G01 X6.5515 Y13.8893
G01 X6.5597 Y13.8839
G01 X6.6965 Y13.8019
G01 X6.7030 Y13.7985
G01 X6.8494 Y13.7294
G01 X7.0019 Y13.6747
G01 X7.0112 Y13.6719
G01 X7.1683 Y13.6327
G01 X7.3285 Y13.6088
G01 X7.3383 Y13.6078
G01 X7.4998 Y13.6000
G01 X7.4998 Y12.7482
G01 X7.4290 Y12.6957
G01 X7.3672 Y12.6398
G01 X7.3602 Y12.6328
G01 X7.3043 Y12.5710
G01 X7.2545 Y12.5040
G01 X7.2491 Y12.4959
G01 X7.2063 Y12.4243
G01 X7.1705 Y12.3489
G01 X7.1667 Y12.3398
G01 X7.1388 Y12.2613
G01 X7.1184 Y12.1804
G01 X7.1165 Y12.1707
G01 X7.1043 Y12.0882
G01 X7.1001 Y12.0049
G01 X7.1001 Y11.9951
G01 X7.1046 Y11.9093
G01 X7.1173 Y11.8244
G01 X7.1376 Y11.7430
G01 X7.1403 Y11.7341
G01 X7.1667 Y11.6602
G01 X7.1705 Y11.6511
G01 X7.2063 Y11.5757
G01 X7.2517 Y11.5000
G01 X7.3043 Y11.4290
G01 X7.3602 Y11.3672
G01 X7.3672 Y11.3602
G01 X7.4253 Y11.3075
G01 X7.4329 Y11.3013
G01 X7.5000 Y11.2517
G01 X7.5757 Y11.2063
G01 X7.6556 Y11.1685
G01 X7.7341 Y11.1403
G01 X7.7435 Y11.1374
G01 X7.8196 Y11.1184
G01 X7.8293 Y11.1165
G01 X7.9118 Y11.1043
G01 X8.0000 Y11.1000
G01 X8.0882 Y11.1043
G01 X8.1756 Y11.1173
G01 X8.2615 Y11.1388
G01 X8.3444 Y11.1685
G01 X8.4243 Y11.2063
G01 X8.5000 Y11.2517
G01 X8.5710 Y11.3043
G01 X8.6364 Y11.3636
G01 X8.6957 Y11.4290
G01 X8.7483 Y11.5000
G01 X8.7937 Y11.5757
G01 X8.8315 Y11.6556
G01 X8.8612 Y11.7387
G01 X8.8822 Y11.8220
G01 X8.8951 Y11.9069
G01 X8.8960 Y11.9167
G01 X8.9000 Y12.0000
G01 X8.8957 Y12.0882
G01 X8.8827 Y12.1756
G01 X8.8626 Y12.2565
G01 X8.8597 Y12.2659
G01 X8.8315 Y12.3444
G01 X8.7959 Y12.4199
G01 X8.7913 Y12.4285
G01 X8.7483 Y12.5000
G01 X8.6957 Y12.5710
G01 X8.6398 Y12.6328
G01 X8.6328 Y12.6398
G01 X8.5710 Y12.6957
G01 X8.5002 Y12.7482
G01 X8.5002 Y13.9277
G01 X8.5746 Y13.9829
G01 X8.5803 Y13.9875
G01 X8.6985 Y14.0945
G01 X8.7038 Y14.0997
G01 X8.8141 Y14.2215
G01 X8.9107 Y14.3515
G01 X8.9148 Y14.3576
G01 X8.9993 Y14.4986
G01 X9.0706 Y14.6494
G01 X9.1268 Y14.8065
G01 X9.1668 Y14.9659
G01 X9.1682 Y14.9732
G01 X9.1918 Y15.1334
G01 X9.1999 Y15.2951
G01 X9.1999 Y15.3049
G01 X9.1922 Y15.4617
G01 X9.1912 Y15.4715
G01 X9.1673 Y15.6317
G01 X9.1268 Y15.7935
G01 X9.0706 Y15.9506
G01 X9.0002 Y16.0996
G01 X11.6270 Y16.0996
G01 X15.1651 Y12.5616
G01 X15.2288 Y12.5040
G01 X15.2998 Y12.4513
G01 X15.3756 Y12.4059
G01 X15.4509 Y12.3701
G01 X15.4600 Y12.3664
G01 X15.5386 Y12.3384
G01 X15.6243 Y12.3169
G01 X15.7117 Y12.3039
G01 X15.7975 Y12.2996
G01 X19.3145 Y12.2996
G01 X19.3307 Y12.2783
G01 X19.4247 Y12.1747
G01 X19.5264 Y12.0823
G01 X19.5320 Y12.0776
G01 X19.6404 Y11.9972
G01 X19.6466 Y11.9930
G01 X19.7665 Y11.9212
G01 X19.8496 Y11.8818
G01 X19.8496 Y10.3182
G01 X19.7665 Y10.2788
G01 X19.6486 Y10.2083
G01 X19.6424 Y10.2042
G01 X19.5301 Y10.1209
G01 X19.4283 Y10.0287
G01 X19.4230 Y10.0235
G01 X19.3291 Y9.9199
G01 X19.2443 Y9.8054
G01 X19.1712 Y9.6835
G01 X19.1113 Y9.5571
G01 X19.1086 Y9.5503
G01 X19.0624 Y9.4209
G01 X19.0289 Y9.2877
G01 X19.0270 Y9.2780
G01 X19.0076 Y9.1470
G01 X19.0066 Y9.1372
G01 X19.0000 Y9.0000
G01 X19.0070 Y8.8579
G01 X19.0279 Y8.7171
G01 X19.0610 Y8.5844
G01 X16.9616 Y6.4849
G01 X16.9040 Y6.4212
G01 X16.8513 Y6.3502
G01 X16.8059 Y6.2744
G01 X16.7701 Y6.1991
G01 X16.7672 Y6.1923
G01 X16.7384 Y6.1114
G01 X16.7169 Y6.0257
G01 X16.7039 Y5.9383
G01 X16.6996 Y5.8525
G01 X16.6997 Y3.3951
G01 X16.7039 Y3.3117
G01 X16.7169 Y3.2241
G01 X16.7384 Y3.1386
G01 X16.7664 Y3.0600
G01 X16.7701 Y3.0509
G01 X16.8037 Y2.9799
G01 X16.8083 Y2.9713
G01 X16.8513 Y2.8998
G01 X16.9010 Y2.8327
G01 X16.9056 Y2.8269
G01 X16.9633 Y2.7633
G01 X18.4633 Y1.2633
G01 X18.5251 Y1.2072
G01 X18.5327 Y1.2010
G01 X18.5998 Y1.1513
G01 X18.6713 Y1.1083
G01 X18.6799 Y1.1037
G01 X18.7554 Y1.0681
G01 X18.8340 Y1.0399
G01 X18.8434 Y1.0371
G01 X18.9196 Y1.0180
G01 X18.9292 Y1.0161
G01 X19.0117 Y1.0039
G01 X19.1000 Y0.9996
G01 X29.0000 Y0.9996
G01 X29.0858 Y1.0037
G01 X29.0931 Y1.0045
G01 X29.1759 Y1.0169
G01 X29.2566 Y1.0371
G01 X29.2660 Y1.0399
G01 X29.3400 Y1.0664
G01 X29.3491 Y1.0701
G01 X29.4244 Y1.1059
G01 X29.5002 Y1.1513
G01 X29.5712 Y1.2040
G01 X29.6349 Y1.2616
G01 X34.3367 Y5.9633
G01 X34.3960 Y6.0288
G01 X34.4458 Y6.0958
G01 X34.4513 Y6.1039
G01 X34.4917 Y6.1713
G01 X34.4963 Y6.1799
G01 X34.5319 Y6.2554
G01 X34.5601 Y6.3340
G01 X34.5629 Y6.3434
G01 X34.5820 Y6.4196
G01 X34.5839 Y6.4292
G01 X34.5961 Y6.5117
G01 X34.6004 Y6.5975
G01 X34.6004 Y12.3270
G01 X39.1184 Y16.8450
G01 X39.1708 Y16.8322
G01 X39.3309 Y16.8085
G01 X39.3383 Y16.8078
G01 X39.4975 Y16.8000
G01 X39.5049 Y16.8001
G01 X39.6663 Y16.8082
G01 X39.8317 Y16.8327
G01 X39.9935 Y16.8732
G01 X40.1506 Y16.9294
G01 X40.3014 Y17.0007
G01 X40.4424 Y17.0852
G01 X40.4650 Y17.1016
G01 X40.6058 Y16.9608
G01 X40.6000 Y16.8400
G01 X40.6064 Y16.7077
G01 X40.6073 Y16.6979
G01 X40.6269 Y16.5669
G01 X40.6590 Y16.4383
G01 X40.6618 Y16.4289
G01 X40.7066 Y16.3042
G01 X40.7631 Y16.1844
G01 X40.7677 Y16.1758
G01 X40.8359 Y16.0622
G01 X40.9178 Y15.9518
G01 X41.0101 Y15.8501
G01 X41.1118 Y15.7578
G01 X41.2182 Y15.6788
G01 X41.2263 Y15.6733
G01 X41.3400 Y15.6053
G01 X41.4598 Y15.5486
G01 X41.4688 Y15.5448
G01 X41.5936 Y15.5003
G01 X41.7269 Y15.4669
G01 X41.8628 Y15.4467
G01 X41.9951 Y15.4401
G01 X42.0049 Y15.4401
G01 X42.1323 Y15.4464
G01 X42.1421 Y15.4473
G01 X42.2731 Y15.4669
G01 X42.4017 Y15.4990
G01 X42.4111 Y15.5018
G01 X42.5312 Y15.5448
G01 X42.5402 Y15.5486
G01 X42.6600 Y15.6053
G01 X42.7737 Y15.6733
G01 X42.7818 Y15.6788
G01 X42.8882 Y15.7578
G01 X42.9899 Y15.8501
G01 X43.0822 Y15.9518
G01 X43.1627 Y16.0602
G01 X43.1667 Y16.0663
G01 X43.2347 Y16.1800
G01 X43.2914 Y16.2998
G01 X43.2952 Y16.3088
G01 X43.3382 Y16.4289
G01 X43.3410 Y16.4383
G01 X43.3731 Y16.5669
G01 X43.3933 Y16.7028
G01 X43.4000 Y16.8400
G01 X43.3942 Y16.9608
G01 X43.5350 Y17.1016
G01 X43.5535 Y17.0879
G01 X43.5597 Y17.0839
G01 X43.6944 Y17.0032
G01 X43.7030 Y16.9985
G01 X43.8494 Y16.9294
G01 X44.0065 Y16.8732
G01 X44.1683 Y16.8327
G01 X44.3285 Y16.8088
G01 X44.3383 Y16.8078
G01 X44.4951 Y16.8001
G01 X44.5049 Y16.8001
G01 X44.6663 Y16.8082
G01 X44.8317 Y16.8327
G01 X44.9935 Y16.8732
G01 X45.1460 Y16.9276
G01 X45.1550 Y16.9314
G01 X45.2970 Y16.9985
G01 X45.3056 Y17.0032
G01 X45.4445 Y17.0865
G01 X45.5785 Y17.1859
G01 X45.6985 Y17.2945
G01 X45.7055 Y17.3015
G01 X45.8141 Y17.4215
G01 X45.9107 Y17.5515
G01 X45.9161 Y17.5597
G01 X45.9993 Y17.6986
G01 X46.0706 Y17.8494
G01 X46.1268 Y18.0065
G01 X46.1663 Y18.1636
G01 X46.1682 Y18.1732
G01 X46.1918 Y18.3334
G01 X46.1999 Y18.4951
G01 X46.1999 Y18.5049
G01 X46.1920 Y18.6642
G01 X46.1912 Y18.6715
G01 X46.1673 Y18.8317
G01 X46.1281 Y18.9888
G01 X46.1253 Y18.9981
G01 X46.0724 Y19.1460
G01 X46.0686 Y19.1550
G01 X45.9993 Y19.3014
G01 X45.9135 Y19.4445
G01 X45.8141 Y19.5785
G01 X45.7021 Y19.7021
G01 X45.5785 Y19.8141
G01 X45.4485 Y19.9107
G01 X45.4403 Y19.9161
G01 X45.3056 Y19.9968
G01 X45.2970 Y20.0015
G01 X45.1506 Y20.0706
G01 X44.9935 Y20.1268
G01 X44.8317 Y20.1673
G01 X44.6715 Y20.1912
G01 X44.6617 Y20.1922
G01 X44.5049 Y20.1999
G01 X44.4951 Y20.1999
G01 X44.3334 Y20.1918
G01 X44.1683 Y20.1673
G01 X44.0112 Y20.1281
G01 X44.0019 Y20.1253
G01 X43.8494 Y20.0706
G01 X43.7008 Y20.0004
G01 X43.6944 Y19.9968
G01 X43.5597 Y19.9161
G01 X43.5515 Y19.9107
G01 X43.4215 Y19.8141
G01 X43.2997 Y19.7038
G01 X43.2945 Y19.6985
G01 X43.1891 Y19.5822
G01 X43.1843 Y19.5766
G01 X43.0879 Y19.4465
G01 X43.0599 Y19.4004
G01 X40.9401 Y19.4004
G01 X40.9121 Y19.4465
G01 X40.8157 Y19.5766
G01 X40.8109 Y19.5822
G01 X40.7038 Y19.7003
G01 X40.6985 Y19.7055
G01 X40.5785 Y19.8141
G01 X40.4485 Y19.9107
G01 X40.4424 Y19.9148
G01 X40.3056 Y19.9968
G01 X40.2970 Y20.0015
G01 X40.1506 Y20.0706
G01 X39.9981 Y20.1253
G01 X39.9888 Y20.1281
G01 X39.8317 Y20.1673
G01 X39.6666 Y20.1918
G01 X39.5000 Y20.2000
G01 X39.3334 Y20.1918
G01 X39.1683 Y20.1673
G01 X39.0065 Y20.1268
G01 X38.8494 Y20.0706
G01 X38.6986 Y19.9993
G01 X38.5555 Y19.9135
G01 X38.4254 Y19.8171
G01 X38.4178 Y19.8109
G01 X38.2979 Y19.7021
G01 X38.1891 Y19.5822
G01 X38.1829 Y19.5746
G01 X38.0865 Y19.4445
G01 X38.0032 Y19.3056
G01 X37.9985 Y19.2970
G01 X37.9294 Y19.1506
G01 X37.8739 Y18.9958
G01 X37.8719 Y18.9888
G01 X37.8337 Y18.8364
G01 X37.8318 Y18.8268
G01 X37.8082 Y18.6666
G01 X37.8000 Y18.5025
G01 X37.8001 Y18.4951
G01 X37.8084 Y18.3311
G01 X37.8322 Y18.1708
G01 X37.8450 Y18.1184
G01 X33.0633 Y13.3367
G01 X33.0040 Y13.2712
G01 X32.9513 Y13.2002
G01 X32.9059 Y13.1244
G01 X32.8691 Y13.0468
G01 X32.8664 Y13.0400
G01 X32.8384 Y12.9614
G01 X32.8169 Y12.8757
G01 X32.8039 Y12.7883
G01 X32.7996 Y12.7000
G01 X32.7996 Y6.9730
G01 X28.6270 Y2.8004
G01 X19.4730 Y2.8004
G01 X18.5004 Y3.7730
G01 X18.5004 Y5.4770
G01 X20.5734 Y7.5500
G01 X21.0500 Y7.5500
G01 X21.1872 Y7.5566
G01 X21.1970 Y7.5576
G01 X21.3329 Y7.5779
G01 X21.4709 Y7.6124
G01 X21.6049 Y7.6604
G01 X21.7291 Y7.7190
G01 X21.7357 Y7.7224
G01 X21.8556 Y7.7944
G01 X21.9699 Y7.8791
G01 X22.0753 Y7.9747
G01 X22.1709 Y8.0801
G01 X22.2557 Y8.1946
G01 X22.3288 Y8.3165
G01 X22.3896 Y8.4451
G01 X22.4360 Y8.5744
G01 X22.4382 Y8.5814
G01 X22.4721 Y8.7171
G01 X22.4930 Y8.8579
G01 X22.5000 Y9.0000
G01 X22.4934 Y9.1372
G01 X22.4924 Y9.1470
G01 X22.4730 Y9.2780
G01 X22.4711 Y9.2877
G01 X22.4376 Y9.4209
G01 X22.3914 Y9.5503
G01 X22.3887 Y9.5571
G01 X22.3288 Y9.6835
G01 X22.2556 Y9.8056
G01 X22.1709 Y9.9199
G01 X22.0770 Y10.0235
G01 X22.0717 Y10.0287
G01 X21.9699 Y10.1209
G01 X21.8574 Y10.2044
G01 X21.7335 Y10.2788
G01 X21.6504 Y10.3182
G01 X21.6504 Y11.8818
G01 X21.7335 Y11.9212
G01 X21.8514 Y11.9917
G01 X21.8576 Y11.9958
G01 X21.9699 Y12.0791
G01 X22.0735 Y12.1730
G01 X22.0787 Y12.1783
G01 X22.1677 Y12.2764
G01 X22.1739 Y12.2840
G01 X22.2557 Y12.3946
G01 X22.3276 Y12.5143
G01 X22.3310 Y12.5209
G01 X22.3876 Y12.6406
G01 X22.3914 Y12.6497
G01 X22.4376 Y12.7791
G01 X22.4721 Y12.9171
G01 X22.4930 Y13.0579
G01 X22.4999 Y13.1951
G01 X22.4999 Y13.2049
G01 X22.4934 Y13.3372
G01 X22.4924 Y13.3470
G01 X22.4721 Y13.4829
G01 X22.4389 Y13.6162
G01 X22.4360 Y13.6256
G01 X22.3896 Y13.7549
G01 X22.3310 Y13.8791
G01 X22.3264 Y13.8878
G01 X22.2556 Y14.0056
G01 X22.1739 Y14.1160
G01 X22.1677 Y14.1236
G01 X22.0753 Y14.2253
G01 X21.9736 Y14.3177
G01 X21.9660 Y14.3239
G01 X21.8554 Y14.4057
G01 X21.7378 Y14.4764
G01 X21.7291 Y14.4810
G01 X21.6071 Y14.5387
G01 X21.6003 Y14.5414
G01 X21.4709 Y14.5876
G01 X21.3377 Y14.6211
G01 X21.3280 Y14.6230
G01 X21.1970 Y14.6424
G01 X21.1872 Y14.6434
G01 X21.0500 Y14.6500
G01 X20.4475 Y14.6500
G01 X20.3079 Y14.6430
G01 X20.1671 Y14.6221
G01 X20.0291 Y14.5876
G01 X19.8951 Y14.5396
G01 X19.7665 Y14.4788
G01 X19.6486 Y14.4083
G01 X19.6404 Y14.4028
G01 X19.5301 Y14.3209
G01 X19.4283 Y14.2287
G01 X19.4213 Y14.2217
G01 X19.3323 Y14.1236
G01 X19.3276 Y14.1180
G01 X19.3145 Y14.1004
G01 X16.1730 Y14.1004
G01 X12.6349 Y17.6384
G01 X12.5712 Y17.6960
G01 X12.5002 Y17.7487
G01 X12.4244 Y17.7941
G01 X12.3446 Y17.8319
G01 X12.2614 Y17.8616
G01 X12.1757 Y17.8831
G01 X12.0883 Y17.8961
G01 X12.0000 Y17.9004
G01 X7.5000 Y17.9004
G01 X7.4117 Y17.8961
G01 X7.3241 Y17.8831
G01 X7.2386 Y17.8616
G01 X7.1554 Y17.8319
G01 X7.0756 Y17.7941
G01 X6.9998 Y17.7487
G01 X6.9288 Y17.6960
G01 X6.8633 Y17.6367
G01 X6.8040 Y17.5712
G01 X6.7513 Y17.5002
G01 X6.7059 Y17.4244
G01 X6.6681 Y17.3446
G01 X6.6384 Y17.2614
G01 X6.6180 Y17.1804
G01 X6.6161 Y17.1708
G01 X6.6039 Y17.0883
G01 X6.5997 Y17.0049
G01 X6.5997 Y16.9951
G01 X6.6036 Y16.9166
G01 X6.6045 Y16.9069
G01 X6.6169 Y16.8241
G01 X6.6329 Y16.7600
G01 X6.5582 Y16.7152
G01 X6.4000 Y16.8734
G01 X6.4000 Y18.0500
G01 X6.3983 Y18.0843
G01 X6.3941 Y18.1134
G01 X6.3922 Y18.1231
G01 X6.3849 Y18.1516
G01 X6.3734 Y18.1839
G01 X6.3609 Y18.2106
G01 X6.3563 Y18.2193
G01 X6.3410 Y18.2444
G01 X6.3206 Y18.2720
G01 X6.3009 Y18.2939
G01 X6.2957 Y18.2992
G01 X6.2758 Y18.3173
G01 X6.2682 Y18.3236
G01 X6.2444 Y18.3410
G01 X6.2149 Y18.3587
G01 X6.1839 Y18.3734
G01 X6.1563 Y18.3834
G01 X6.1492 Y18.3856
G01 X6.1231 Y18.3922
G01 X6.1134 Y18.3941
G01 X6.0843 Y18.3983
G01 X6.0525 Y18.4000
G01 X3.9475 Y18.4000
G01 X3.9157 Y18.3983
G01 X3.8866 Y18.3941
G01 X3.8769 Y18.3922
G01 X3.8484 Y18.3849
G01 X3.8206 Y18.3751
G01 X3.8116 Y18.3714
G01 X3.7850 Y18.3587
G01 X3.7576 Y18.3424
G01 X3.7280 Y18.3206
G01 X3.7025 Y18.2975
G01 X3.6794 Y18.2720
G01 X3.6618 Y18.2485
G01 X3.6564 Y18.2403
G01 X3.6425 Y18.2170
G01 X3.6391 Y18.2106
G01 X3.6266 Y18.1839
G01 X3.6166 Y18.1563
G01 X3.6138 Y18.1469
G01 X3.6067 Y18.1183
G01 X3.6017 Y18.0843
G01 X3.6000 Y18.0500
G01 X3.6000 Y16.8734
G01 X3.4418 Y16.7152
G01 X3.3014 Y16.7993
G01 X3.1506 Y16.8706
G01 X2.9935 Y16.9268
G01 X2.8364 Y16.9663
G01 X2.8268 Y16.9682
G01 X2.6715 Y16.9912
G01 X2.6617 Y16.9922
G01 X2.5000 Y17.0000
G01 X2.3358 Y16.9920
G01 X2.3285 Y16.9912
G01 X2.1683 Y16.9673
G01 X2.0112 Y16.9281
G01 X2.0019 Y16.9253
G01 X1.8494 Y16.8706
G01 X1.7030 Y16.8015
G01 X1.6944 Y16.7968
G01 X1.5576 Y16.7148
G01 X1.5515 Y16.7107
G01 X1.4254 Y16.6171
G01 X1.4178 Y16.6109
G01 X1.2979 Y16.5021
G01 X1.1891 Y16.3822
G01 X1.1829 Y16.3746
G01 X1.0865 Y16.2445
G01 X1.0032 Y16.1056
G01 X0.9985 Y16.0970
G01 X0.9294 Y15.9506
G01 X0.8747 Y15.7981
G01 X0.8719 Y15.7888
G01 X0.8327 Y15.6317
G01 X0.8088 Y15.4715
G01 X0.8078 Y15.4617
G01 X0.8000 Y15.3000
G01 X0.8078 Y15.1383
G00 Z0.6000
G00 X0.8448 Y14.9195
G01 F60.00
G01 Z-0.1905
G01 F120.00
G01 X0.8402 Y14.8856
G00 Z0.6000
G00 X0.9302 Y14.6475
G01 F60.00
G01 Z-0.1905
G01 F120.00
G01 X0.9278 Y14.6258
G00 Z0.6000
G00 X1.0292 Y14.4510
G01 F60.00
G01 Z-0.1905
G01 F120.00
G01 X1.0269 Y14.4305
G01 X1.0747 Y14.3477
G01 X0.9626 Y14.5418
G01 X0.8768 Y14.7490
G01 X0.8188 Y14.9656
G01 X0.7895 Y15.1879
G01 X0.7895 Y15.4121
G01 X0.8188 Y15.6344
G01 X0.8768 Y15.8510
G01 X0.9626 Y16.0582
G01 X1.0747 Y16.2523
G01 X1.2112 Y16.4302
G01 X1.3698 Y16.5888
G01 X1.5477 Y16.7253
G01 X1.7418 Y16.8374
G01 X1.9490 Y16.9232
G01 X2.1656 Y16.9812
G01 X2.3879 Y17.0105
G01 X2.6121 Y17.0105
G01 X2.8344 Y16.9812
G01 X3.0510 Y16.9232
G01 X3.2582 Y16.8374
G01 X3.2931 Y16.8172
G01 X3.3040 Y16.8121
G01 X3.3109 Y16.8097
G01 X3.3179 Y16.8077
G01 X3.3824 Y16.7940
G01 X3.3944 Y16.7925
G01 X3.4065 Y16.7925
G01 X3.4185 Y16.7939
G01 X3.4256 Y16.7954
G01 X3.4325 Y16.7975
G01 X3.4415 Y16.8010
G01 X3.4996 Y16.8269
G01 X3.5102 Y16.8327
G01 X3.5181 Y16.8382
G01 X3.5237 Y16.8429
G01 X3.5289 Y16.8479
G01 X3.5352 Y16.8552
G01 X3.5395 Y16.8611
G01 X3.5739 Y16.9202
G01 X3.5774 Y16.9267
G01 X3.5821 Y16.9381
G01 X3.5853 Y16.9500
G01 X3.5868 Y16.9597
G01 X3.5894 Y16.9855
G01 X3.5895 Y18.1008
G01 X3.5908 Y18.1151
G01 X3.6277 Y18.2204
G01 X3.6922 Y18.3078
G01 X3.7796 Y18.3723
G01 X3.8849 Y18.4092
G01 X3.8992 Y18.4105
G01 X6.1008 Y18.4105
G01 X6.1151 Y18.4092
G01 X6.2204 Y18.3723
G01 X6.3078 Y18.3078
G01 X6.3723 Y18.2204
G01 X6.4092 Y18.1151
G01 X6.4105 Y18.1008
G01 X6.4106 Y17.6595
G01 X6.4115 Y17.6499
G01 X6.4140 Y17.6380
G01 X6.4359 Y17.5707
G01 X6.4387 Y17.5640
G01 X6.4420 Y17.5575
G01 X6.4458 Y17.5513
G01 X6.4499 Y17.5454
G01 X6.4546 Y17.5398
G01 X6.4596 Y17.5346
G01 X6.4649 Y17.5297
G01 X6.4706 Y17.5252
G01 X6.5201 Y17.4893
G01 X6.5303 Y17.4828
G01 X6.5412 Y17.4775
G01 X6.5503 Y17.4743
G01 X6.5621 Y17.4716
G01 X6.5717 Y17.4704
G01 X6.6401 Y17.4702
G01 X6.6473 Y17.4704
G01 X6.6545 Y17.4712
G01 X6.6664 Y17.4737
G01 X6.6778 Y17.4775
G01 X6.6866 Y17.4816
G01 X6.6969 Y17.4879
G01 X6.7503 Y17.5267
G01 X6.7593 Y17.5344
G01 X6.7643 Y17.5396
G01 X6.7703 Y17.5470
G01 X6.7928 Y17.5804
G01 X6.9196 Y17.7072
G01 X7.0687 Y17.8069
G01 X7.2344 Y17.8755
G01 X7.4103 Y17.9105
G01 X12.0897 Y17.9105
G01 X12.2656 Y17.8755
G01 X12.4313 Y17.8069
G01 X12.5804 Y17.7072
G01 X16.1189 Y14.1688
G01 X16.1242 Y14.1638
G01 X16.1298 Y14.1593
G01 X16.1358 Y14.1552
G01 X16.1420 Y14.1515
G01 X16.2009 Y14.1215
G01 X16.2123 Y14.1169
G01 X16.2217 Y14.1143
G01 X16.2338 Y14.1123
G01 X16.2596 Y14.1105
G01 X19.2126 Y14.1105
G01 X19.2199 Y14.1108
G01 X19.2318 Y14.1124
G01 X19.2412 Y14.1147
G01 X19.3040 Y14.1351
G01 X19.3109 Y14.1378
G01 X19.3175 Y14.1410
G01 X19.3239 Y14.1447
G01 X19.3300 Y14.1488
G01 X19.3476 Y14.1635
G01 X19.3533 Y14.1688
G01 X19.4985 Y14.3140
G01 X19.6845 Y14.4491
G01 X19.8894 Y14.5535
G01 X20.1080 Y14.6245
G01 X20.3351 Y14.6605
G01 X21.1649 Y14.6605
G01 X21.3920 Y14.6245
G01 X21.6106 Y14.5535
G01 X21.8155 Y14.4491
G01 X22.0015 Y14.3140
G01 X22.1640 Y14.1515
G01 X22.2991 Y13.9655
G01 X22.4035 Y13.7606
G01 X22.4745 Y13.5420
G01 X22.5105 Y13.3149
G01 X22.5105 Y13.0851
G01 X22.4745 Y12.8580
G01 X22.4035 Y12.6394
G01 X22.2991 Y12.4345
G01 X22.1640 Y12.2485
G01 X22.0015 Y12.0860
G01 X21.8155 Y11.9509
G01 X21.7669 Y11.9261
G01 X21.7607 Y11.9224
G01 X21.7548 Y11.9183
G01 X21.7456 Y11.9106
G01 X21.6988 Y11.8638
G01 X21.6923 Y11.8563
G01 X21.6866 Y11.8481
G01 X21.6806 Y11.8371
G01 X21.6769 Y11.8278
G01 X21.6741 Y11.8183
G01 X21.6627 Y11.7710
G01 X21.6609 Y11.7594
G01 X21.6605 Y11.7500
G01 X21.6605 Y10.4500
G01 X21.6612 Y10.4380
G01 X21.6624 Y10.4308
G01 X21.6640 Y10.4238
G01 X21.6843 Y10.3609
G01 X21.6879 Y10.3516
G01 X21.6923 Y10.3427
G01 X21.6977 Y10.3342
G01 X21.7038 Y10.3264
G01 X21.7107 Y10.3191
G01 X21.7496 Y10.2858
G01 X21.7571 Y10.2800
G01 X21.7671 Y10.2738
G01 X21.8155 Y10.2491
G01 X22.0015 Y10.1140
G01 X22.1640 Y9.9515
G01 X22.2991 Y9.7655
G01 X22.4035 Y9.5606
G01 X22.4745 Y9.3420
G01 X22.5105 Y9.1149
G01 X22.5105 Y8.8851
G01 X22.4745 Y8.6580
G01 X22.4035 Y8.4394
G01 X22.2991 Y8.2345
G01 X22.1640 Y8.0485
G01 X22.0015 Y7.8860
G01 X21.8155 Y7.7509
G01 X21.6106 Y7.6465
G01 X21.3920 Y7.5755
G01 X21.1649 Y7.5395
G01 X20.6596 Y7.5395
G01 X20.6523 Y7.5392
G01 X20.6404 Y7.5376
G01 X20.6310 Y7.5353
G01 X20.5705 Y7.5157
G01 X20.5591 Y7.5112
G01 X20.5483 Y7.5053
G01 X20.5383 Y7.4982
G01 X20.5189 Y7.4812
G01 X19.2849 Y6.2472
G01 X19.2771 Y6.2379
G01 X19.2705 Y6.2278
G01 X19.2373 Y6.1625
G01 X19.2333 Y6.1511
G01 X19.2307 Y6.1393
G01 X19.2295 Y6.1273
G01 X19.2298 Y6.1152
G01 X19.2412 Y6.0429
G01 X19.2443 Y6.0312
G01 X19.2489 Y6.0200
G01 X19.2522 Y6.0136
G01 X19.2561 Y6.0074
G01 X19.2603 Y6.0016
G01 X19.2650 Y5.9960
G01 X19.3116 Y5.9493
G01 X19.3206 Y5.9413
G01 X19.3306 Y5.9344
G01 X19.3413 Y5.9288
G01 X19.3526 Y5.9245
G01 X19.3596 Y5.9226
G01 X19.3667 Y5.9212
G01 X19.4271 Y5.9116
G01 X19.4395 Y5.9105
G01 X19.4470 Y5.9105
G01 X19.4570 Y5.9114
G01 X19.4668 Y5.9133
G01 X19.4740 Y5.9154
G01 X19.5237 Y5.9357
G01 X19.5339 Y5.9406
G01 X19.5442 Y5.9472
G01 X19.6845 Y6.0491
G01 X19.8894 Y6.1535
G01 X20.1080 Y6.2245
G01 X20.3351 Y6.2605
G01 X21.1649 Y6.2605
G01 X21.3920 Y6.2245
G01 X21.6106 Y6.1535
G01 X21.8155 Y6.0491
G01 X22.0015 Y5.9140
G01 X22.1640 Y5.7515
G01 X22.2991 Y5.5655
G01 X22.4035 Y5.3606
G01 X22.4745 Y5.1420
G01 X22.5105 Y4.9149
G01 X22.5105 Y4.6851
G01 X22.4745 Y4.4580
G01 X22.4035 Y4.2394
G01 X22.2991 Y4.0345
G01 X22.1640 Y3.8485
G01 X22.0015 Y3.6860
G01 X21.8155 Y3.5509
G01 X21.6106 Y3.4465
G01 X21.3920 Y3.3755
G01 X21.1649 Y3.3395
G01 X20.3351 Y3.3395
G01 X20.1080 Y3.3755
G01 X19.8894 Y3.4465
G01 X19.6845 Y3.5509
G01 X19.4985 Y3.6860
G01 X19.3360 Y3.8485
G01 X19.2009 Y4.0345
G01 X19.0965 Y4.2394
G01 X19.0255 Y4.4580
G01 X18.9895 Y4.6851
G01 X18.9895 Y4.9149
G01 X19.0255 Y5.1420
G01 X19.0965 Y5.3606
G01 X19.2009 Y5.5655
G01 X19.3028 Y5.7058
G01 X19.3068 Y5.7118
G01 X19.3104 Y5.7181
G01 X19.3136 Y5.7246
G01 X19.3162 Y5.7314
G01 X19.3366 Y5.7941
G01 X19.3394 Y5.8059
G01 X19.3407 Y5.8179
G01 X19.3408 Y5.8252
G01 X19.3403 Y5.8324
G01 X19.3389 Y5.8420
G01 X19.3373 Y5.8490
G01 X19.3145 Y5.9186
G01 X19.3093 Y5.9295
G01 X19.3055 Y5.9357
G01 X19.3014 Y5.9416
G01 X19.2935 Y5.9508
G01 X19.2845 Y5.9589
G01 X19.2272 Y6.0005
G01 X19.2210 Y6.0043
G01 X19.2145 Y6.0076
G01 X19.2079 Y6.0104
G01 X19.2010 Y6.0127
G01 X19.1892 Y6.0155
G01 X19.1821 Y6.0164
G01 X19.1748 Y6.0169
G01 X19.1087 Y6.0169
G01 X19.1012 Y6.0164
G01 X19.0938 Y6.0154
G01 X19.0865 Y6.0138
G01 X19.0769 Y6.0108
G01 X19.0700 Y6.0080
G01 X19.0633 Y6.0047
G01 X19.0176 Y5.9768
G01 X19.0099 Y5.9713
G01 X19.0045 Y5.9667
G01 X18.5688 Y5.5311
G01 X18.5638 Y5.5258
G01 X18.5593 Y5.5202
G01 X18.5552 Y5.5142
G01 X18.5515 Y5.5080
G01 X18.5215 Y5.4491
G01 X18.5177 Y5.4401
G01 X18.5148 Y5.4307
G01 X18.5133 Y5.4235
G01 X18.5123 Y5.4162
G01 X18.5105 Y5.3904
G01 X18.5105 Y3.8572
G01 X18.5115 Y3.8451
G01 X18.5129 Y3.8380
G01 X18.5147 Y3.8310
G01 X18.5351 Y3.7682
G01 X18.5388 Y3.7591
G01 X18.5434 Y3.7504
G01 X18.5474 Y3.7442
G01 X18.5518 Y3.7383
G01 X18.5688 Y3.7189
G01 X19.4206 Y2.8671
G01 X19.4298 Y2.8593
G01 X19.4399 Y2.8527
G01 X19.5009 Y2.8215
G01 X19.5099 Y2.8177
G01 X19.5169 Y2.8155
G01 X19.5265 Y2.8133
G01 X19.5338 Y2.8123
G01 X19.5596 Y2.8105
G01 X28.5404 Y2.8105
G01 X28.5501 Y2.8110
G01 X28.5596 Y2.8124
G01 X28.5690 Y2.8147
G01 X28.6295 Y2.8343
G01 X28.6387 Y2.8378
G01 X28.6496 Y2.8434
G01 X28.6578 Y2.8488
G01 X28.6754 Y2.8635
G01 X28.6811 Y2.8688
G01 X32.7312 Y6.9189
G01 X32.7392 Y6.9279
G01 X32.7435 Y6.9338
G01 X32.7473 Y6.9399
G01 X32.7774 Y6.9987
G01 X32.7823 Y7.0099
G01 X32.7852 Y7.0193
G01 X32.7871 Y7.0289
G01 X32.7892 Y7.0517
G01 X32.7895 Y7.0596
G01 X32.7895 Y12.7897
G01 X32.8245 Y12.9656
G01 X32.8931 Y13.1313
G01 X32.9928 Y13.2804
G01 X37.7563 Y18.0439
G01 X37.7628 Y18.0511
G01 X37.7685 Y18.0588
G01 X37.7735 Y18.0671
G01 X37.8035 Y18.1259
G01 X37.8064 Y18.1325
G01 X37.8095 Y18.1417
G01 X37.8112 Y18.1487
G01 X37.8127 Y18.1582
G01 X37.8133 Y18.1654
G01 X37.8137 Y18.1962
G01 X37.8131 Y18.2082
G01 X37.7895 Y18.3879
G01 X37.7895 Y18.6121
G01 X37.8188 Y18.8344
G01 X37.8768 Y19.0510
G01 X37.9626 Y19.2582
G01 X38.0747 Y19.4523
G01 X38.2112 Y19.6302
G01 X38.3698 Y19.7888
G01 X38.5477 Y19.9253
G01 X38.7418 Y20.0374
G01 X38.9490 Y20.1232
G01 X39.1656 Y20.1812
G01 X39.3879 Y20.2105
G01 X39.6121 Y20.2105
G01 X39.8344 Y20.1812
G01 X40.0510 Y20.1232
G01 X40.2582 Y20.0374
G01 X40.4523 Y19.9253
G01 X40.6302 Y19.7888
G01 X40.7888 Y19.6302
G01 X40.8976 Y19.4884
G01 X40.9023 Y19.4828
G01 X40.9073 Y19.4775
G01 X40.9126 Y19.4727
G01 X40.9184 Y19.4682
G01 X40.9748 Y19.4295
G01 X40.9811 Y19.4260
G01 X40.9898 Y19.4219
G01 X40.9966 Y19.4194
G01 X41.0036 Y19.4175
G01 X41.0107 Y19.4160
G01 X41.0412 Y19.4115
G01 X41.0483 Y19.4108
G01 X41.0555 Y19.4105
G01 X42.9445 Y19.4105
G01 X42.9517 Y19.4108
G01 X42.9613 Y19.4119
G01 X42.9731 Y19.4147
G01 X43.0381 Y19.4359
G01 X43.0470 Y19.4398
G01 X43.0554 Y19.4444
G01 X43.0614 Y19.4485
G01 X43.0689 Y19.4545
G01 X43.0945 Y19.4793
G01 X43.1009 Y19.4865
G01 X43.2112 Y19.6302
G01 X43.3698 Y19.7888
G01 X43.5477 Y19.9253
G01 X43.7418 Y20.0374
G01 X43.9490 Y20.1232
G01 X44.1656 Y20.1812
G01 X44.3879 Y20.2105
G01 X44.6121 Y20.2105
G01 X44.8344 Y20.1812
G01 X45.0510 Y20.1232
G01 X45.2582 Y20.0374
G01 X45.4523 Y19.9253
G01 X45.6302 Y19.7888
G01 X45.7888 Y19.6302
G01 X45.9253 Y19.4523
G01 X46.0374 Y19.2582
G01 X46.1232 Y19.0510
G01 X46.1812 Y18.8344
G01 X46.2105 Y18.6121
G01 X46.2105 Y18.3879
G01 X46.1812 Y18.1656
G01 X46.1232 Y17.9490
G01 X46.0374 Y17.7418
G01 X45.9253 Y17.5477
G01 X45.7888 Y17.3698
G01 X45.6302 Y17.2112
G01 X45.4523 Y17.0747
G01 X45.2582 Y16.9626
G01 X45.0510 Y16.8768
G01 X44.8344 Y16.8188
G01 X44.6121 Y16.7895
G01 X44.3879 Y16.7895
G01 X44.1656 Y16.8188
G01 X43.9490 Y16.8768
G01 X43.7418 Y16.9626
G01 X43.7069 Y16.9828
G01 X43.6960 Y16.9879
G01 X43.6891 Y16.9903
G01 X43.6821 Y16.9923
G01 X43.6152 Y17.0064
G01 X43.6056 Y17.0075
G01 X43.5935 Y17.0075
G01 X43.5815 Y17.0061
G01 X43.5698 Y17.0033
G01 X43.5585 Y16.9990
G01 X43.4961 Y16.9710
G01 X43.4878 Y16.9660
G01 X43.4782 Y16.9587
G01 X43.4695 Y16.9503
G01 X43.4619 Y16.9409
G01 X43.4567 Y16.9328
G01 X43.4249 Y16.8777
G01 X43.4206 Y16.8688
G01 X43.4165 Y16.8572
G01 X43.4147 Y16.8500
G01 X43.4135 Y16.8427
G01 X43.4106 Y16.8145
G01 X43.4105 Y16.7290
G01 X43.3758 Y16.5097
G01 X43.3072 Y16.2986
G01 X43.2064 Y16.1007
G01 X43.0759 Y15.9211
G01 X42.9189 Y15.7641
G01 X42.7393 Y15.6336
G01 X42.5414 Y15.5328
G01 X42.3303 Y15.4642
G01 X42.1110 Y15.4295
G01 X41.8890 Y15.4295
G01 X41.6697 Y15.4642
G01 X41.4586 Y15.5328
G01 X41.2607 Y15.6336
G01 X41.0811 Y15.7641
G01 X40.9241 Y15.9211
G01 X40.7936 Y16.1007
G01 X40.6928 Y16.2986
G01 X40.6242 Y16.5097
G01 X40.5895 Y16.7290
G01 X40.5895 Y16.8092
G01 X40.5892 Y16.8165
G01 X40.5885 Y16.8237
G01 X40.5871 Y16.8308
G01 X40.5853 Y16.8378
G01 X40.5657 Y16.8983
G01 X40.5613 Y16.9096
G01 X40.5555 Y16.9202
G01 X40.5486 Y16.9300
G01 X40.5438 Y16.9355
G01 X40.5387 Y16.9406
G01 X40.5294 Y16.9483
G01 X40.4779 Y16.9857
G01 X40.4676 Y16.9919
G01 X40.4588 Y16.9960
G01 X40.4497 Y16.9992
G01 X40.4427 Y17.0010
G01 X40.4331 Y17.0027
G01 X40.4235 Y17.0034
G01 X40.3550 Y17.0033
G01 X40.3427 Y17.0019
G01 X40.3331 Y16.9997
G01 X40.3215 Y16.9957
G01 X40.2972 Y16.9849
G01 X40.2582 Y16.9626
G01 X40.0510 Y16.8768
G01 X39.8344 Y16.8188
G01 X39.6121 Y16.7895
G01 X39.3879 Y16.7895
G01 X39.2106 Y16.8128
G01 X39.1985 Y16.8137
G01 X39.1913 Y16.8135
G01 X39.1817 Y16.8124
G01 X39.1168 Y16.8004
G01 X39.1098 Y16.7987
G01 X39.1029 Y16.7964
G01 X39.0962 Y16.7937
G01 X39.0897 Y16.7905
G01 X39.0835 Y16.7868
G01 X39.0775 Y16.7827
G01 X39.0529 Y16.7642
G01 X39.0439 Y16.7563
G01 X34.6671 Y12.3794
G01 X34.6593 Y12.3702
G01 X34.6527 Y12.3601
G01 X34.6226 Y12.3013
G01 X34.6195 Y12.2946
G01 X34.6162 Y12.2854
G01 X34.6133 Y12.2735
G01 X34.6120 Y12.2638
G01 X34.6105 Y12.2404
G01 X34.6105 Y6.5103
G01 X34.5755 Y6.3344
G01 X34.5069 Y6.1687
G01 X34.4072 Y6.0196
G01 X29.5804 Y1.1928
G01 X29.4313 Y1.0931
G01 X29.2656 Y1.0245
G01 X29.0897 Y0.9895
G01 X19.0103 Y0.9895
G01 X18.8344 Y1.0245
G01 X18.6687 Y1.0931
G01 X18.5196 Y1.1928
G01 X16.8928 Y2.8196
G01 X16.7931 Y2.9687
G01 X16.7245 Y3.1344
G01 X16.6895 Y3.3103
G01 X16.6895 Y5.9397
G01 X16.7245 Y6.1156
G01 X16.7931 Y6.2813
G01 X16.8928 Y6.4304
G01 X18.9667 Y8.5044
G01 X18.9717 Y8.5097
G01 X18.9762 Y8.5153
G01 X18.9803 Y8.5213
G01 X18.9840 Y8.5276
G01 X19.0129 Y8.5842
G01 X19.0170 Y8.5933
G01 X19.0201 Y8.6027
G01 X19.0223 Y8.6123
G01 X19.0235 Y8.6222
G01 X19.0238 Y8.6296
G01 X19.0238 Y8.6632
G01 X19.0230 Y8.6736
G01 X18.9895 Y8.8851
G01 X18.9895 Y9.1149
G01 X19.0255 Y9.3420
G01 X19.0965 Y9.5606
G01 X19.2009 Y9.7655
G01 X19.3360 Y9.9515
G01 X19.4985 Y10.1140
G01 X19.6845 Y10.2491
G01 X19.7352 Y10.2751
G01 X19.7433 Y10.2803
G01 X19.7509 Y10.2862
G01 X19.7994 Y10.3344
G01 X19.8077 Y10.3437
G01 X19.8134 Y10.3519
G01 X19.8194 Y10.3629
G01 X19.8231 Y10.3722
G01 X19.8259 Y10.3818
G01 X19.8377 Y10.4313
G01 X19.8391 Y10.4406
G01 X19.8395 Y10.4500
G01 X19.8395 Y11.7500
G01 X19.8388 Y11.7620
G01 X19.8376 Y11.7692
G01 X19.8360 Y11.7762
G01 X19.8157 Y11.8391
G01 X19.8111 Y11.8507
G01 X19.8077 Y11.8573
G01 X19.8037 Y11.8637
G01 X19.7993 Y11.8698
G01 X19.7928 Y11.8773
G01 X19.7855 Y11.8842
G01 X19.7449 Y11.9186
G01 X19.7329 Y11.9262
G01 X19.6845 Y11.9509
G01 X19.4985 Y12.0860
G01 X19.3533 Y12.2312
G01 X19.3443 Y12.2392
G01 X19.3384 Y12.2435
G01 X19.3302 Y12.2485
G01 X19.2713 Y12.2785
G01 X19.2645 Y12.2814
G01 X19.2576 Y12.2838
G01 X19.2481 Y12.2863
G01 X19.2408 Y12.2875
G01 X19.2205 Y12.2892
G01 X19.2126 Y12.2895
G01 X15.7103 Y12.2895
G01 X15.5344 Y12.3245
G01 X15.3687 Y12.3931
G01 X15.2196 Y12.4928
G01 X11.6811 Y16.0312
G01 X11.6758 Y16.0362
G01 X11.6702 Y16.0407
G01 X11.6601 Y16.0473
G01 X11.5991 Y16.0785
G01 X11.5924 Y16.0814
G01 X11.5854 Y16.0838
G01 X11.5735 Y16.0867
G01 X11.5638 Y16.0880
G01 X11.5404 Y16.0895
G01 X9.3138 Y16.0894
G01 X9.3018 Y16.0881
G01 X9.2924 Y16.0860
G01 X9.2295 Y16.0657
G01 X9.2227 Y16.0632
G01 X9.2161 Y16.0602
G01 X9.2056 Y16.0542
G01 X9.1997 Y16.0501
G01 X9.1941 Y16.0454
G01 X9.1889 Y16.0404
G01 X9.1840 Y16.0351
G01 X9.1422 Y15.9779
G01 X9.1360 Y15.9676
G01 X9.1310 Y15.9566
G01 X9.1274 Y15.9451
G01 X9.1256 Y15.9357
G01 X9.1245 Y15.9237
G01 X9.1230 Y15.8675
G01 X9.1234 Y15.8555
G01 X9.1248 Y15.8460
G01 X9.1264 Y15.8390
G01 X9.1812 Y15.6344
G01 X9.2105 Y15.4121
G01 X9.2105 Y15.1879
G01 X9.1812 Y14.9656
G01 X9.1232 Y14.7490
G01 X9.0374 Y14.5418
G01 X8.9253 Y14.3477
G01 X8.7888 Y14.1698
G01 X8.6302 Y14.0112
G01 X8.5846 Y13.9761
G01 X8.5775 Y13.9695
G01 X8.5711 Y13.9622
G01 X8.5308 Y13.9040
G01 X8.5260 Y13.8956
G01 X8.5228 Y13.8891
G01 X8.5194 Y13.8801
G01 X8.5164 Y13.8684
G01 X8.5115 Y13.8356
G01 X8.5106 Y13.8260
G01 X8.5105 Y12.8594
G01 X8.5112 Y12.8473
G01 X8.5129 Y12.8378
G01 X8.5154 Y12.8284
G01 X8.5359 Y12.7656
G01 X8.5388 Y12.7589
G01 X8.5422 Y12.7523
G01 X8.5488 Y12.7420
G01 X8.5534 Y12.7362
G01 X8.5700 Y12.7176
G01 X8.7072 Y12.5804
G01 X8.8069 Y12.4313
G01 X8.8755 Y12.2656
G01 X8.9105 Y12.0897
G01 X8.9105 Y11.9103
G01 X8.8755 Y11.7344
G01 X8.8069 Y11.5687
G01 X8.7072 Y11.4196
G01 X8.5804 Y11.2928
G01 X8.4313 Y11.1931
G01 X8.2656 Y11.1245
G01 X8.0897 Y11.0895
G01 X7.9103 Y11.0895
G01 X7.7344 Y11.1245
G01 X7.5687 Y11.1931
G01 X7.4196 Y11.2928
G01 X7.2928 Y11.4196
G01 X7.1931 Y11.5687
G01 X7.1245 Y11.7344
G01 X7.0895 Y11.9103
G01 X7.0895 Y12.0897
G01 X7.1245 Y12.2656
G01 X7.1931 Y12.4313
G01 X7.2928 Y12.5804
G01 X7.4300 Y12.7176
G01 X7.4350 Y12.7230
G01 X7.4396 Y12.7288
G01 X7.4438 Y12.7348
G01 X7.4475 Y12.7412
G01 X7.4526 Y12.7525
G01 X7.4706 Y12.7805
G01 X7.4754 Y12.7890
G01 X7.4785 Y12.7957
G01 X7.4811 Y12.8026
G01 X7.4832 Y12.8097
G01 X7.4848 Y12.8168
G01 X7.4890 Y12.8492
G01 X7.4895 Y12.8594
G01 X7.4894 Y13.4064
G01 X7.4881 Y13.4184
G01 X7.4860 Y13.4279
G01 X7.4657 Y13.4907
G01 X7.4632 Y13.4975
G01 X7.4602 Y13.5041
G01 X7.4568 Y13.5105
G01 X7.4529 Y13.5166
G01 X7.4470 Y13.5243
G01 X7.4422 Y13.5296
G01 X7.4369 Y13.5346
G01 X7.4294 Y13.5407
G01 X7.3759 Y13.5794
G01 X7.3698 Y13.5831
G01 X7.3634 Y13.5863
G01 X7.3524 Y13.5907
G01 X7.3432 Y13.5933
G01 X7.3188 Y13.5986
G01 X7.1656 Y13.6188
G01 X6.9490 Y13.6768
G01 X6.7418 Y13.7626
G01 X6.5477 Y13.8747
G01 X6.3698 Y14.0112
G01 X6.2112 Y14.1698
G01 X6.1024 Y14.3116
G01 X6.0944 Y14.3208
G01 X6.0873 Y14.3273
G01 X6.0797 Y14.3332
G01 X6.0272 Y14.3692
G01 X6.0210 Y14.3729
G01 X6.0124 Y14.3772
G01 X6.0011 Y14.3813
G01 X5.9893 Y14.3840
G01 X5.9564 Y14.3888
G01 X5.9445 Y14.3895
G01 X4.0555 Y14.3895
G01 X4.0459 Y14.3890
G01 X4.0339 Y14.3871
G01 X4.0246 Y14.3846
G01 X3.9596 Y14.3632
G01 X3.9509 Y14.3592
G01 X3.9446 Y14.3556
G01 X3.9367 Y14.3501
G01 X3.9293 Y14.3439
G01 X3.9055 Y14.3207
G01 X3.8991 Y14.3135
G01 X3.7888 Y14.1698
G01 X3.6302 Y14.0112
G01 X3.4523 Y13.8747
G01 X3.2582 Y13.7626
G01 X3.0510 Y13.6768
G01 X2.8344 Y13.6188
G01 X2.6121 Y13.5895
G01 X2.3879 Y13.5895
G01 X2.1656 Y13.6188
G01 X1.9490 Y13.6768
G01 X1.7418 Y13.7626
G01 X1.5477 Y13.8747
G01 X1.3698 Y14.0112
G01 X1.2112 Y14.1698
G01 X1.0747 Y14.3477
G01 X1.1324 Y14.2934
G01 X1.1304 Y14.2751
G01 X1.2387 Y14.1631
G01 X1.2366 Y14.1444
G01 X1.3472 Y14.0531
G01 X1.3453 Y14.0357
G01 X1.4575 Y13.9590
G01 X1.4560 Y13.9451
G01 X1.5693 Y13.8781
G01 X1.5676 Y13.8632
G01 X1.6830 Y13.8099
G01 X1.6819 Y13.7972
G01 X1.7986 Y13.7533
G01 X1.7974 Y13.7396
G01 X1.9149 Y13.7058
G01 X1.9137 Y13.6914
G01 X2.0320 Y13.6667
G01 X2.0310 Y13.6548
G01 X2.1499 Y13.6372
G01 X2.1487 Y13.6233
G01 X2.2686 Y13.6177
G01 X2.2676 Y13.6053
G01 X2.3867 Y13.5897
G01 X2.3880 Y13.6054
G00 Z0.6000
G00 X2.5080 Y13.6003
G01 F60.00
G01 Z-0.1905
G01 F120.00
G01 X2.5071 Y13.5895
G01 X2.6277 Y13.5916
G01 X2.6290 Y13.6062
G01 X2.7495 Y13.6076
G01 X2.7506 Y13.6205
G01 X2.8718 Y13.6288
G01 X2.8730 Y13.6429
G01 X2.9951 Y13.6618
G01 X2.9961 Y13.6740
G00 Z0.6000
G00 X3.1195 Y13.7052
G01 F60.00
G01 Z-0.1905
G01 F120.00
G01 X3.1210 Y13.7187
G01 X3.2461 Y13.7576
G01 X3.2480 Y13.7754
G01 X3.3748 Y13.8300
G01 X3.3766 Y13.8457
G01 X3.5050 Y13.9151
G01 X3.5069 Y13.9327
G01 X3.6371 Y14.0181
G01 X3.6397 Y14.0412
G01 X3.7729 Y14.1539
G01 X3.7757 Y14.1790
G00 Z0.6000
G00 X3.9130 Y14.3280
G01 F60.00
G01 Z-0.1905
G01 F120.00
G01 X3.9175 Y14.3619
G00 Z0.6000
G00 X4.0422 Y14.3886
G01 F60.00
G01 Z-0.1905
G01 F120.00
G01 X4.0437 Y14.3996
G01 X4.1634 Y14.3895
G01 X4.1648 Y14.3996
G01 X4.2845 Y14.3895
G01 X4.2859 Y14.3996
G01 X4.4056 Y14.3895
G01 X4.4070 Y14.3996
G01 X4.5267 Y14.3895
G01 X4.5281 Y14.3996
G01 X4.6478 Y14.3895
G01 X4.6491 Y14.3996
G01 X4.7689 Y14.3895
G01 X4.7702 Y14.3996
G01 X4.8900 Y14.3895
G01 X4.8913 Y14.3996
G01 X5.0110 Y14.3895
G01 X5.0124 Y14.3996
G01 X5.1321 Y14.3895
G01 X5.1335 Y14.3996
G01 X5.2532 Y14.3895
G01 X5.2546 Y14.3996
G01 X5.3743 Y14.3895
G01 X5.3757 Y14.3996
G01 X5.4954 Y14.3895
G01 X5.4968 Y14.3996
G01 X5.6165 Y14.3895
G01 X5.6179 Y14.3996
G01 X5.7376 Y14.3895
G01 X5.7390 Y14.3996
G01 X5.8587 Y14.3895
G01 X5.8601 Y14.3996
G00 Z0.6000
G00 X5.9792 Y14.3855
G01 F60.00
G01 Z-0.1905
G01 F120.00
G01 X5.9812 Y14.3996
G01 X6.0947 Y14.3442
G01 X6.0919 Y14.3233
G00 Z0.6000
G00 X6.1974 Y14.2086
G01 F60.00
G01 Z-0.1905
G01 F120.00
G01 X6.1950 Y14.1909
G01 X6.3028 Y14.0933
G01 X6.3010 Y14.0800
G01 X6.4113 Y13.9950
G01 X6.4097 Y13.9806
G01 X6.5227 Y13.9107
G01 X6.5209 Y13.8952
G01 X6.6354 Y13.8385
G01 X6.6339 Y13.8249
G01 X6.7493 Y13.7767
G01 X6.7474 Y13.7603
G01 X6.8641 Y13.7240
G01 X6.8629 Y13.7125
G01 X6.9803 Y13.6825
G01 X6.9788 Y13.6688
G01 X7.0974 Y13.6503
G01 X7.0960 Y13.6374
G01 X7.2154 Y13.6256
G01 X7.2139 Y13.6124
G00 Z0.6000
G00 X7.3328 Y13.5956
G01 F60.00
G01 Z-0.1905
G01 F120.00
G01 X7.3342 Y13.6081
G00 Z0.6000
G00 X7.4543 Y13.6021
G01 F60.00
G01 Z-0.1905
G01 F120.00
G01 X7.4458 Y13.5257
G00 Z0.6000
G00 X7.4998 Y12.8282
G01 F60.00
G01 Z-0.1905
G01 F120.00
G01 X7.4925 Y12.7429
G01 X7.3642 Y12.6518
G01 X7.3630 Y12.6358
G00 Z0.6000
G00 X7.2340 Y12.4925
G01 F60.00
G01 Z-0.1905
G01 F120.00
G01 X7.2325 Y12.4683
G00 Z0.6000
G00 X7.0747 Y18.7560
G01 F60.00
G01 Z-0.1905
G01 F120.00
G01 X7.0754 Y18.7434
G01 X7.1967 Y18.7283
G01 X7.1979 Y18.7150
G01 X7.3191 Y18.7102
G01 X7.3206 Y18.6989
G01 X7.4412 Y18.7028
G01 X7.4433 Y18.6900
G01 X7.5629 Y18.7030
G01 X7.5655 Y18.6900
G01 X7.6838 Y18.7106
G01 X7.6864 Y18.6998
G01 X7.8030 Y18.7283
G01 X7.8065 Y18.7156
G01 X7.9201 Y18.7547
G01 X7.9237 Y18.7432
G01 X8.0354 Y18.7881
G01 X8.0376 Y18.7809
G01 X8.0405 Y18.7745
G01 X8.1513 Y18.8189
G01 X8.1478 Y18.8283
G00 Z0.6000
G00 X8.2564 Y18.8793
G01 F60.00
G01 Z-0.1905
G01 F120.00
G01 X8.2622 Y18.8655
G01 X8.3670 Y18.9260
G01 X8.3618 Y18.9368
G00 Z0.6000
G00 X8.9612 Y19.5349
G01 F60.00
G01 Z-0.1905
G01 F120.00
G01 X8.9732 Y19.5317
G00 Z0.6000
G00 X9.0206 Y19.6434
G01 F60.00
G01 Z-0.1905
G01 F120.00
G01 X9.0357 Y19.6398
G01 X9.0726 Y19.7547
G01 X9.0828 Y19.7527
G01 X9.1135 Y19.8690
G01 X9.1275 Y19.8668
G01 X9.1467 Y19.9853
G01 X9.1588 Y19.9838
G01 X9.1726 Y20.1030
G01 X9.1855 Y20.1019
G01 X9.1902 Y20.2218
G01 X9.2012 Y20.2213
G01 X9.2100 Y20.3414
G01 X9.2035 Y20.3412
G01 X9.1973 Y20.3417
G00 Z0.6000
G00 X9.1971 Y20.4607
G01 F60.00
G01 Z-0.1905
G01 F120.00
G01 X9.2035 Y20.4612
G01 X9.2100 Y20.4610
G01 X9.2009 Y20.5812
G01 X9.1899 Y20.5806
G01 X9.1852 Y20.7006
G01 X9.1722 Y20.6994
G01 X9.1582 Y20.8186
G01 X9.1461 Y20.8170
G01 X9.1268 Y20.9355
G01 X9.1127 Y20.9333
G01 X9.0818 Y21.0496
G01 X9.0718 Y21.0476
G00 Z0.6000
G00 X9.0344 Y21.1623
G01 F60.00
G01 Z-0.1905
G01 F120.00
G01 X9.0341 Y21.1623
G01 X9.0195 Y21.1588
G01 X8.9720 Y21.2705
G01 X8.9650 Y21.2686
G01 X8.9600 Y21.2672
G01 X8.9589 Y21.2932
G01 X9.0369 Y21.1579
G01 X9.1227 Y20.9508
G01 X9.1807 Y20.7343
G01 X9.2100 Y20.5121
G01 X9.2100 Y20.2879
G01 X9.1807 Y20.0657
G01 X9.1227 Y19.8492
G01 X9.0369 Y19.6421
G01 X8.9589 Y19.5068
G01 X8.9498 Y19.5159
G01 X8.9968 Y19.5944
G01 X9.0004 Y19.6008
G01 X9.0696 Y19.7472
G01 X9.0724 Y19.7540
G01 X9.1253 Y19.9019
G01 X9.1275 Y19.9089
G01 X9.1673 Y20.0683
G01 X9.1912 Y20.2285
G01 X9.1922 Y20.2383
G01 X9.2000 Y20.4000
G01 X9.1922 Y20.5617
G01 X9.1912 Y20.5715
G01 X9.1673 Y20.7317
G01 X9.1275 Y20.8911
G01 X9.1253 Y20.8981
G01 X9.0724 Y21.0460
G01 X9.0696 Y21.0528
G01 X9.0004 Y21.1992
G01 X8.9968 Y21.2056
G01 X8.9498 Y21.2841
G01 X8.9589 Y21.2932
G00 Z0.6000
G00 X8.3279 Y21.8835
G01 F60.00
G01 Z-0.1905
G01 F120.00
G01 X8.3303 Y21.8951
G01 X8.2166 Y21.9395
G01 X8.2192 Y21.9530
G01 X8.1035 Y21.9875
G01 X8.1056 Y22.0001
G01 X7.9885 Y22.0282
G01 X7.9903 Y22.0390
G01 X7.8736 Y22.0702
G01 X7.8717 Y22.0574
G00 Z0.6000
G00 X7.7537 Y22.0790
G01 F60.00
G01 Z-0.1905
G01 F120.00
G01 X7.7554 Y22.0911
G01 X7.6364 Y22.1068
G01 X7.6345 Y22.0935
G01 X7.5156 Y22.1100
G01 X7.5139 Y22.0994
G01 X7.3940 Y22.1100
G01 X7.3912 Y22.0948
G01 X7.2687 Y22.0943
G01 X7.2659 Y22.0819
G01 X7.1400 Y22.0739
G01 X7.1358 Y22.0593
G01 X7.0005 Y22.0365
G01 X6.9947 Y22.0227
G00 Z0.6000
G00 X6.8301 Y21.9734
G01 F60.00
G01 Z-0.1905
G01 F120.00
G01 X6.8166 Y21.9552
G00 Z0.6000
G00 X6.5538 Y21.8988
G01 F60.00
G01 Z-0.1905
G01 F120.00
G01 X6.5403 Y21.8933
G01 X6.5209 Y21.8864
G01 X6.5012 Y21.8804
G01 X6.4785 Y21.8748
G00 Z0.6000
G00 X6.4384 Y21.9893
G01 F60.00
G01 Z-0.1905
G01 F120.00
G01 X6.4186 Y21.9866
G01 X6.3955 Y21.9853
G00 Z0.6000
G00 X6.3989 Y22.1055
G01 F60.00
G01 Z-0.1905
G01 F120.00
G01 X6.4100 Y22.1064
G01 X6.3922 Y22.2253
G01 X6.3980 Y22.2258
G01 X6.4043 Y22.2271
G01 X6.3856 Y22.3451
G01 X6.3804 Y22.3445
