(G-CODE GENERATED BY FLATCAM v8.994 - www.flatcam.org - Version Date: 2020/11/7)

(Name: SFX-BO-01.drl_mill_cnc)
(Type: G-code from Geometry)
(Units: MM)

(Created on Monday, 02 March 2026 at 14:19)

(This preprocessor is the default preprocessor used by FlatCAM.)
(It is made to work with MACH3 compatible motion controllers.)

(TOOL DIAMETER: 0.8 mm)
(Feedrate_XY: 120.0 mm/min)
(Feedrate_Z: 60.0 mm/min)
(Feedrate rapids 1500.0 mm/min)

(Z_Cut: -2.4 mm)
(Z_Move: 0.6 mm)
(Z Start: None mm)
(Z End: 15.0 mm)
(X,Y End: None mm)
(Steps per circle: 64)
(Preprocessor Geometry: default)

(X range:    1.8000 ...   45.2000  mm)
(Y range:    1.8000 ...   70.2000  mm)

(Spindle Speed: 7500.0 RPM)
G21
G90
G94

G01 F120.00

M5
G00 Z15.0000
G00 X0.0000 Y0.0000
T1
M6    
(MSG, Change to Tool Dia = 0.8000)
M0
G00 Z15.0000

M03 S7500.0
G01 F120.00
G00 X4.2000 Y3.0000
G01 F60.00
G01 Z-2.4000
G01 F120.00
G01 X4.1942 Y2.8824
G01 X4.1769 Y2.7659
G01 X4.1483 Y2.6517
G01 X4.1087 Y2.5408
G01 X4.0583 Y2.4343
G01 X3.9978 Y2.3333
G01 X3.9276 Y2.2387
G01 X3.8485 Y2.1515
G01 X3.7613 Y2.0724
G01 X3.6667 Y2.0022
G01 X3.5657 Y1.9417
G01 X3.4592 Y1.8913
G01 X3.3483 Y1.8517
G01 X3.2341 Y1.8231
G01 X3.1176 Y1.8058
G01 X3.0000 Y1.8000
G01 X2.8824 Y1.8058
G01 X2.7659 Y1.8231
G01 X2.6517 Y1.8517
G01 X2.5408 Y1.8913
G01 X2.4343 Y1.9417
G01 X2.3333 Y2.0022
G01 X2.2387 Y2.0724
G01 X2.1515 Y2.1515
G01 X2.0724 Y2.2387
G01 X2.0022 Y2.3333
G01 X1.9417 Y2.4343
G01 X1.8913 Y2.5408
G01 X1.8517 Y2.6517
G01 X1.8231 Y2.7659
G01 X1.8058 Y2.8824
G01 X1.8000 Y3.0000
G01 X1.8058 Y3.1176
G01 X1.8231 Y3.2341
G01 X1.8517 Y3.3483
G01 X1.8913 Y3.4592
G01 X1.9417 Y3.5657
G01 X2.0022 Y3.6667
G01 X2.0724 Y3.7613
G01 X2.1515 Y3.8485
G01 X2.2387 Y3.9276
G01 X2.3333 Y3.9978
G01 X2.4343 Y4.0583
G01 X2.5408 Y4.1087
G01 X2.6517 Y4.1483
G01 X2.7659 Y4.1769
G01 X2.8824 Y4.1942
G01 X3.0000 Y4.2000
G01 X3.1176 Y4.1942
G01 X3.2341 Y4.1769
G01 X3.3483 Y4.1483
G01 X3.4592 Y4.1087
G01 X3.5657 Y4.0583
G01 X3.6667 Y3.9978
G01 X3.7613 Y3.9276
G01 X3.8485 Y3.8485
G01 X3.9276 Y3.7613
G01 X3.9978 Y3.6667
G01 X4.0583 Y3.5657
G01 X4.1087 Y3.4592
G01 X4.1483 Y3.3483
G01 X4.1769 Y3.2341
G01 X4.1942 Y3.1176
G01 X4.2000 Y3.0000
G00 Z0.6000
G00 X8.0000 Y9.4600
G01 F60.00
G01 Z-2.4000
G01 F120.00
G01 X8.0000 Y9.4600
G01 X8.0000 Y9.4600
G01 X8.0000 Y9.4600
G01 X8.0000 Y9.4600
G00 Z0.6000
G00 X8.0000 Y12.0000
G01 F60.00
G01 Z-2.4000
G01 F120.00
G01 X8.0000 Y12.0000
G01 X8.0000 Y12.0000
G01 X8.0000 Y12.0000
G01 X8.0000 Y12.0000
G00 Z0.6000
G00 X5.1000 Y10.5000
G01 F60.00
G01 Z-2.4000
G01 F120.00
G01 X5.0995 Y10.4902
G01 X5.0981 Y10.4805
G01 X5.0957 Y10.4710
G01 X5.0924 Y10.4617
G01 X5.0882 Y10.4529
G01 X5.0831 Y10.4444
G01 X5.0773 Y10.4366
G01 X5.0707 Y10.4293
G01 X5.0634 Y10.4227
G01 X5.0556 Y10.4169
G01 X5.0471 Y10.4118
G01 X5.0383 Y10.4076
G01 X5.0290 Y10.4043
G01 X5.0195 Y10.4019
G01 X5.0098 Y10.4005
G01 X5.0000 Y10.4000
G01 X4.9902 Y10.4005
G01 X4.9805 Y10.4019
G01 X4.9710 Y10.4043
G01 X4.9617 Y10.4076
G01 X4.9529 Y10.4118
G01 X4.9444 Y10.4169
G01 X4.9366 Y10.4227
G01 X4.9293 Y10.4293
G01 X4.9227 Y10.4366
G01 X4.9169 Y10.4444
G01 X4.9118 Y10.4529
G01 X4.9076 Y10.4617
G01 X4.9043 Y10.4710
G01 X4.9019 Y10.4805
G01 X4.9005 Y10.4902
G01 X4.9000 Y10.5000
G01 X4.9005 Y10.5098
G01 X4.9019 Y10.5195
G01 X4.9043 Y10.5290
G01 X4.9076 Y10.5383
G01 X4.9118 Y10.5471
G01 X4.9169 Y10.5556
G01 X4.9227 Y10.5634
G01 X4.9293 Y10.5707
G01 X4.9366 Y10.5773
G01 X4.9444 Y10.5831
G01 X4.9529 Y10.5882
G01 X4.9617 Y10.5924
G01 X4.9710 Y10.5957
G01 X4.9805 Y10.5981
G01 X4.9902 Y10.5995
G01 X5.0000 Y10.6000
G01 X5.0098 Y10.5995
G01 X5.0195 Y10.5981
G01 X5.0290 Y10.5957
G01 X5.0383 Y10.5924
G01 X5.0471 Y10.5882
G01 X5.0556 Y10.5831
G01 X5.0634 Y10.5773
G01 X5.0707 Y10.5707
G01 X5.0773 Y10.5634
G01 X5.0831 Y10.5556
G01 X5.0882 Y10.5471
G01 X5.0924 Y10.5383
G01 X5.0957 Y10.5290
G01 X5.0981 Y10.5195
G01 X5.0995 Y10.5098
G01 X5.1000 Y10.5000
G00 Z0.6000
G00 X2.5600 Y10.5000
G01 F60.00
G01 Z-2.4000
G01 F120.00
G01 X2.5595 Y10.4902
G01 X2.5581 Y10.4805
G01 X2.5557 Y10.4710
G01 X2.5524 Y10.4617
G01 X2.5482 Y10.4529
G01 X2.5431 Y10.4444
G01 X2.5373 Y10.4366
G01 X2.5307 Y10.4293
G01 X2.5234 Y10.4227
G01 X2.5156 Y10.4169
G01 X2.5071 Y10.4118
G01 X2.4983 Y10.4076
G01 X2.4890 Y10.4043
G01 X2.4795 Y10.4019
G01 X2.4698 Y10.4005
G01 X2.4600 Y10.4000
G01 X2.4502 Y10.4005
G01 X2.4405 Y10.4019
G01 X2.4310 Y10.4043
G01 X2.4217 Y10.4076
G01 X2.4129 Y10.4118
G01 X2.4044 Y10.4169
G01 X2.3966 Y10.4227
G01 X2.3893 Y10.4293
G01 X2.3827 Y10.4366
G01 X2.3769 Y10.4444
G01 X2.3718 Y10.4529
G01 X2.3676 Y10.4617
G01 X2.3643 Y10.4710
G01 X2.3619 Y10.4805
G01 X2.3605 Y10.4902
G01 X2.3600 Y10.5000
G01 X2.3605 Y10.5098
G01 X2.3619 Y10.5195
G01 X2.3643 Y10.5290
G01 X2.3676 Y10.5383
G01 X2.3718 Y10.5471
G01 X2.3769 Y10.5556
G01 X2.3827 Y10.5634
G01 X2.3893 Y10.5707
G01 X2.3966 Y10.5773
G01 X2.4044 Y10.5831
G01 X2.4129 Y10.5882
G01 X2.4217 Y10.5924
G01 X2.4310 Y10.5957
G01 X2.4405 Y10.5981
G01 X2.4502 Y10.5995
G01 X2.4600 Y10.6000
G01 X2.4698 Y10.5995
G01 X2.4795 Y10.5981
G01 X2.4890 Y10.5957
G01 X2.4983 Y10.5924
G01 X2.5071 Y10.5882
G01 X2.5156 Y10.5831
G01 X2.5234 Y10.5773
G01 X2.5307 Y10.5707
G01 X2.5373 Y10.5634
G01 X2.5431 Y10.5556
G01 X2.5482 Y10.5471
G01 X2.5524 Y10.5383
G01 X2.5557 Y10.5290
G01 X2.5581 Y10.5195
G01 X2.5595 Y10.5098
G01 X2.5600 Y10.5000
G00 Z0.6000
G00 X2.8000 Y15.3000
G01 F60.00
G01 Z-2.4000
G01 F120.00
G01 X2.7986 Y15.2706
G01 X2.7942 Y15.2415
G01 X2.7871 Y15.2129
G01 X2.7772 Y15.1852
G01 X2.7646 Y15.1586
G01 X2.7494 Y15.1333
G01 X2.7319 Y15.1097
G01 X2.7121 Y15.0879
G01 X2.6903 Y15.0681
G01 X2.6667 Y15.0506
G01 X2.6414 Y15.0354
G01 X2.6148 Y15.0228
G01 X2.5871 Y15.0129
G01 X2.5585 Y15.0058
G01 X2.5294 Y15.0014
G01 X2.5000 Y15.0000
G01 X2.4706 Y15.0014
G01 X2.4415 Y15.0058
G01 X2.4129 Y15.0129
G01 X2.3852 Y15.0228
G01 X2.3586 Y15.0354
G01 X2.3333 Y15.0506
G01 X2.3097 Y15.0681
G01 X2.2879 Y15.0879
G01 X2.2681 Y15.1097
G01 X2.2506 Y15.1333
G01 X2.2354 Y15.1586
G01 X2.2228 Y15.1852
G01 X2.2129 Y15.2129
G01 X2.2058 Y15.2415
G01 X2.2014 Y15.2706
G01 X2.2000 Y15.3000
G01 X2.2014 Y15.3294
G01 X2.2058 Y15.3585
G01 X2.2129 Y15.3871
G01 X2.2228 Y15.4148
G01 X2.2354 Y15.4414
G01 X2.2506 Y15.4667
G01 X2.2681 Y15.4903
G01 X2.2879 Y15.5121
G01 X2.3097 Y15.5319
G01 X2.3333 Y15.5494
G01 X2.3586 Y15.5646
G01 X2.3852 Y15.5772
G01 X2.4129 Y15.5871
G01 X2.4415 Y15.5942
G01 X2.4706 Y15.5986
G01 X2.5000 Y15.6000
G01 X2.5294 Y15.5986
G01 X2.5585 Y15.5942
G01 X2.5871 Y15.5871
G01 X2.6148 Y15.5772
G01 X2.6414 Y15.5646
G01 X2.6667 Y15.5494
G01 X2.6903 Y15.5319
G01 X2.7121 Y15.5121
G01 X2.7319 Y15.4903
G01 X2.7494 Y15.4667
G01 X2.7646 Y15.4414
G01 X2.7772 Y15.4148
G01 X2.7871 Y15.3871
G01 X2.7942 Y15.3585
G01 X2.7986 Y15.3294
G01 X2.8000 Y15.3000
G00 Z0.6000
G00 X5.2500 Y17.0000
G01 F60.00
G01 Z-2.4000
G01 F120.00
G01 X5.2488 Y16.9755
G01 X5.2452 Y16.9512
G01 X5.2392 Y16.9274
G01 X5.2310 Y16.9043
G01 X5.2205 Y16.8822
G01 X5.2079 Y16.8611
G01 X5.1933 Y16.8414
G01 X5.1768 Y16.8232
G01 X5.1586 Y16.8067
G01 X5.1389 Y16.7921
G01 X5.1178 Y16.7795
G01 X5.0957 Y16.7690
G01 X5.0726 Y16.7608
G01 X5.0488 Y16.7548
G01 X5.0245 Y16.7512
G01 X5.0000 Y16.7500
G01 X4.9755 Y16.7512
G01 X4.9512 Y16.7548
G01 X4.9274 Y16.7608
G01 X4.9043 Y16.7690
G01 X4.8822 Y16.7795
G01 X4.8611 Y16.7921
G01 X4.8414 Y16.8067
G01 X4.8232 Y16.8232
G01 X4.8067 Y16.8414
G01 X4.7921 Y16.8611
G01 X4.7795 Y16.8822
G01 X4.7690 Y16.9043
G01 X4.7608 Y16.9274
G01 X4.7548 Y16.9512
G01 X4.7512 Y16.9755
G01 X4.7500 Y17.0000
G01 X4.7512 Y17.0245
G01 X4.7548 Y17.0488
G01 X4.7608 Y17.0726
G01 X4.7690 Y17.0957
G01 X4.7795 Y17.1178
G01 X4.7921 Y17.1389
G01 X4.8067 Y17.1586
G01 X4.8232 Y17.1768
G01 X4.8414 Y17.1933
G01 X4.8611 Y17.2079
G01 X4.8822 Y17.2205
G01 X4.9043 Y17.2310
G01 X4.9274 Y17.2392
G01 X4.9512 Y17.2452
G01 X4.9755 Y17.2488
G01 X5.0000 Y17.2500
G01 X5.0245 Y17.2488
G01 X5.0488 Y17.2452
G01 X5.0726 Y17.2392
G01 X5.0957 Y17.2310
G01 X5.1178 Y17.2205
G01 X5.1389 Y17.2079
G01 X5.1586 Y17.1933
G01 X5.1768 Y17.1768
G01 X5.1933 Y17.1586
G01 X5.2079 Y17.1389
G01 X5.2205 Y17.1178
G01 X5.2310 Y17.0957
G01 X5.2392 Y17.0726
G01 X5.2452 Y17.0488
G01 X5.2488 Y17.0245
G01 X5.2500 Y17.0000
G00 Z0.6000
G00 X7.8000 Y15.3000
G01 F60.00
G01 Z-2.4000
G01 F120.00
G01 X7.7986 Y15.2706
G01 X7.7942 Y15.2415
G01 X7.7871 Y15.2129
G01 X7.7772 Y15.1852
G01 X7.7646 Y15.1586
G01 X7.7494 Y15.1333
G01 X7.7319 Y15.1097
G01 X7.7121 Y15.0879
G01 X7.6903 Y15.0681
G01 X7.6667 Y15.0506
G01 X7.6414 Y15.0354
G01 X7.6148 Y15.0228
G01 X7.5871 Y15.0129
G01 X7.5585 Y15.0058
G01 X7.5294 Y15.0014
G01 X7.5000 Y15.0000
G01 X7.4706 Y15.0014
G01 X7.4415 Y15.0058
G01 X7.4129 Y15.0129
G01 X7.3852 Y15.0228
G01 X7.3586 Y15.0354
G01 X7.3333 Y15.0506
G01 X7.3097 Y15.0681
G01 X7.2879 Y15.0879
G01 X7.2681 Y15.1097
G01 X7.2506 Y15.1333
G01 X7.2354 Y15.1586
G01 X7.2228 Y15.1852
G01 X7.2129 Y15.2129
G01 X7.2058 Y15.2415
G01 X7.2014 Y15.2706
G01 X7.2000 Y15.3000
G01 X7.2014 Y15.3294
G01 X7.2058 Y15.3585
G01 X7.2129 Y15.3871
G01 X7.2228 Y15.4148
G01 X7.2354 Y15.4414
G01 X7.2506 Y15.4667
G01 X7.2681 Y15.4903
G01 X7.2879 Y15.5121
G01 X7.3097 Y15.5319
G01 X7.3333 Y15.5494
G01 X7.3586 Y15.5646
G01 X7.3852 Y15.5772
G01 X7.4129 Y15.5871
G01 X7.4415 Y15.5942
G01 X7.4706 Y15.5986
G01 X7.5000 Y15.6000
G01 X7.5294 Y15.5986
G01 X7.5585 Y15.5942
G01 X7.5871 Y15.5871
G01 X7.6148 Y15.5772
G01 X7.6414 Y15.5646
G01 X7.6667 Y15.5494
G01 X7.6903 Y15.5319
G01 X7.7121 Y15.5121
G01 X7.7319 Y15.4903
G01 X7.7494 Y15.4667
G01 X7.7646 Y15.4414
G01 X7.7772 Y15.4148
G01 X7.7871 Y15.3871
G01 X7.7942 Y15.3585
G01 X7.7986 Y15.3294
G01 X7.8000 Y15.3000
G00 Z0.6000
G00 X7.8000 Y20.4000
G01 F60.00
G01 Z-2.4000
G01 F120.00
G01 X7.7986 Y20.3706
G01 X7.7942 Y20.3415
G01 X7.7871 Y20.3129
G01 X7.7772 Y20.2852
G01 X7.7646 Y20.2586
G01 X7.7494 Y20.2333
G01 X7.7319 Y20.2097
G01 X7.7121 Y20.1879
G01 X7.6903 Y20.1681
G01 X7.6667 Y20.1506
G01 X7.6414 Y20.1354
G01 X7.6148 Y20.1228
G01 X7.5871 Y20.1129
G01 X7.5585 Y20.1058
G01 X7.5294 Y20.1014
G01 X7.5000 Y20.1000
G01 X7.4706 Y20.1014
G01 X7.4415 Y20.1058
G01 X7.4129 Y20.1129
G01 X7.3852 Y20.1228
G01 X7.3586 Y20.1354
G01 X7.3333 Y20.1506
G01 X7.3097 Y20.1681
G01 X7.2879 Y20.1879
G01 X7.2681 Y20.2097
G01 X7.2506 Y20.2333
G01 X7.2354 Y20.2586
G01 X7.2228 Y20.2852
G01 X7.2129 Y20.3129
G01 X7.2058 Y20.3415
G01 X7.2014 Y20.3706
G01 X7.2000 Y20.4000
G01 X7.2014 Y20.4294
G01 X7.2058 Y20.4585
G01 X7.2129 Y20.4871
G01 X7.2228 Y20.5148
G01 X7.2354 Y20.5414
G01 X7.2506 Y20.5667
G01 X7.2681 Y20.5903
G01 X7.2879 Y20.6121
G01 X7.3097 Y20.6319
G01 X7.3333 Y20.6494
G01 X7.3586 Y20.6646
G01 X7.3852 Y20.6772
G01 X7.4129 Y20.6871
G01 X7.4415 Y20.6942
G01 X7.4706 Y20.6986
G01 X7.5000 Y20.7000
G01 X7.5294 Y20.6986
G01 X7.5585 Y20.6942
G01 X7.5871 Y20.6871
G01 X7.6148 Y20.6772
G01 X7.6414 Y20.6646
G01 X7.6667 Y20.6494
G01 X7.6903 Y20.6319
G01 X7.7121 Y20.6121
G01 X7.7319 Y20.5903
G01 X7.7494 Y20.5667
G01 X7.7646 Y20.5414
G01 X7.7772 Y20.5148
G01 X7.7871 Y20.4871
G01 X7.7942 Y20.4585
G01 X7.7986 Y20.4294
G01 X7.8000 Y20.4000
G00 Z0.6000
G00 X5.2500 Y22.0800
G01 F60.00
G01 Z-2.4000
G01 F120.00
G01 X5.2488 Y22.0555
G01 X5.2452 Y22.0312
G01 X5.2392 Y22.0074
G01 X5.2310 Y21.9843
G01 X5.2205 Y21.9622
G01 X5.2079 Y21.9411
G01 X5.1933 Y21.9214
G01 X5.1768 Y21.9032
G01 X5.1586 Y21.8867
G01 X5.1389 Y21.8721
G01 X5.1178 Y21.8595
G01 X5.0957 Y21.8490
G01 X5.0726 Y21.8408
G01 X5.0488 Y21.8348
G01 X5.0245 Y21.8312
G01 X5.0000 Y21.8300
G01 X4.9755 Y21.8312
G01 X4.9512 Y21.8348
G01 X4.9274 Y21.8408
G01 X4.9043 Y21.8490
G01 X4.8822 Y21.8595
G01 X4.8611 Y21.8721
G01 X4.8414 Y21.8867
G01 X4.8232 Y21.9032
G01 X4.8067 Y21.9214
G01 X4.7921 Y21.9411
G01 X4.7795 Y21.9622
G01 X4.7690 Y21.9843
G01 X4.7608 Y22.0074
G01 X4.7548 Y22.0312
G01 X4.7512 Y22.0555
G01 X4.7500 Y22.0800
G01 X4.7512 Y22.1045
G01 X4.7548 Y22.1288
G01 X4.7608 Y22.1526
G01 X4.7690 Y22.1757
G01 X4.7795 Y22.1978
G01 X4.7921 Y22.2189
G01 X4.8067 Y22.2386
G01 X4.8232 Y22.2568
G01 X4.8414 Y22.2733
G01 X4.8611 Y22.2879
G01 X4.8822 Y22.3005
G01 X4.9043 Y22.3110
G01 X4.9274 Y22.3192
G01 X4.9512 Y22.3252
G01 X4.9755 Y22.3288
G01 X5.0000 Y22.3300
G01 X5.0245 Y22.3288
G01 X5.0488 Y22.3252
G01 X5.0726 Y22.3192
G01 X5.0957 Y22.3110
G01 X5.1178 Y22.3005
G01 X5.1389 Y22.2879
G01 X5.1586 Y22.2733
G01 X5.1768 Y22.2568
G01 X5.1933 Y22.2386
G01 X5.2079 Y22.2189
G01 X5.2205 Y22.1978
G01 X5.2310 Y22.1757
G01 X5.2392 Y22.1526
G01 X5.2452 Y22.1288
G01 X5.2488 Y22.1045
G01 X5.2500 Y22.0800
G00 Z0.6000
G00 X2.8000 Y20.4000
G01 F60.00
G01 Z-2.4000
G01 F120.00
G01 X2.7986 Y20.3706
G01 X2.7942 Y20.3415
G01 X2.7871 Y20.3129
G01 X2.7772 Y20.2852
G01 X2.7646 Y20.2586
G01 X2.7494 Y20.2333
G01 X2.7319 Y20.2097
G01 X2.7121 Y20.1879
G01 X2.6903 Y20.1681
G01 X2.6667 Y20.1506
G01 X2.6414 Y20.1354
G01 X2.6148 Y20.1228
G01 X2.5871 Y20.1129
G01 X2.5585 Y20.1058
G01 X2.5294 Y20.1014
G01 X2.5000 Y20.1000
G01 X2.4706 Y20.1014
G01 X2.4415 Y20.1058
G01 X2.4129 Y20.1129
G01 X2.3852 Y20.1228
G01 X2.3586 Y20.1354
G01 X2.3333 Y20.1506
G01 X2.3097 Y20.1681
G01 X2.2879 Y20.1879
G01 X2.2681 Y20.2097
G01 X2.2506 Y20.2333
G01 X2.2354 Y20.2586
G01 X2.2228 Y20.2852
G01 X2.2129 Y20.3129
G01 X2.2058 Y20.3415
G01 X2.2014 Y20.3706
G01 X2.2000 Y20.4000
G01 X2.2014 Y20.4294
G01 X2.2058 Y20.4585
G01 X2.2129 Y20.4871
G01 X2.2228 Y20.5148
G01 X2.2354 Y20.5414
G01 X2.2506 Y20.5667
G01 X2.2681 Y20.5903
G01 X2.2879 Y20.6121
G01 X2.3097 Y20.6319
G01 X2.3333 Y20.6494
G01 X2.3586 Y20.6646
G01 X2.3852 Y20.6772
G01 X2.4129 Y20.6871
G01 X2.4415 Y20.6942
G01 X2.4706 Y20.6986
G01 X2.5000 Y20.7000
G01 X2.5294 Y20.6986
G01 X2.5585 Y20.6942
G01 X2.5871 Y20.6871
G01 X2.6148 Y20.6772
G01 X2.6414 Y20.6646
G01 X2.6667 Y20.6494
G01 X2.6903 Y20.6319
G01 X2.7121 Y20.6121
G01 X2.7319 Y20.5903
G01 X2.7494 Y20.5667
G01 X2.7646 Y20.5414
G01 X2.7772 Y20.5148
G01 X2.7871 Y20.4871
G01 X2.7942 Y20.4585
G01 X2.7986 Y20.4294
G01 X2.8000 Y20.4000
G00 Z0.6000
G00 X2.8000 Y25.4000
G01 F60.00
G01 Z-2.4000
G01 F120.00
G01 X2.7986 Y25.3706
G01 X2.7942 Y25.3415
G01 X2.7871 Y25.3129
G01 X2.7772 Y25.2852
G01 X2.7646 Y25.2586
G01 X2.7494 Y25.2333
G01 X2.7319 Y25.2097
G01 X2.7121 Y25.1879
G01 X2.6903 Y25.1681
G01 X2.6667 Y25.1506
G01 X2.6414 Y25.1354
G01 X2.6148 Y25.1228
G01 X2.5871 Y25.1129
G01 X2.5585 Y25.1058
G01 X2.5294 Y25.1014
G01 X2.5000 Y25.1000
G01 X2.4706 Y25.1014
G01 X2.4415 Y25.1058
G01 X2.4129 Y25.1129
G01 X2.3852 Y25.1228
G01 X2.3586 Y25.1354
G01 X2.3333 Y25.1506
G01 X2.3097 Y25.1681
G01 X2.2879 Y25.1879
G01 X2.2681 Y25.2097
G01 X2.2506 Y25.2333
G01 X2.2354 Y25.2586
G01 X2.2228 Y25.2852
G01 X2.2129 Y25.3129
G01 X2.2058 Y25.3415
G01 X2.2014 Y25.3706
G01 X2.2000 Y25.4000
G01 X2.2014 Y25.4294
G01 X2.2058 Y25.4585
G01 X2.2129 Y25.4871
G01 X2.2228 Y25.5148
G01 X2.2354 Y25.5414
G01 X2.2506 Y25.5667
G01 X2.2681 Y25.5903
G01 X2.2879 Y25.6121
G01 X2.3097 Y25.6319
G01 X2.3333 Y25.6494
G01 X2.3586 Y25.6646
G01 X2.3852 Y25.6772
G01 X2.4129 Y25.6871
G01 X2.4415 Y25.6942
G01 X2.4706 Y25.6986
G01 X2.5000 Y25.7000
G01 X2.5294 Y25.6986
G01 X2.5585 Y25.6942
G01 X2.5871 Y25.6871
G01 X2.6148 Y25.6772
G01 X2.6414 Y25.6646
G01 X2.6667 Y25.6494
G01 X2.6903 Y25.6319
G01 X2.7121 Y25.6121
G01 X2.7319 Y25.5903
G01 X2.7494 Y25.5667
G01 X2.7646 Y25.5414
G01 X2.7772 Y25.5148
G01 X2.7871 Y25.4871
G01 X2.7942 Y25.4585
G01 X2.7986 Y25.4294
G01 X2.8000 Y25.4000
G00 Z0.6000
G00 X5.2500 Y27.1600
G01 F60.00
G01 Z-2.4000
G01 F120.00
G01 X5.2488 Y27.1355
G01 X5.2452 Y27.1112
G01 X5.2392 Y27.0874
G01 X5.2310 Y27.0643
G01 X5.2205 Y27.0422
G01 X5.2079 Y27.0211
G01 X5.1933 Y27.0014
G01 X5.1768 Y26.9832
G01 X5.1586 Y26.9667
G01 X5.1389 Y26.9521
G01 X5.1178 Y26.9395
G01 X5.0957 Y26.9290
G01 X5.0726 Y26.9208
G01 X5.0488 Y26.9148
G01 X5.0245 Y26.9112
G01 X5.0000 Y26.9100
G01 X4.9755 Y26.9112
G01 X4.9512 Y26.9148
G01 X4.9274 Y26.9208
G01 X4.9043 Y26.9290
G01 X4.8822 Y26.9395
G01 X4.8611 Y26.9521
G01 X4.8414 Y26.9667
G01 X4.8232 Y26.9832
G01 X4.8067 Y27.0014
G01 X4.7921 Y27.0211
G01 X4.7795 Y27.0422
G01 X4.7690 Y27.0643
G01 X4.7608 Y27.0874
G01 X4.7548 Y27.1112
G01 X4.7512 Y27.1355
G01 X4.7500 Y27.1600
G01 X4.7512 Y27.1845
G01 X4.7548 Y27.2088
G01 X4.7608 Y27.2326
G01 X4.7690 Y27.2557
G01 X4.7795 Y27.2778
G01 X4.7921 Y27.2989
G01 X4.8067 Y27.3186
G01 X4.8232 Y27.3368
G01 X4.8414 Y27.3533
G01 X4.8611 Y27.3679
G01 X4.8822 Y27.3805
G01 X4.9043 Y27.3910
G01 X4.9274 Y27.3992
G01 X4.9512 Y27.4052
G01 X4.9755 Y27.4088
G01 X5.0000 Y27.4100
G01 X5.0245 Y27.4088
G01 X5.0488 Y27.4052
G01 X5.0726 Y27.3992
G01 X5.0957 Y27.3910
G01 X5.1178 Y27.3805
G01 X5.1389 Y27.3679
G01 X5.1586 Y27.3533
G01 X5.1768 Y27.3368
G01 X5.1933 Y27.3186
G01 X5.2079 Y27.2989
G01 X5.2205 Y27.2778
G01 X5.2310 Y27.2557
G01 X5.2392 Y27.2326
G01 X5.2452 Y27.2088
G01 X5.2488 Y27.1845
G01 X5.2500 Y27.1600
G00 Z0.6000
G00 X7.8000 Y25.4000
G01 F60.00
G01 Z-2.4000
G01 F120.00
G01 X7.7986 Y25.3706
G01 X7.7942 Y25.3415
G01 X7.7871 Y25.3129
G01 X7.7772 Y25.2852
G01 X7.7646 Y25.2586
G01 X7.7494 Y25.2333
G01 X7.7319 Y25.2097
G01 X7.7121 Y25.1879
G01 X7.6903 Y25.1681
G01 X7.6667 Y25.1506
G01 X7.6414 Y25.1354
G01 X7.6148 Y25.1228
G01 X7.5871 Y25.1129
G01 X7.5585 Y25.1058
G01 X7.5294 Y25.1014
G01 X7.5000 Y25.1000
G01 X7.4706 Y25.1014
G01 X7.4415 Y25.1058
G01 X7.4129 Y25.1129
G01 X7.3852 Y25.1228
G01 X7.3586 Y25.1354
G01 X7.3333 Y25.1506
G01 X7.3097 Y25.1681
G01 X7.2879 Y25.1879
G01 X7.2681 Y25.2097
G01 X7.2506 Y25.2333
G01 X7.2354 Y25.2586
G01 X7.2228 Y25.2852
G01 X7.2129 Y25.3129
G01 X7.2058 Y25.3415
G01 X7.2014 Y25.3706
G01 X7.2000 Y25.4000
G01 X7.2014 Y25.4294
G01 X7.2058 Y25.4585
G01 X7.2129 Y25.4871
G01 X7.2228 Y25.5148
G01 X7.2354 Y25.5414
G01 X7.2506 Y25.5667
G01 X7.2681 Y25.5903
G01 X7.2879 Y25.6121
G01 X7.3097 Y25.6319
G01 X7.3333 Y25.6494
G01 X7.3586 Y25.6646
G01 X7.3852 Y25.6772
G01 X7.4129 Y25.6871
G01 X7.4415 Y25.6942
G01 X7.4706 Y25.6986
G01 X7.5000 Y25.7000
G01 X7.5294 Y25.6986
G01 X7.5585 Y25.6942
G01 X7.5871 Y25.6871
G01 X7.6148 Y25.6772
G01 X7.6414 Y25.6646
G01 X7.6667 Y25.6494
G01 X7.6903 Y25.6319
G01 X7.7121 Y25.6121
G01 X7.7319 Y25.5903
G01 X7.7494 Y25.5667
G01 X7.7646 Y25.5414
G01 X7.7772 Y25.5148
G01 X7.7871 Y25.4871
G01 X7.7942 Y25.4585
G01 X7.7986 Y25.4294
G01 X7.8000 Y25.4000
G00 Z0.6000
G00 X8.0000 Y33.4600
G01 F60.00
G01 Z-2.4000
G01 F120.00
G01 X8.0000 Y33.4600
G01 X8.0000 Y33.4600
G01 X8.0000 Y33.4600
G01 X8.0000 Y33.4600
G00 Z0.6000
G00 X8.0000 Y36.0000
G01 F60.00
G01 Z-2.4000
G01 F120.00
G01 X8.0000 Y36.0000
G01 X8.0000 Y36.0000
G01 X8.0000 Y36.0000
G01 X8.0000 Y36.0000
G00 Z0.6000
G00 X7.8000 Y38.9400
G01 F60.00
G01 Z-2.4000
G01 F120.00
G01 X7.7986 Y38.9106
G01 X7.7942 Y38.8815
G01 X7.7871 Y38.8529
G01 X7.7772 Y38.8252
G01 X7.7646 Y38.7986
G01 X7.7494 Y38.7733
G01 X7.7319 Y38.7497
G01 X7.7121 Y38.7279
G01 X7.6903 Y38.7081
G01 X7.6667 Y38.6906
G01 X7.6414 Y38.6754
G01 X7.6148 Y38.6628
G01 X7.5871 Y38.6529
G01 X7.5585 Y38.6458
G01 X7.5294 Y38.6414
G01 X7.5000 Y38.6400
G01 X7.4706 Y38.6414
G01 X7.4415 Y38.6458
G01 X7.4129 Y38.6529
G01 X7.3852 Y38.6628
G01 X7.3586 Y38.6754
G01 X7.3333 Y38.6906
G01 X7.3097 Y38.7081
G01 X7.2879 Y38.7279
G01 X7.2681 Y38.7497
G01 X7.2506 Y38.7733
G01 X7.2354 Y38.7986
G01 X7.2228 Y38.8252
G01 X7.2129 Y38.8529
G01 X7.2058 Y38.8815
G01 X7.2014 Y38.9106
G01 X7.2000 Y38.9400
G01 X7.2014 Y38.9694
G01 X7.2058 Y38.9985
G01 X7.2129 Y39.0271
G01 X7.2228 Y39.0548
G01 X7.2354 Y39.0814
G01 X7.2506 Y39.1067
G01 X7.2681 Y39.1303
G01 X7.2879 Y39.1521
G01 X7.3097 Y39.1719
G01 X7.3333 Y39.1894
G01 X7.3586 Y39.2046
G01 X7.3852 Y39.2172
G01 X7.4129 Y39.2271
G01 X7.4415 Y39.2342
G01 X7.4706 Y39.2386
G01 X7.5000 Y39.2400
G01 X7.5294 Y39.2386
G01 X7.5585 Y39.2342
G01 X7.5871 Y39.2271
G01 X7.6148 Y39.2172
G01 X7.6414 Y39.2046
G01 X7.6667 Y39.1894
G01 X7.6903 Y39.1719
G01 X7.7121 Y39.1521
G01 X7.7319 Y39.1303
G01 X7.7494 Y39.1067
G01 X7.7646 Y39.0814
G01 X7.7772 Y39.0548
G01 X7.7871 Y39.0271
G01 X7.7942 Y38.9985
G01 X7.7986 Y38.9694
G01 X7.8000 Y38.9400
G00 Z0.6000
G00 X5.2500 Y40.6400
G01 F60.00
G01 Z-2.4000
G01 F120.00
G01 X5.2488 Y40.6155
G01 X5.2452 Y40.5912
G01 X5.2392 Y40.5674
G01 X5.2310 Y40.5443
G01 X5.2205 Y40.5222
G01 X5.2079 Y40.5011
G01 X5.1933 Y40.4814
G01 X5.1768 Y40.4632
G01 X5.1586 Y40.4467
G01 X5.1389 Y40.4321
G01 X5.1178 Y40.4195
G01 X5.0957 Y40.4090
G01 X5.0726 Y40.4008
G01 X5.0488 Y40.3948
G01 X5.0245 Y40.3912
G01 X5.0000 Y40.3900
G01 X4.9755 Y40.3912
G01 X4.9512 Y40.3948
G01 X4.9274 Y40.4008
G01 X4.9043 Y40.4090
G01 X4.8822 Y40.4195
G01 X4.8611 Y40.4321
G01 X4.8414 Y40.4467
G01 X4.8232 Y40.4632
G01 X4.8067 Y40.4814
G01 X4.7921 Y40.5011
G01 X4.7795 Y40.5222
G01 X4.7690 Y40.5443
G01 X4.7608 Y40.5674
G01 X4.7548 Y40.5912
G01 X4.7512 Y40.6155
G01 X4.7500 Y40.6400
G01 X4.7512 Y40.6645
G01 X4.7548 Y40.6888
G01 X4.7608 Y40.7126
G01 X4.7690 Y40.7357
G01 X4.7795 Y40.7578
G01 X4.7921 Y40.7789
G01 X4.8067 Y40.7986
G01 X4.8232 Y40.8168
G01 X4.8414 Y40.8333
G01 X4.8611 Y40.8479
G01 X4.8822 Y40.8605
G01 X4.9043 Y40.8710
G01 X4.9274 Y40.8792
G01 X4.9512 Y40.8852
G01 X4.9755 Y40.8888
G01 X5.0000 Y40.8900
G01 X5.0245 Y40.8888
G01 X5.0488 Y40.8852
G01 X5.0726 Y40.8792
G01 X5.0957 Y40.8710
G01 X5.1178 Y40.8605
G01 X5.1389 Y40.8479
G01 X5.1586 Y40.8333
G01 X5.1768 Y40.8168
G01 X5.1933 Y40.7986
G01 X5.2079 Y40.7789
G01 X5.2205 Y40.7578
G01 X5.2310 Y40.7357
G01 X5.2392 Y40.7126
G01 X5.2452 Y40.6888
G01 X5.2488 Y40.6645
G01 X5.2500 Y40.6400
G00 Z0.6000
G00 X2.8000 Y38.9400
G01 F60.00
G01 Z-2.4000
G01 F120.00
G01 X2.7986 Y38.9106
G01 X2.7942 Y38.8815
G01 X2.7871 Y38.8529
G01 X2.7772 Y38.8252
G01 X2.7646 Y38.7986
G01 X2.7494 Y38.7733
G01 X2.7319 Y38.7497
G01 X2.7121 Y38.7279
G01 X2.6903 Y38.7081
G01 X2.6667 Y38.6906
G01 X2.6414 Y38.6754
G01 X2.6148 Y38.6628
G01 X2.5871 Y38.6529
G01 X2.5585 Y38.6458
G01 X2.5294 Y38.6414
G01 X2.5000 Y38.6400
G01 X2.4706 Y38.6414
G01 X2.4415 Y38.6458
G01 X2.4129 Y38.6529
G01 X2.3852 Y38.6628
G01 X2.3586 Y38.6754
G01 X2.3333 Y38.6906
G01 X2.3097 Y38.7081
G01 X2.2879 Y38.7279
G01 X2.2681 Y38.7497
G01 X2.2506 Y38.7733
G01 X2.2354 Y38.7986
G01 X2.2228 Y38.8252
G01 X2.2129 Y38.8529
G01 X2.2058 Y38.8815
G01 X2.2014 Y38.9106
G01 X2.2000 Y38.9400
G01 X2.2014 Y38.9694
G01 X2.2058 Y38.9985
G01 X2.2129 Y39.0271
G01 X2.2228 Y39.0548
G01 X2.2354 Y39.0814
G01 X2.2506 Y39.1067
G01 X2.2681 Y39.1303
G01 X2.2879 Y39.1521
G01 X2.3097 Y39.1719
G01 X2.3333 Y39.1894
G01 X2.3586 Y39.2046
G01 X2.3852 Y39.2172
G01 X2.4129 Y39.2271
G01 X2.4415 Y39.2342
G01 X2.4706 Y39.2386
G01 X2.5000 Y39.2400
G01 X2.5294 Y39.2386
G01 X2.5585 Y39.2342
G01 X2.5871 Y39.2271
G01 X2.6148 Y39.2172
G01 X2.6414 Y39.2046
G01 X2.6667 Y39.1894
G01 X2.6903 Y39.1719
G01 X2.7121 Y39.1521
G01 X2.7319 Y39.1303
G01 X2.7494 Y39.1067
G01 X2.7646 Y39.0814
G01 X2.7772 Y39.0548
G01 X2.7871 Y39.0271
G01 X2.7942 Y38.9985
G01 X2.7986 Y38.9694
G01 X2.8000 Y38.9400
G00 Z0.6000
G00 X2.5600 Y34.0000
G01 F60.00
G01 Z-2.4000
G01 F120.00
G01 X2.5595 Y33.9902
G01 X2.5581 Y33.9805
G01 X2.5557 Y33.9710
G01 X2.5524 Y33.9617
G01 X2.5482 Y33.9529
G01 X2.5431 Y33.9444
G01 X2.5373 Y33.9366
G01 X2.5307 Y33.9293
G01 X2.5234 Y33.9227
G01 X2.5156 Y33.9169
G01 X2.5071 Y33.9118
G01 X2.4983 Y33.9076
G01 X2.4890 Y33.9043
G01 X2.4795 Y33.9019
G01 X2.4698 Y33.9005
G01 X2.4600 Y33.9000
G01 X2.4502 Y33.9005
G01 X2.4405 Y33.9019
G01 X2.4310 Y33.9043
G01 X2.4217 Y33.9076
G01 X2.4129 Y33.9118
G01 X2.4044 Y33.9169
G01 X2.3966 Y33.9227
G01 X2.3893 Y33.9293
G01 X2.3827 Y33.9366
G01 X2.3769 Y33.9444
G01 X2.3718 Y33.9529
G01 X2.3676 Y33.9617
G01 X2.3643 Y33.9710
G01 X2.3619 Y33.9805
G01 X2.3605 Y33.9902
G01 X2.3600 Y34.0000
G01 X2.3605 Y34.0098
G01 X2.3619 Y34.0195
G01 X2.3643 Y34.0290
G01 X2.3676 Y34.0383
G01 X2.3718 Y34.0471
G01 X2.3769 Y34.0556
G01 X2.3827 Y34.0634
G01 X2.3893 Y34.0707
G01 X2.3966 Y34.0773
G01 X2.4044 Y34.0831
G01 X2.4129 Y34.0882
G01 X2.4217 Y34.0924
G01 X2.4310 Y34.0957
G01 X2.4405 Y34.0981
G01 X2.4502 Y34.0995
G01 X2.4600 Y34.1000
G01 X2.4698 Y34.0995
G01 X2.4795 Y34.0981
G01 X2.4890 Y34.0957
G01 X2.4983 Y34.0924
G01 X2.5071 Y34.0882
G01 X2.5156 Y34.0831
G01 X2.5234 Y34.0773
G01 X2.5307 Y34.0707
G01 X2.5373 Y34.0634
G01 X2.5431 Y34.0556
G01 X2.5482 Y34.0471
G01 X2.5524 Y34.0383
G01 X2.5557 Y34.0290
G01 X2.5581 Y34.0195
G01 X2.5595 Y34.0098
G01 X2.5600 Y34.0000
G00 Z0.6000
G00 X5.1000 Y34.0000
G01 F60.00
G01 Z-2.4000
G01 F120.00
G01 X5.0995 Y33.9902
G01 X5.0981 Y33.9805
G01 X5.0957 Y33.9710
G01 X5.0924 Y33.9617
G01 X5.0882 Y33.9529
G01 X5.0831 Y33.9444
G01 X5.0773 Y33.9366
G01 X5.0707 Y33.9293
G01 X5.0634 Y33.9227
G01 X5.0556 Y33.9169
G01 X5.0471 Y33.9118
G01 X5.0383 Y33.9076
G01 X5.0290 Y33.9043
G01 X5.0195 Y33.9019
G01 X5.0098 Y33.9005
G01 X5.0000 Y33.9000
G01 X4.9902 Y33.9005
G01 X4.9805 Y33.9019
G01 X4.9710 Y33.9043
G01 X4.9617 Y33.9076
G01 X4.9529 Y33.9118
G01 X4.9444 Y33.9169
G01 X4.9366 Y33.9227
G01 X4.9293 Y33.9293
G01 X4.9227 Y33.9366
G01 X4.9169 Y33.9444
G01 X4.9118 Y33.9529
G01 X4.9076 Y33.9617
G01 X4.9043 Y33.9710
G01 X4.9019 Y33.9805
G01 X4.9005 Y33.9902
G01 X4.9000 Y34.0000
G01 X4.9005 Y34.0098
G01 X4.9019 Y34.0195
G01 X4.9043 Y34.0290
G01 X4.9076 Y34.0383
G01 X4.9118 Y34.0471
G01 X4.9169 Y34.0556
G01 X4.9227 Y34.0634
G01 X4.9293 Y34.0707
G01 X4.9366 Y34.0773
G01 X4.9444 Y34.0831
G01 X4.9529 Y34.0882
G01 X4.9617 Y34.0924
G01 X4.9710 Y34.0957
G01 X4.9805 Y34.0981
G01 X4.9902 Y34.0995
G01 X5.0000 Y34.1000
G01 X5.0098 Y34.0995
G01 X5.0195 Y34.0981
G01 X5.0290 Y34.0957
G01 X5.0383 Y34.0924
G01 X5.0471 Y34.0882
G01 X5.0556 Y34.0831
G01 X5.0634 Y34.0773
G01 X5.0707 Y34.0707
G01 X5.0773 Y34.0634
G01 X5.0831 Y34.0556
G01 X5.0882 Y34.0471
G01 X5.0924 Y34.0383
G01 X5.0957 Y34.0290
G01 X5.0981 Y34.0195
G01 X5.0995 Y34.0098
G01 X5.1000 Y34.0000
G00 Z0.6000
G00 X12.0000 Y35.8800
G01 F60.00
G01 Z-2.4000
G01 F120.00
G01 X12.0000 Y35.8800
G01 X12.0000 Y35.8800
G01 X12.0000 Y35.8800
G01 X12.0000 Y35.8800
G00 Z0.6000
G00 X15.0000 Y37.8800
G01 F60.00
G01 Z-2.4000
G01 F120.00
G01 X15.0000 Y37.8800
G01 X15.0000 Y37.8800
G01 X15.0000 Y37.8800
G01 X15.0000 Y37.8800
G00 Z0.6000
G00 X21.0500 Y38.4000
G01 F60.00
G01 Z-2.4000
G01 F120.00
G01 X21.0486 Y38.3706
G01 X21.0442 Y38.3415
G01 X21.0371 Y38.3129
G01 X21.0272 Y38.2852
G01 X21.0146 Y38.2586
G01 X20.9994 Y38.2333
G01 X20.9819 Y38.2097
G01 X20.9621 Y38.1879
G01 X20.9403 Y38.1681
G01 X20.9167 Y38.1506
G01 X20.8914 Y38.1354
G01 X20.8648 Y38.1228
G01 X20.8371 Y38.1129
G01 X20.8085 Y38.1058
G01 X20.7794 Y38.1014
G01 X20.7500 Y38.1000
G01 X20.7206 Y38.1014
G01 X20.6915 Y38.1058
G01 X20.6629 Y38.1129
G01 X20.6352 Y38.1228
G01 X20.6086 Y38.1354
G01 X20.5833 Y38.1506
G01 X20.5597 Y38.1681
G01 X20.5379 Y38.1879
G01 X20.5181 Y38.2097
G01 X20.5006 Y38.2333
G01 X20.4854 Y38.2586
G01 X20.4728 Y38.2852
G01 X20.4629 Y38.3129
G01 X20.4558 Y38.3415
G01 X20.4514 Y38.3706
G01 X20.4500 Y38.4000
G01 X20.4514 Y38.4294
G01 X20.4558 Y38.4585
G01 X20.4629 Y38.4871
G01 X20.4728 Y38.5148
G01 X20.4854 Y38.5414
G01 X20.5006 Y38.5667
G01 X20.5181 Y38.5903
G01 X20.5379 Y38.6121
G01 X20.5597 Y38.6319
G01 X20.5833 Y38.6494
G01 X20.6086 Y38.6646
G01 X20.6352 Y38.6772
G01 X20.6629 Y38.6871
G01 X20.6915 Y38.6942
G01 X20.7206 Y38.6986
G01 X20.7500 Y38.7000
G01 X20.7794 Y38.6986
G01 X20.8085 Y38.6942
G01 X20.8371 Y38.6871
G01 X20.8648 Y38.6772
G01 X20.8914 Y38.6646
G01 X20.9167 Y38.6494
G01 X20.9403 Y38.6319
G01 X20.9621 Y38.6121
G01 X20.9819 Y38.5903
G01 X20.9994 Y38.5667
G01 X21.0146 Y38.5414
G01 X21.0272 Y38.5148
G01 X21.0371 Y38.4871
G01 X21.0442 Y38.4585
G01 X21.0486 Y38.4294
G01 X21.0500 Y38.4000
G00 Z0.6000
G00 X21.0500 Y34.2000
G01 F60.00
G01 Z-2.4000
G01 F120.00
G01 X21.0486 Y34.1706
G01 X21.0442 Y34.1415
G01 X21.0371 Y34.1129
G01 X21.0272 Y34.0852
G01 X21.0146 Y34.0586
G01 X20.9994 Y34.0333
G01 X20.9819 Y34.0097
G01 X20.9621 Y33.9879
G01 X20.9403 Y33.9681
G01 X20.9167 Y33.9506
G01 X20.8914 Y33.9354
G01 X20.8648 Y33.9228
G01 X20.8371 Y33.9129
G01 X20.8085 Y33.9058
G01 X20.7794 Y33.9014
G01 X20.7500 Y33.9000
G01 X20.7206 Y33.9014
G01 X20.6915 Y33.9058
G01 X20.6629 Y33.9129
G01 X20.6352 Y33.9228
G01 X20.6086 Y33.9354
G01 X20.5833 Y33.9506
G01 X20.5597 Y33.9681
G01 X20.5379 Y33.9879
G01 X20.5181 Y34.0097
G01 X20.5006 Y34.0333
G01 X20.4854 Y34.0586
G01 X20.4728 Y34.0852
G01 X20.4629 Y34.1129
G01 X20.4558 Y34.1415
G01 X20.4514 Y34.1706
G01 X20.4500 Y34.2000
G01 X20.4514 Y34.2294
G01 X20.4558 Y34.2585
G01 X20.4629 Y34.2871
G01 X20.4728 Y34.3148
G01 X20.4854 Y34.3414
G01 X20.5006 Y34.3667
G01 X20.5181 Y34.3903
G01 X20.5379 Y34.4121
G01 X20.5597 Y34.4319
G01 X20.5833 Y34.4494
G01 X20.6086 Y34.4646
G01 X20.6352 Y34.4772
G01 X20.6629 Y34.4871
G01 X20.6915 Y34.4942
G01 X20.7206 Y34.4986
G01 X20.7500 Y34.5000
G01 X20.7794 Y34.4986
G01 X20.8085 Y34.4942
G01 X20.8371 Y34.4871
G01 X20.8648 Y34.4772
G01 X20.8914 Y34.4646
G01 X20.9167 Y34.4494
G01 X20.9403 Y34.4319
G01 X20.9621 Y34.4121
G01 X20.9819 Y34.3903
G01 X20.9994 Y34.3667
G01 X21.0146 Y34.3414
G01 X21.0272 Y34.3148
G01 X21.0371 Y34.2871
G01 X21.0442 Y34.2585
G01 X21.0486 Y34.2294
G01 X21.0500 Y34.2000
G00 Z0.6000
G00 X21.0500 Y30.0000
G01 F60.00
G01 Z-2.4000
G01 F120.00
G01 X21.0486 Y29.9706
G01 X21.0442 Y29.9415
G01 X21.0371 Y29.9129
G01 X21.0272 Y29.8852
G01 X21.0146 Y29.8586
G01 X20.9994 Y29.8333
G01 X20.9819 Y29.8097
G01 X20.9621 Y29.7879
G01 X20.9403 Y29.7681
G01 X20.9167 Y29.7506
G01 X20.8914 Y29.7354
G01 X20.8648 Y29.7228
G01 X20.8371 Y29.7129
G01 X20.8085 Y29.7058
G01 X20.7794 Y29.7014
G01 X20.7500 Y29.7000
G01 X20.7206 Y29.7014
G01 X20.6915 Y29.7058
G01 X20.6629 Y29.7129
G01 X20.6352 Y29.7228
G01 X20.6086 Y29.7354
G01 X20.5833 Y29.7506
G01 X20.5597 Y29.7681
G01 X20.5379 Y29.7879
G01 X20.5181 Y29.8097
G01 X20.5006 Y29.8333
G01 X20.4854 Y29.8586
G01 X20.4728 Y29.8852
G01 X20.4629 Y29.9129
G01 X20.4558 Y29.9415
G01 X20.4514 Y29.9706
G01 X20.4500 Y30.0000
G01 X20.4514 Y30.0294
G01 X20.4558 Y30.0585
G01 X20.4629 Y30.0871
G01 X20.4728 Y30.1148
G01 X20.4854 Y30.1414
G01 X20.5006 Y30.1667
G01 X20.5181 Y30.1903
G01 X20.5379 Y30.2121
G01 X20.5597 Y30.2319
G01 X20.5833 Y30.2494
G01 X20.6086 Y30.2646
G01 X20.6352 Y30.2772
G01 X20.6629 Y30.2871
G01 X20.6915 Y30.2942
G01 X20.7206 Y30.2986
G01 X20.7500 Y30.3000
G01 X20.7794 Y30.2986
G01 X20.8085 Y30.2942
G01 X20.8371 Y30.2871
G01 X20.8648 Y30.2772
G01 X20.8914 Y30.2646
G01 X20.9167 Y30.2494
G01 X20.9403 Y30.2319
G01 X20.9621 Y30.2121
G01 X20.9819 Y30.1903
G01 X20.9994 Y30.1667
G01 X21.0146 Y30.1414
G01 X21.0272 Y30.1148
G01 X21.0371 Y30.0871
G01 X21.0442 Y30.0585
G01 X21.0486 Y30.0294
G01 X21.0500 Y30.0000
G00 Z0.6000
G00 X21.0500 Y25.8000
G01 F60.00
G01 Z-2.4000
G01 F120.00
G01 X21.0486 Y25.7706
G01 X21.0442 Y25.7415
G01 X21.0371 Y25.7129
G01 X21.0272 Y25.6852
G01 X21.0146 Y25.6586
G01 X20.9994 Y25.6333
G01 X20.9819 Y25.6097
G01 X20.9621 Y25.5879
G01 X20.9403 Y25.5681
G01 X20.9167 Y25.5506
G01 X20.8914 Y25.5354
G01 X20.8648 Y25.5228
G01 X20.8371 Y25.5129
G01 X20.8085 Y25.5058
G01 X20.7794 Y25.5014
G01 X20.7500 Y25.5000
G01 X20.7206 Y25.5014
G01 X20.6915 Y25.5058
G01 X20.6629 Y25.5129
G01 X20.6352 Y25.5228
G01 X20.6086 Y25.5354
G01 X20.5833 Y25.5506
G01 X20.5597 Y25.5681
G01 X20.5379 Y25.5879
G01 X20.5181 Y25.6097
G01 X20.5006 Y25.6333
G01 X20.4854 Y25.6586
G01 X20.4728 Y25.6852
G01 X20.4629 Y25.7129
G01 X20.4558 Y25.7415
G01 X20.4514 Y25.7706
G01 X20.4500 Y25.8000
G01 X20.4514 Y25.8294
G01 X20.4558 Y25.8585
G01 X20.4629 Y25.8871
G01 X20.4728 Y25.9148
G01 X20.4854 Y25.9414
G01 X20.5006 Y25.9667
G01 X20.5181 Y25.9903
G01 X20.5379 Y26.0121
G01 X20.5597 Y26.0319
G01 X20.5833 Y26.0494
G01 X20.6086 Y26.0646
G01 X20.6352 Y26.0772
G01 X20.6629 Y26.0871
G01 X20.6915 Y26.0942
G01 X20.7206 Y26.0986
G01 X20.7500 Y26.1000
G01 X20.7794 Y26.0986
G01 X20.8085 Y26.0942
G01 X20.8371 Y26.0871
G01 X20.8648 Y26.0772
G01 X20.8914 Y26.0646
G01 X20.9167 Y26.0494
G01 X20.9403 Y26.0319
G01 X20.9621 Y26.0121
G01 X20.9819 Y25.9903
G01 X20.9994 Y25.9667
G01 X21.0146 Y25.9414
G01 X21.0272 Y25.9148
G01 X21.0371 Y25.8871
G01 X21.0442 Y25.8585
G01 X21.0486 Y25.8294
G01 X21.0500 Y25.8000
G00 Z0.6000
G00 X21.0500 Y21.6000
G01 F60.00
G01 Z-2.4000
G01 F120.00
G01 X21.0486 Y21.5706
G01 X21.0442 Y21.5415
G01 X21.0371 Y21.5129
G01 X21.0272 Y21.4852
G01 X21.0146 Y21.4586
G01 X20.9994 Y21.4333
G01 X20.9819 Y21.4097
G01 X20.9621 Y21.3879
G01 X20.9403 Y21.3681
G01 X20.9167 Y21.3506
G01 X20.8914 Y21.3354
G01 X20.8648 Y21.3228
G01 X20.8371 Y21.3129
G01 X20.8085 Y21.3058
G01 X20.7794 Y21.3014
G01 X20.7500 Y21.3000
G01 X20.7206 Y21.3014
G01 X20.6915 Y21.3058
G01 X20.6629 Y21.3129
G01 X20.6352 Y21.3228
G01 X20.6086 Y21.3354
G01 X20.5833 Y21.3506
G01 X20.5597 Y21.3681
G01 X20.5379 Y21.3879
G01 X20.5181 Y21.4097
G01 X20.5006 Y21.4333
G01 X20.4854 Y21.4586
G01 X20.4728 Y21.4852
G01 X20.4629 Y21.5129
G01 X20.4558 Y21.5415
G01 X20.4514 Y21.5706
G01 X20.4500 Y21.6000
G01 X20.4514 Y21.6294
G01 X20.4558 Y21.6585
G01 X20.4629 Y21.6871
G01 X20.4728 Y21.7148
G01 X20.4854 Y21.7414
G01 X20.5006 Y21.7667
G01 X20.5181 Y21.7903
G01 X20.5379 Y21.8121
G01 X20.5597 Y21.8319
G01 X20.5833 Y21.8494
G01 X20.6086 Y21.8646
G01 X20.6352 Y21.8772
G01 X20.6629 Y21.8871
G01 X20.6915 Y21.8942
G01 X20.7206 Y21.8986
G01 X20.7500 Y21.9000
G01 X20.7794 Y21.8986
G01 X20.8085 Y21.8942
G01 X20.8371 Y21.8871
G01 X20.8648 Y21.8772
G01 X20.8914 Y21.8646
G01 X20.9167 Y21.8494
G01 X20.9403 Y21.8319
G01 X20.9621 Y21.8121
G01 X20.9819 Y21.7903
G01 X20.9994 Y21.7667
G01 X21.0146 Y21.7414
G01 X21.0272 Y21.7148
G01 X21.0371 Y21.6871
G01 X21.0442 Y21.6585
G01 X21.0486 Y21.6294
G01 X21.0500 Y21.6000
G00 Z0.6000
G00 X21.0500 Y17.4000
G01 F60.00
G01 Z-2.4000
G01 F120.00
G01 X21.0486 Y17.3706
G01 X21.0442 Y17.3415
G01 X21.0371 Y17.3129
G01 X21.0272 Y17.2852
G01 X21.0146 Y17.2586
G01 X20.9994 Y17.2333
G01 X20.9819 Y17.2097
G01 X20.9621 Y17.1879
G01 X20.9403 Y17.1681
G01 X20.9167 Y17.1506
G01 X20.8914 Y17.1354
G01 X20.8648 Y17.1228
G01 X20.8371 Y17.1129
G01 X20.8085 Y17.1058
G01 X20.7794 Y17.1014
G01 X20.7500 Y17.1000
G01 X20.7206 Y17.1014
G01 X20.6915 Y17.1058
G01 X20.6629 Y17.1129
G01 X20.6352 Y17.1228
G01 X20.6086 Y17.1354
G01 X20.5833 Y17.1506
G01 X20.5597 Y17.1681
G01 X20.5379 Y17.1879
G01 X20.5181 Y17.2097
G01 X20.5006 Y17.2333
G01 X20.4854 Y17.2586
G01 X20.4728 Y17.2852
G01 X20.4629 Y17.3129
G01 X20.4558 Y17.3415
G01 X20.4514 Y17.3706
G01 X20.4500 Y17.4000
G01 X20.4514 Y17.4294
G01 X20.4558 Y17.4585
G01 X20.4629 Y17.4871
G01 X20.4728 Y17.5148
G01 X20.4854 Y17.5414
G01 X20.5006 Y17.5667
G01 X20.5181 Y17.5903
G01 X20.5379 Y17.6121
G01 X20.5597 Y17.6319
G01 X20.5833 Y17.6494
G01 X20.6086 Y17.6646
G01 X20.6352 Y17.6772
G01 X20.6629 Y17.6871
G01 X20.6915 Y17.6942
G01 X20.7206 Y17.6986
G01 X20.7500 Y17.7000
G01 X20.7794 Y17.6986
G01 X20.8085 Y17.6942
G01 X20.8371 Y17.6871
G01 X20.8648 Y17.6772
G01 X20.8914 Y17.6646
G01 X20.9167 Y17.6494
G01 X20.9403 Y17.6319
G01 X20.9621 Y17.6121
G01 X20.9819 Y17.5903
G01 X20.9994 Y17.5667
G01 X21.0146 Y17.5414
G01 X21.0272 Y17.5148
G01 X21.0371 Y17.4871
G01 X21.0442 Y17.4585
G01 X21.0486 Y17.4294
G01 X21.0500 Y17.4000
G00 Z0.6000
G00 X21.0500 Y13.2000
G01 F60.00
G01 Z-2.4000
G01 F120.00
G01 X21.0486 Y13.1706
G01 X21.0442 Y13.1415
G01 X21.0371 Y13.1129
G01 X21.0272 Y13.0852
G01 X21.0146 Y13.0586
G01 X20.9994 Y13.0333
G01 X20.9819 Y13.0097
G01 X20.9621 Y12.9879
G01 X20.9403 Y12.9681
G01 X20.9167 Y12.9506
G01 X20.8914 Y12.9354
G01 X20.8648 Y12.9228
G01 X20.8371 Y12.9129
G01 X20.8085 Y12.9058
G01 X20.7794 Y12.9014
G01 X20.7500 Y12.9000
G01 X20.7206 Y12.9014
G01 X20.6915 Y12.9058
G01 X20.6629 Y12.9129
G01 X20.6352 Y12.9228
G01 X20.6086 Y12.9354
G01 X20.5833 Y12.9506
G01 X20.5597 Y12.9681
G01 X20.5379 Y12.9879
G01 X20.5181 Y13.0097
G01 X20.5006 Y13.0333
G01 X20.4854 Y13.0586
G01 X20.4728 Y13.0852
G01 X20.4629 Y13.1129
G01 X20.4558 Y13.1415
G01 X20.4514 Y13.1706
G01 X20.4500 Y13.2000
G01 X20.4514 Y13.2294
G01 X20.4558 Y13.2585
G01 X20.4629 Y13.2871
G01 X20.4728 Y13.3148
G01 X20.4854 Y13.3414
G01 X20.5006 Y13.3667
G01 X20.5181 Y13.3903
G01 X20.5379 Y13.4121
G01 X20.5597 Y13.4319
G01 X20.5833 Y13.4494
G01 X20.6086 Y13.4646
G01 X20.6352 Y13.4772
G01 X20.6629 Y13.4871
G01 X20.6915 Y13.4942
G01 X20.7206 Y13.4986
G01 X20.7500 Y13.5000
G01 X20.7794 Y13.4986
G01 X20.8085 Y13.4942
G01 X20.8371 Y13.4871
G01 X20.8648 Y13.4772
G01 X20.8914 Y13.4646
G01 X20.9167 Y13.4494
G01 X20.9403 Y13.4319
G01 X20.9621 Y13.4121
G01 X20.9819 Y13.3903
G01 X20.9994 Y13.3667
G01 X21.0146 Y13.3414
G01 X21.0272 Y13.3148
G01 X21.0371 Y13.2871
G01 X21.0442 Y13.2585
G01 X21.0486 Y13.2294
G01 X21.0500 Y13.2000
G00 Z0.6000
G00 X21.0500 Y9.0000
G01 F60.00
G01 Z-2.4000
G01 F120.00
G01 X21.0486 Y8.9706
G01 X21.0442 Y8.9415
G01 X21.0371 Y8.9129
G01 X21.0272 Y8.8852
G01 X21.0146 Y8.8586
G01 X20.9994 Y8.8333
G01 X20.9819 Y8.8097
G01 X20.9621 Y8.7879
G01 X20.9403 Y8.7681
G01 X20.9167 Y8.7506
G01 X20.8914 Y8.7354
G01 X20.8648 Y8.7228
G01 X20.8371 Y8.7129
G01 X20.8085 Y8.7058
G01 X20.7794 Y8.7014
G01 X20.7500 Y8.7000
G01 X20.7206 Y8.7014
G01 X20.6915 Y8.7058
G01 X20.6629 Y8.7129
G01 X20.6352 Y8.7228
G01 X20.6086 Y8.7354
G01 X20.5833 Y8.7506
G01 X20.5597 Y8.7681
G01 X20.5379 Y8.7879
G01 X20.5181 Y8.8097
G01 X20.5006 Y8.8333
G01 X20.4854 Y8.8586
G01 X20.4728 Y8.8852
G01 X20.4629 Y8.9129
G01 X20.4558 Y8.9415
G01 X20.4514 Y8.9706
G01 X20.4500 Y9.0000
G01 X20.4514 Y9.0294
G01 X20.4558 Y9.0585
G01 X20.4629 Y9.0871
G01 X20.4728 Y9.1148
G01 X20.4854 Y9.1414
G01 X20.5006 Y9.1667
G01 X20.5181 Y9.1903
G01 X20.5379 Y9.2121
G01 X20.5597 Y9.2319
G01 X20.5833 Y9.2494
G01 X20.6086 Y9.2646
G01 X20.6352 Y9.2772
G01 X20.6629 Y9.2871
G01 X20.6915 Y9.2942
G01 X20.7206 Y9.2986
G01 X20.7500 Y9.3000
G01 X20.7794 Y9.2986
G01 X20.8085 Y9.2942
G01 X20.8371 Y9.2871
G01 X20.8648 Y9.2772
G01 X20.8914 Y9.2646
G01 X20.9167 Y9.2494
G01 X20.9403 Y9.2319
G01 X20.9621 Y9.2121
G01 X20.9819 Y9.1903
G01 X20.9994 Y9.1667
G01 X21.0146 Y9.1414
G01 X21.0272 Y9.1148
G01 X21.0371 Y9.0871
G01 X21.0442 Y9.0585
G01 X21.0486 Y9.0294
G01 X21.0500 Y9.0000
G00 Z0.6000
G00 X21.0500 Y4.8000
G01 F60.00
G01 Z-2.4000
G01 F120.00
G01 X21.0486 Y4.7706
G01 X21.0442 Y4.7415
G01 X21.0371 Y4.7129
G01 X21.0272 Y4.6852
G01 X21.0146 Y4.6586
G01 X20.9994 Y4.6333
G01 X20.9819 Y4.6097
G01 X20.9621 Y4.5879
G01 X20.9403 Y4.5681
G01 X20.9167 Y4.5506
G01 X20.8914 Y4.5354
G01 X20.8648 Y4.5228
G01 X20.8371 Y4.5129
G01 X20.8085 Y4.5058
G01 X20.7794 Y4.5014
G01 X20.7500 Y4.5000
G01 X20.7206 Y4.5014
G01 X20.6915 Y4.5058
G01 X20.6629 Y4.5129
G01 X20.6352 Y4.5228
G01 X20.6086 Y4.5354
G01 X20.5833 Y4.5506
G01 X20.5597 Y4.5681
G01 X20.5379 Y4.5879
G01 X20.5181 Y4.6097
G01 X20.5006 Y4.6333
G01 X20.4854 Y4.6586
G01 X20.4728 Y4.6852
G01 X20.4629 Y4.7129
G01 X20.4558 Y4.7415
G01 X20.4514 Y4.7706
G01 X20.4500 Y4.8000
G01 X20.4514 Y4.8294
G01 X20.4558 Y4.8585
G01 X20.4629 Y4.8871
G01 X20.4728 Y4.9148
G01 X20.4854 Y4.9414
G01 X20.5006 Y4.9667
G01 X20.5181 Y4.9903
G01 X20.5379 Y5.0121
G01 X20.5597 Y5.0319
G01 X20.5833 Y5.0494
G01 X20.6086 Y5.0646
G01 X20.6352 Y5.0772
G01 X20.6629 Y5.0871
G01 X20.6915 Y5.0942
G01 X20.7206 Y5.0986
G01 X20.7500 Y5.1000
G01 X20.7794 Y5.0986
G01 X20.8085 Y5.0942
G01 X20.8371 Y5.0871
G01 X20.8648 Y5.0772
G01 X20.8914 Y5.0646
G01 X20.9167 Y5.0494
G01 X20.9403 Y5.0319
G01 X20.9621 Y5.0121
G01 X20.9819 Y4.9903
G01 X20.9994 Y4.9667
G01 X21.0146 Y4.9414
G01 X21.0272 Y4.9148
G01 X21.0371 Y4.8871
G01 X21.0442 Y4.8585
G01 X21.0486 Y4.8294
G01 X21.0500 Y4.8000
G00 Z0.6000
G00 X26.5500 Y4.8000
G01 F60.00
G01 Z-2.4000
G01 F120.00
G01 X26.5486 Y4.7706
G01 X26.5442 Y4.7415
G01 X26.5371 Y4.7129
G01 X26.5272 Y4.6852
G01 X26.5146 Y4.6586
G01 X26.4994 Y4.6333
G01 X26.4819 Y4.6097
G01 X26.4621 Y4.5879
G01 X26.4403 Y4.5681
G01 X26.4167 Y4.5506
G01 X26.3914 Y4.5354
G01 X26.3648 Y4.5228
G01 X26.3371 Y4.5129
G01 X26.3085 Y4.5058
G01 X26.2794 Y4.5014
G01 X26.2500 Y4.5000
G01 X26.2206 Y4.5014
G01 X26.1915 Y4.5058
G01 X26.1629 Y4.5129
G01 X26.1352 Y4.5228
G01 X26.1086 Y4.5354
G01 X26.0833 Y4.5506
G01 X26.0597 Y4.5681
G01 X26.0379 Y4.5879
G01 X26.0181 Y4.6097
G01 X26.0006 Y4.6333
G01 X25.9854 Y4.6586
G01 X25.9728 Y4.6852
G01 X25.9629 Y4.7129
G01 X25.9558 Y4.7415
G01 X25.9514 Y4.7706
G01 X25.9500 Y4.8000
G01 X25.9514 Y4.8294
G01 X25.9558 Y4.8585
G01 X25.9629 Y4.8871
G01 X25.9728 Y4.9148
G01 X25.9854 Y4.9414
G01 X26.0006 Y4.9667
G01 X26.0181 Y4.9903
G01 X26.0379 Y5.0121
G01 X26.0597 Y5.0319
G01 X26.0833 Y5.0494
G01 X26.1086 Y5.0646
G01 X26.1352 Y5.0772
G01 X26.1629 Y5.0871
G01 X26.1915 Y5.0942
G01 X26.2206 Y5.0986
G01 X26.2500 Y5.1000
G01 X26.2794 Y5.0986
G01 X26.3085 Y5.0942
G01 X26.3371 Y5.0871
G01 X26.3648 Y5.0772
G01 X26.3914 Y5.0646
G01 X26.4167 Y5.0494
G01 X26.4403 Y5.0319
G01 X26.4621 Y5.0121
G01 X26.4819 Y4.9903
G01 X26.4994 Y4.9667
G01 X26.5146 Y4.9414
G01 X26.5272 Y4.9148
G01 X26.5371 Y4.8871
G01 X26.5442 Y4.8585
G01 X26.5486 Y4.8294
G01 X26.5500 Y4.8000
G00 Z0.6000
G00 X26.5500 Y9.0000
G01 F60.00
G01 Z-2.4000
G01 F120.00
G01 X26.5486 Y8.9706
G01 X26.5442 Y8.9415
G01 X26.5371 Y8.9129
G01 X26.5272 Y8.8852
G01 X26.5146 Y8.8586
G01 X26.4994 Y8.8333
G01 X26.4819 Y8.8097
G01 X26.4621 Y8.7879
G01 X26.4403 Y8.7681
G01 X26.4167 Y8.7506
G01 X26.3914 Y8.7354
G01 X26.3648 Y8.7228
G01 X26.3371 Y8.7129
G01 X26.3085 Y8.7058
G01 X26.2794 Y8.7014
G01 X26.2500 Y8.7000
G01 X26.2206 Y8.7014
G01 X26.1915 Y8.7058
G01 X26.1629 Y8.7129
G01 X26.1352 Y8.7228
G01 X26.1086 Y8.7354
G01 X26.0833 Y8.7506
G01 X26.0597 Y8.7681
G01 X26.0379 Y8.7879
G01 X26.0181 Y8.8097
G01 X26.0006 Y8.8333
G01 X25.9854 Y8.8586
G01 X25.9728 Y8.8852
G01 X25.9629 Y8.9129
G01 X25.9558 Y8.9415
G01 X25.9514 Y8.9706
G01 X25.9500 Y9.0000
G01 X25.9514 Y9.0294
G01 X25.9558 Y9.0585
G01 X25.9629 Y9.0871
G01 X25.9728 Y9.1148
G01 X25.9854 Y9.1414
G01 X26.0006 Y9.1667
G01 X26.0181 Y9.1903
G01 X26.0379 Y9.2121
G01 X26.0597 Y9.2319
G01 X26.0833 Y9.2494
G01 X26.1086 Y9.2646
G01 X26.1352 Y9.2772
G01 X26.1629 Y9.2871
G01 X26.1915 Y9.2942
G01 X26.2206 Y9.2986
G01 X26.2500 Y9.3000
G01 X26.2794 Y9.2986
G01 X26.3085 Y9.2942
G01 X26.3371 Y9.2871
G01 X26.3648 Y9.2772
G01 X26.3914 Y9.2646
G01 X26.4167 Y9.2494
G01 X26.4403 Y9.2319
G01 X26.4621 Y9.2121
G01 X26.4819 Y9.1903
G01 X26.4994 Y9.1667
G01 X26.5146 Y9.1414
G01 X26.5272 Y9.1148
G01 X26.5371 Y9.0871
G01 X26.5442 Y9.0585
G01 X26.5486 Y9.0294
G01 X26.5500 Y9.0000
G00 Z0.6000
G00 X26.5500 Y13.2000
G01 F60.00
G01 Z-2.4000
G01 F120.00
G01 X26.5486 Y13.1706
G01 X26.5442 Y13.1415
G01 X26.5371 Y13.1129
G01 X26.5272 Y13.0852
G01 X26.5146 Y13.0586
G01 X26.4994 Y13.0333
G01 X26.4819 Y13.0097
G01 X26.4621 Y12.9879
G01 X26.4403 Y12.9681
G01 X26.4167 Y12.9506
G01 X26.3914 Y12.9354
G01 X26.3648 Y12.9228
G01 X26.3371 Y12.9129
G01 X26.3085 Y12.9058
G01 X26.2794 Y12.9014
G01 X26.2500 Y12.9000
G01 X26.2206 Y12.9014
G01 X26.1915 Y12.9058
G01 X26.1629 Y12.9129
G01 X26.1352 Y12.9228
G01 X26.1086 Y12.9354
G01 X26.0833 Y12.9506
G01 X26.0597 Y12.9681
G01 X26.0379 Y12.9879
G01 X26.0181 Y13.0097
G01 X26.0006 Y13.0333
G01 X25.9854 Y13.0586
G01 X25.9728 Y13.0852
G01 X25.9629 Y13.1129
G01 X25.9558 Y13.1415
G01 X25.9514 Y13.1706
G01 X25.9500 Y13.2000
G01 X25.9514 Y13.2294
G01 X25.9558 Y13.2585
G01 X25.9629 Y13.2871
G01 X25.9728 Y13.3148
G01 X25.9854 Y13.3414
G01 X26.0006 Y13.3667
G01 X26.0181 Y13.3903
G01 X26.0379 Y13.4121
G01 X26.0597 Y13.4319
G01 X26.0833 Y13.4494
G01 X26.1086 Y13.4646
G01 X26.1352 Y13.4772
G01 X26.1629 Y13.4871
G01 X26.1915 Y13.4942
G01 X26.2206 Y13.4986
G01 X26.2500 Y13.5000
G01 X26.2794 Y13.4986
G01 X26.3085 Y13.4942
G01 X26.3371 Y13.4871
G01 X26.3648 Y13.4772
G01 X26.3914 Y13.4646
G01 X26.4167 Y13.4494
G01 X26.4403 Y13.4319
G01 X26.4621 Y13.4121
G01 X26.4819 Y13.3903
G01 X26.4994 Y13.3667
G01 X26.5146 Y13.3414
G01 X26.5272 Y13.3148
G01 X26.5371 Y13.2871
G01 X26.5442 Y13.2585
G01 X26.5486 Y13.2294
G01 X26.5500 Y13.2000
G00 Z0.6000
G00 X26.5500 Y17.4000
G01 F60.00
G01 Z-2.4000
G01 F120.00
G01 X26.5486 Y17.3706
G01 X26.5442 Y17.3415
G01 X26.5371 Y17.3129
G01 X26.5272 Y17.2852
G01 X26.5146 Y17.2586
G01 X26.4994 Y17.2333
G01 X26.4819 Y17.2097
G01 X26.4621 Y17.1879
G01 X26.4403 Y17.1681
G01 X26.4167 Y17.1506
G01 X26.3914 Y17.1354
G01 X26.3648 Y17.1228
G01 X26.3371 Y17.1129
G01 X26.3085 Y17.1058
G01 X26.2794 Y17.1014
G01 X26.2500 Y17.1000
G01 X26.2206 Y17.1014
G01 X26.1915 Y17.1058
G01 X26.1629 Y17.1129
G01 X26.1352 Y17.1228
G01 X26.1086 Y17.1354
G01 X26.0833 Y17.1506
G01 X26.0597 Y17.1681
G01 X26.0379 Y17.1879
G01 X26.0181 Y17.2097
G01 X26.0006 Y17.2333
G01 X25.9854 Y17.2586
G01 X25.9728 Y17.2852
G01 X25.9629 Y17.3129
G01 X25.9558 Y17.3415
G01 X25.9514 Y17.3706
G01 X25.9500 Y17.4000
G01 X25.9514 Y17.4294
G01 X25.9558 Y17.4585
G01 X25.9629 Y17.4871
G01 X25.9728 Y17.5148
G01 X25.9854 Y17.5414
G01 X26.0006 Y17.5667
G01 X26.0181 Y17.5903
G01 X26.0379 Y17.6121
G01 X26.0597 Y17.6319
G01 X26.0833 Y17.6494
G01 X26.1086 Y17.6646
G01 X26.1352 Y17.6772
G01 X26.1629 Y17.6871
G01 X26.1915 Y17.6942
G01 X26.2206 Y17.6986
G01 X26.2500 Y17.7000
G01 X26.2794 Y17.6986
G01 X26.3085 Y17.6942
G01 X26.3371 Y17.6871
G01 X26.3648 Y17.6772
G01 X26.3914 Y17.6646
G01 X26.4167 Y17.6494
G01 X26.4403 Y17.6319
G01 X26.4621 Y17.6121
G01 X26.4819 Y17.5903
G01 X26.4994 Y17.5667
G01 X26.5146 Y17.5414
G01 X26.5272 Y17.5148
G01 X26.5371 Y17.4871
G01 X26.5442 Y17.4585
G01 X26.5486 Y17.4294
G01 X26.5500 Y17.4000
G00 Z0.6000
G00 X26.5500 Y21.6000
G01 F60.00
G01 Z-2.4000
G01 F120.00
G01 X26.5486 Y21.5706
G01 X26.5442 Y21.5415
G01 X26.5371 Y21.5129
G01 X26.5272 Y21.4852
G01 X26.5146 Y21.4586
G01 X26.4994 Y21.4333
G01 X26.4819 Y21.4097
G01 X26.4621 Y21.3879
G01 X26.4403 Y21.3681
G01 X26.4167 Y21.3506
G01 X26.3914 Y21.3354
G01 X26.3648 Y21.3228
G01 X26.3371 Y21.3129
G01 X26.3085 Y21.3058
G01 X26.2794 Y21.3014
G01 X26.2500 Y21.3000
G01 X26.2206 Y21.3014
G01 X26.1915 Y21.3058
G01 X26.1629 Y21.3129
G01 X26.1352 Y21.3228
G01 X26.1086 Y21.3354
G01 X26.0833 Y21.3506
G01 X26.0597 Y21.3681
G01 X26.0379 Y21.3879
G01 X26.0181 Y21.4097
G01 X26.0006 Y21.4333
G01 X25.9854 Y21.4586
G01 X25.9728 Y21.4852
G01 X25.9629 Y21.5129
G01 X25.9558 Y21.5415
G01 X25.9514 Y21.5706
G01 X25.9500 Y21.6000
G01 X25.9514 Y21.6294
G01 X25.9558 Y21.6585
G01 X25.9629 Y21.6871
G01 X25.9728 Y21.7148
G01 X25.9854 Y21.7414
G01 X26.0006 Y21.7667
G01 X26.0181 Y21.7903
G01 X26.0379 Y21.8121
G01 X26.0597 Y21.8319
G01 X26.0833 Y21.8494
G01 X26.1086 Y21.8646
G01 X26.1352 Y21.8772
G01 X26.1629 Y21.8871
G01 X26.1915 Y21.8942
G01 X26.2206 Y21.8986
G01 X26.2500 Y21.9000
G01 X26.2794 Y21.8986
G01 X26.3085 Y21.8942
G01 X26.3371 Y21.8871
G01 X26.3648 Y21.8772
G01 X26.3914 Y21.8646
G01 X26.4167 Y21.8494
G01 X26.4403 Y21.8319
G01 X26.4621 Y21.8121
G01 X26.4819 Y21.7903
G01 X26.4994 Y21.7667
G01 X26.5146 Y21.7414
G01 X26.5272 Y21.7148
G01 X26.5371 Y21.6871
G01 X26.5442 Y21.6585
G01 X26.5486 Y21.6294
G01 X26.5500 Y21.6000
G00 Z0.6000
G00 X26.5500 Y25.8000
G01 F60.00
G01 Z-2.4000
G01 F120.00
G01 X26.5486 Y25.7706
G01 X26.5442 Y25.7415
G01 X26.5371 Y25.7129
G01 X26.5272 Y25.6852
G01 X26.5146 Y25.6586
G01 X26.4994 Y25.6333
G01 X26.4819 Y25.6097
G01 X26.4621 Y25.5879
G01 X26.4403 Y25.5681
G01 X26.4167 Y25.5506
G01 X26.3914 Y25.5354
G01 X26.3648 Y25.5228
G01 X26.3371 Y25.5129
G01 X26.3085 Y25.5058
G01 X26.2794 Y25.5014
G01 X26.2500 Y25.5000
G01 X26.2206 Y25.5014
G01 X26.1915 Y25.5058
G01 X26.1629 Y25.5129
G01 X26.1352 Y25.5228
G01 X26.1086 Y25.5354
G01 X26.0833 Y25.5506
G01 X26.0597 Y25.5681
G01 X26.0379 Y25.5879
G01 X26.0181 Y25.6097
G01 X26.0006 Y25.6333
G01 X25.9854 Y25.6586
G01 X25.9728 Y25.6852
G01 X25.9629 Y25.7129
G01 X25.9558 Y25.7415
G01 X25.9514 Y25.7706
G01 X25.9500 Y25.8000
G01 X25.9514 Y25.8294
G01 X25.9558 Y25.8585
G01 X25.9629 Y25.8871
G01 X25.9728 Y25.9148
G01 X25.9854 Y25.9414
G01 X26.0006 Y25.9667
G01 X26.0181 Y25.9903
G01 X26.0379 Y26.0121
G01 X26.0597 Y26.0319
G01 X26.0833 Y26.0494
G01 X26.1086 Y26.0646
G01 X26.1352 Y26.0772
G01 X26.1629 Y26.0871
G01 X26.1915 Y26.0942
G01 X26.2206 Y26.0986
G01 X26.2500 Y26.1000
G01 X26.2794 Y26.0986
G01 X26.3085 Y26.0942
G01 X26.3371 Y26.0871
G01 X26.3648 Y26.0772
G01 X26.3914 Y26.0646
G01 X26.4167 Y26.0494
G01 X26.4403 Y26.0319
G01 X26.4621 Y26.0121
G01 X26.4819 Y25.9903
G01 X26.4994 Y25.9667
G01 X26.5146 Y25.9414
G01 X26.5272 Y25.9148
G01 X26.5371 Y25.8871
G01 X26.5442 Y25.8585
G01 X26.5486 Y25.8294
G01 X26.5500 Y25.8000
G00 Z0.6000
G00 X26.5500 Y30.0000
G01 F60.00
G01 Z-2.4000
G01 F120.00
G01 X26.5486 Y29.9706
G01 X26.5442 Y29.9415
G01 X26.5371 Y29.9129
G01 X26.5272 Y29.8852
G01 X26.5146 Y29.8586
G01 X26.4994 Y29.8333
G01 X26.4819 Y29.8097
G01 X26.4621 Y29.7879
G01 X26.4403 Y29.7681
G01 X26.4167 Y29.7506
G01 X26.3914 Y29.7354
G01 X26.3648 Y29.7228
G01 X26.3371 Y29.7129
G01 X26.3085 Y29.7058
G01 X26.2794 Y29.7014
G01 X26.2500 Y29.7000
G01 X26.2206 Y29.7014
G01 X26.1915 Y29.7058
G01 X26.1629 Y29.7129
G01 X26.1352 Y29.7228
G01 X26.1086 Y29.7354
G01 X26.0833 Y29.7506
G01 X26.0597 Y29.7681
G01 X26.0379 Y29.7879
G01 X26.0181 Y29.8097
G01 X26.0006 Y29.8333
G01 X25.9854 Y29.8586
G01 X25.9728 Y29.8852
G01 X25.9629 Y29.9129
G01 X25.9558 Y29.9415
G01 X25.9514 Y29.9706
G01 X25.9500 Y30.0000
G01 X25.9514 Y30.0294
G01 X25.9558 Y30.0585
G01 X25.9629 Y30.0871
G01 X25.9728 Y30.1148
G01 X25.9854 Y30.1414
G01 X26.0006 Y30.1667
G01 X26.0181 Y30.1903
G01 X26.0379 Y30.2121
G01 X26.0597 Y30.2319
G01 X26.0833 Y30.2494
G01 X26.1086 Y30.2646
G01 X26.1352 Y30.2772
G01 X26.1629 Y30.2871
G01 X26.1915 Y30.2942
G01 X26.2206 Y30.2986
G01 X26.2500 Y30.3000
G01 X26.2794 Y30.2986
G01 X26.3085 Y30.2942
G01 X26.3371 Y30.2871
G01 X26.3648 Y30.2772
G01 X26.3914 Y30.2646
G01 X26.4167 Y30.2494
G01 X26.4403 Y30.2319
G01 X26.4621 Y30.2121
G01 X26.4819 Y30.1903
G01 X26.4994 Y30.1667
G01 X26.5146 Y30.1414
G01 X26.5272 Y30.1148
G01 X26.5371 Y30.0871
G01 X26.5442 Y30.0585
G01 X26.5486 Y30.0294
G01 X26.5500 Y30.0000
G00 Z0.6000
G00 X26.5500 Y34.2000
G01 F60.00
G01 Z-2.4000
G01 F120.00
G01 X26.5486 Y34.1706
G01 X26.5442 Y34.1415
G01 X26.5371 Y34.1129
G01 X26.5272 Y34.0852
G01 X26.5146 Y34.0586
G01 X26.4994 Y34.0333
G01 X26.4819 Y34.0097
G01 X26.4621 Y33.9879
G01 X26.4403 Y33.9681
G01 X26.4167 Y33.9506
G01 X26.3914 Y33.9354
G01 X26.3648 Y33.9228
G01 X26.3371 Y33.9129
G01 X26.3085 Y33.9058
G01 X26.2794 Y33.9014
G01 X26.2500 Y33.9000
G01 X26.2206 Y33.9014
G01 X26.1915 Y33.9058
G01 X26.1629 Y33.9129
G01 X26.1352 Y33.9228
G01 X26.1086 Y33.9354
G01 X26.0833 Y33.9506
G01 X26.0597 Y33.9681
G01 X26.0379 Y33.9879
G01 X26.0181 Y34.0097
G01 X26.0006 Y34.0333
G01 X25.9854 Y34.0586
G01 X25.9728 Y34.0852
G01 X25.9629 Y34.1129
G01 X25.9558 Y34.1415
G01 X25.9514 Y34.1706
G01 X25.9500 Y34.2000
G01 X25.9514 Y34.2294
G01 X25.9558 Y34.2585
G01 X25.9629 Y34.2871
G01 X25.9728 Y34.3148
G01 X25.9854 Y34.3414
G01 X26.0006 Y34.3667
G01 X26.0181 Y34.3903
G01 X26.0379 Y34.4121
G01 X26.0597 Y34.4319
G01 X26.0833 Y34.4494
G01 X26.1086 Y34.4646
G01 X26.1352 Y34.4772
G01 X26.1629 Y34.4871
G01 X26.1915 Y34.4942
G01 X26.2206 Y34.4986
G01 X26.2500 Y34.5000
G01 X26.2794 Y34.4986
G01 X26.3085 Y34.4942
G01 X26.3371 Y34.4871
G01 X26.3648 Y34.4772
G01 X26.3914 Y34.4646
G01 X26.4167 Y34.4494
G01 X26.4403 Y34.4319
G01 X26.4621 Y34.4121
G01 X26.4819 Y34.3903
G01 X26.4994 Y34.3667
G01 X26.5146 Y34.3414
G01 X26.5272 Y34.3148
G01 X26.5371 Y34.2871
G01 X26.5442 Y34.2585
G01 X26.5486 Y34.2294
G01 X26.5500 Y34.2000
G00 Z0.6000
G00 X26.5500 Y38.4000
G01 F60.00
G01 Z-2.4000
G01 F120.00
G01 X26.5486 Y38.3706
G01 X26.5442 Y38.3415
G01 X26.5371 Y38.3129
G01 X26.5272 Y38.2852
G01 X26.5146 Y38.2586
G01 X26.4994 Y38.2333
G01 X26.4819 Y38.2097
G01 X26.4621 Y38.1879
G01 X26.4403 Y38.1681
G01 X26.4167 Y38.1506
G01 X26.3914 Y38.1354
G01 X26.3648 Y38.1228
G01 X26.3371 Y38.1129
G01 X26.3085 Y38.1058
G01 X26.2794 Y38.1014
G01 X26.2500 Y38.1000
G01 X26.2206 Y38.1014
G01 X26.1915 Y38.1058
G01 X26.1629 Y38.1129
G01 X26.1352 Y38.1228
G01 X26.1086 Y38.1354
G01 X26.0833 Y38.1506
G01 X26.0597 Y38.1681
G01 X26.0379 Y38.1879
G01 X26.0181 Y38.2097
G01 X26.0006 Y38.2333
G01 X25.9854 Y38.2586
G01 X25.9728 Y38.2852
G01 X25.9629 Y38.3129
G01 X25.9558 Y38.3415
G01 X25.9514 Y38.3706
G01 X25.9500 Y38.4000
G01 X25.9514 Y38.4294
G01 X25.9558 Y38.4585
G01 X25.9629 Y38.4871
G01 X25.9728 Y38.5148
G01 X25.9854 Y38.5414
G01 X26.0006 Y38.5667
G01 X26.0181 Y38.5903
G01 X26.0379 Y38.6121
G01 X26.0597 Y38.6319
G01 X26.0833 Y38.6494
G01 X26.1086 Y38.6646
G01 X26.1352 Y38.6772
G01 X26.1629 Y38.6871
G01 X26.1915 Y38.6942
G01 X26.2206 Y38.6986
G01 X26.2500 Y38.7000
G01 X26.2794 Y38.6986
G01 X26.3085 Y38.6942
G01 X26.3371 Y38.6871
G01 X26.3648 Y38.6772
G01 X26.3914 Y38.6646
G01 X26.4167 Y38.6494
G01 X26.4403 Y38.6319
G01 X26.4621 Y38.6121
G01 X26.4819 Y38.5903
G01 X26.4994 Y38.5667
G01 X26.5146 Y38.5414
G01 X26.5272 Y38.5148
G01 X26.5371 Y38.4871
G01 X26.5442 Y38.4585
G01 X26.5486 Y38.4294
G01 X26.5500 Y38.4000
G00 Z0.6000
G00 X26.5500 Y42.6000
G01 F60.00
G01 Z-2.4000
G01 F120.00
G01 X26.5486 Y42.5706
G01 X26.5442 Y42.5415
G01 X26.5371 Y42.5129
G01 X26.5272 Y42.4852
G01 X26.5146 Y42.4586
G01 X26.4994 Y42.4333
G01 X26.4819 Y42.4097
G01 X26.4621 Y42.3879
G01 X26.4403 Y42.3681
G01 X26.4167 Y42.3506
G01 X26.3914 Y42.3354
G01 X26.3648 Y42.3228
G01 X26.3371 Y42.3129
G01 X26.3085 Y42.3058
G01 X26.2794 Y42.3014
G01 X26.2500 Y42.3000
G01 X26.2206 Y42.3014
G01 X26.1915 Y42.3058
G01 X26.1629 Y42.3129
G01 X26.1352 Y42.3228
G01 X26.1086 Y42.3354
G01 X26.0833 Y42.3506
G01 X26.0597 Y42.3681
G01 X26.0379 Y42.3879
G01 X26.0181 Y42.4097
G01 X26.0006 Y42.4333
G01 X25.9854 Y42.4586
G01 X25.9728 Y42.4852
G01 X25.9629 Y42.5129
G01 X25.9558 Y42.5415
G01 X25.9514 Y42.5706
G01 X25.9500 Y42.6000
G01 X25.9514 Y42.6294
G01 X25.9558 Y42.6585
G01 X25.9629 Y42.6871
G01 X25.9728 Y42.7148
G01 X25.9854 Y42.7414
G01 X26.0006 Y42.7667
G01 X26.0181 Y42.7903
G01 X26.0379 Y42.8121
G01 X26.0597 Y42.8319
G01 X26.0833 Y42.8494
G01 X26.1086 Y42.8646
G01 X26.1352 Y42.8772
G01 X26.1629 Y42.8871
G01 X26.1915 Y42.8942
G01 X26.2206 Y42.8986
G01 X26.2500 Y42.9000
G01 X26.2794 Y42.8986
G01 X26.3085 Y42.8942
G01 X26.3371 Y42.8871
G01 X26.3648 Y42.8772
G01 X26.3914 Y42.8646
G01 X26.4167 Y42.8494
G01 X26.4403 Y42.8319
G01 X26.4621 Y42.8121
G01 X26.4819 Y42.7903
G01 X26.4994 Y42.7667
G01 X26.5146 Y42.7414
G01 X26.5272 Y42.7148
G01 X26.5371 Y42.6871
G01 X26.5442 Y42.6585
G01 X26.5486 Y42.6294
G01 X26.5500 Y42.6000
G00 Z0.6000
G00 X26.5500 Y46.8000
G01 F60.00
G01 Z-2.4000
G01 F120.00
G01 X26.5486 Y46.7706
G01 X26.5442 Y46.7415
G01 X26.5371 Y46.7129
G01 X26.5272 Y46.6852
G01 X26.5146 Y46.6586
G01 X26.4994 Y46.6333
G01 X26.4819 Y46.6097
G01 X26.4621 Y46.5879
G01 X26.4403 Y46.5681
G01 X26.4167 Y46.5506
G01 X26.3914 Y46.5354
G01 X26.3648 Y46.5228
G01 X26.3371 Y46.5129
G01 X26.3085 Y46.5058
G01 X26.2794 Y46.5014
G01 X26.2500 Y46.5000
G01 X26.2206 Y46.5014
G01 X26.1915 Y46.5058
G01 X26.1629 Y46.5129
G01 X26.1352 Y46.5228
G01 X26.1086 Y46.5354
G01 X26.0833 Y46.5506
G01 X26.0597 Y46.5681
G01 X26.0379 Y46.5879
G01 X26.0181 Y46.6097
G01 X26.0006 Y46.6333
G01 X25.9854 Y46.6586
G01 X25.9728 Y46.6852
G01 X25.9629 Y46.7129
G01 X25.9558 Y46.7415
G01 X25.9514 Y46.7706
G01 X25.9500 Y46.8000
G01 X25.9514 Y46.8294
G01 X25.9558 Y46.8585
G01 X25.9629 Y46.8871
G01 X25.9728 Y46.9148
G01 X25.9854 Y46.9414
G01 X26.0006 Y46.9667
G01 X26.0181 Y46.9903
G01 X26.0379 Y47.0121
G01 X26.0597 Y47.0319
G01 X26.0833 Y47.0494
G01 X26.1086 Y47.0646
G01 X26.1352 Y47.0772
G01 X26.1629 Y47.0871
G01 X26.1915 Y47.0942
G01 X26.2206 Y47.0986
G01 X26.2500 Y47.1000
G01 X26.2794 Y47.0986
G01 X26.3085 Y47.0942
G01 X26.3371 Y47.0871
G01 X26.3648 Y47.0772
G01 X26.3914 Y47.0646
G01 X26.4167 Y47.0494
G01 X26.4403 Y47.0319
G01 X26.4621 Y47.0121
G01 X26.4819 Y46.9903
G01 X26.4994 Y46.9667
G01 X26.5146 Y46.9414
G01 X26.5272 Y46.9148
G01 X26.5371 Y46.8871
G01 X26.5442 Y46.8585
G01 X26.5486 Y46.8294
G01 X26.5500 Y46.8000
G00 Z0.6000
G00 X26.5500 Y51.0000
G01 F60.00
G01 Z-2.4000
G01 F120.00
G01 X26.5486 Y50.9706
G01 X26.5442 Y50.9415
G01 X26.5371 Y50.9129
G01 X26.5272 Y50.8852
G01 X26.5146 Y50.8586
G01 X26.4994 Y50.8333
G01 X26.4819 Y50.8097
G01 X26.4621 Y50.7879
G01 X26.4403 Y50.7681
G01 X26.4167 Y50.7506
G01 X26.3914 Y50.7354
G01 X26.3648 Y50.7228
G01 X26.3371 Y50.7129
G01 X26.3085 Y50.7058
G01 X26.2794 Y50.7014
G01 X26.2500 Y50.7000
G01 X26.2206 Y50.7014
G01 X26.1915 Y50.7058
G01 X26.1629 Y50.7129
G01 X26.1352 Y50.7228
G01 X26.1086 Y50.7354
G01 X26.0833 Y50.7506
G01 X26.0597 Y50.7681
G01 X26.0379 Y50.7879
G01 X26.0181 Y50.8097
G01 X26.0006 Y50.8333
G01 X25.9854 Y50.8586
G01 X25.9728 Y50.8852
G01 X25.9629 Y50.9129
G01 X25.9558 Y50.9415
G01 X25.9514 Y50.9706
G01 X25.9500 Y51.0000
G01 X25.9514 Y51.0294
G01 X25.9558 Y51.0585
G01 X25.9629 Y51.0871
G01 X25.9728 Y51.1148
G01 X25.9854 Y51.1414
G01 X26.0006 Y51.1667
G01 X26.0181 Y51.1903
G01 X26.0379 Y51.2121
G01 X26.0597 Y51.2319
G01 X26.0833 Y51.2494
G01 X26.1086 Y51.2646
G01 X26.1352 Y51.2772
G01 X26.1629 Y51.2871
G01 X26.1915 Y51.2942
G01 X26.2206 Y51.2986
G01 X26.2500 Y51.3000
G01 X26.2794 Y51.2986
G01 X26.3085 Y51.2942
G01 X26.3371 Y51.2871
G01 X26.3648 Y51.2772
G01 X26.3914 Y51.2646
G01 X26.4167 Y51.2494
G01 X26.4403 Y51.2319
G01 X26.4621 Y51.2121
G01 X26.4819 Y51.1903
G01 X26.4994 Y51.1667
G01 X26.5146 Y51.1414
G01 X26.5272 Y51.1148
G01 X26.5371 Y51.0871
G01 X26.5442 Y51.0585
G01 X26.5486 Y51.0294
G01 X26.5500 Y51.0000
G00 Z0.6000
G00 X21.0500 Y51.0000
G01 F60.00
G01 Z-2.4000
G01 F120.00
G01 X21.0486 Y50.9706
G01 X21.0442 Y50.9415
G01 X21.0371 Y50.9129
G01 X21.0272 Y50.8852
G01 X21.0146 Y50.8586
G01 X20.9994 Y50.8333
G01 X20.9819 Y50.8097
G01 X20.9621 Y50.7879
G01 X20.9403 Y50.7681
G01 X20.9167 Y50.7506
G01 X20.8914 Y50.7354
G01 X20.8648 Y50.7228
G01 X20.8371 Y50.7129
G01 X20.8085 Y50.7058
G01 X20.7794 Y50.7014
G01 X20.7500 Y50.7000
G01 X20.7206 Y50.7014
G01 X20.6915 Y50.7058
G01 X20.6629 Y50.7129
G01 X20.6352 Y50.7228
G01 X20.6086 Y50.7354
G01 X20.5833 Y50.7506
G01 X20.5597 Y50.7681
G01 X20.5379 Y50.7879
G01 X20.5181 Y50.8097
G01 X20.5006 Y50.8333
G01 X20.4854 Y50.8586
G01 X20.4728 Y50.8852
G01 X20.4629 Y50.9129
G01 X20.4558 Y50.9415
G01 X20.4514 Y50.9706
G01 X20.4500 Y51.0000
G01 X20.4514 Y51.0294
G01 X20.4558 Y51.0585
G01 X20.4629 Y51.0871
G01 X20.4728 Y51.1148
G01 X20.4854 Y51.1414
G01 X20.5006 Y51.1667
G01 X20.5181 Y51.1903
G01 X20.5379 Y51.2121
G01 X20.5597 Y51.2319
G01 X20.5833 Y51.2494
G01 X20.6086 Y51.2646
G01 X20.6352 Y51.2772
G01 X20.6629 Y51.2871
G01 X20.6915 Y51.2942
G01 X20.7206 Y51.2986
G01 X20.7500 Y51.3000
G01 X20.7794 Y51.2986
G01 X20.8085 Y51.2942
G01 X20.8371 Y51.2871
G01 X20.8648 Y51.2772
G01 X20.8914 Y51.2646
G01 X20.9167 Y51.2494
G01 X20.9403 Y51.2319
G01 X20.9621 Y51.2121
G01 X20.9819 Y51.1903
G01 X20.9994 Y51.1667
G01 X21.0146 Y51.1414
G01 X21.0272 Y51.1148
G01 X21.0371 Y51.0871
G01 X21.0442 Y51.0585
G01 X21.0486 Y51.0294
G01 X21.0500 Y51.0000
G00 Z0.6000
G00 X21.0500 Y46.8000
G01 F60.00
G01 Z-2.4000
G01 F120.00
G01 X21.0486 Y46.7706
G01 X21.0442 Y46.7415
G01 X21.0371 Y46.7129
G01 X21.0272 Y46.6852
G01 X21.0146 Y46.6586
G01 X20.9994 Y46.6333
G01 X20.9819 Y46.6097
G01 X20.9621 Y46.5879
G01 X20.9403 Y46.5681
G01 X20.9167 Y46.5506
G01 X20.8914 Y46.5354
G01 X20.8648 Y46.5228
G01 X20.8371 Y46.5129
G01 X20.8085 Y46.5058
G01 X20.7794 Y46.5014
G01 X20.7500 Y46.5000
G01 X20.7206 Y46.5014
G01 X20.6915 Y46.5058
G01 X20.6629 Y46.5129
G01 X20.6352 Y46.5228
G01 X20.6086 Y46.5354
G01 X20.5833 Y46.5506
G01 X20.5597 Y46.5681
G01 X20.5379 Y46.5879
G01 X20.5181 Y46.6097
G01 X20.5006 Y46.6333
G01 X20.4854 Y46.6586
G01 X20.4728 Y46.6852
G01 X20.4629 Y46.7129
G01 X20.4558 Y46.7415
G01 X20.4514 Y46.7706
G01 X20.4500 Y46.8000
G01 X20.4514 Y46.8294
G01 X20.4558 Y46.8585
G01 X20.4629 Y46.8871
G01 X20.4728 Y46.9148
G01 X20.4854 Y46.9414
G01 X20.5006 Y46.9667
G01 X20.5181 Y46.9903
G01 X20.5379 Y47.0121
G01 X20.5597 Y47.0319
G01 X20.5833 Y47.0494
G01 X20.6086 Y47.0646
G01 X20.6352 Y47.0772
G01 X20.6629 Y47.0871
G01 X20.6915 Y47.0942
G01 X20.7206 Y47.0986
G01 X20.7500 Y47.1000
G01 X20.7794 Y47.0986
G01 X20.8085 Y47.0942
G01 X20.8371 Y47.0871
G01 X20.8648 Y47.0772
G01 X20.8914 Y47.0646
G01 X20.9167 Y47.0494
G01 X20.9403 Y47.0319
G01 X20.9621 Y47.0121
G01 X20.9819 Y46.9903
G01 X20.9994 Y46.9667
G01 X21.0146 Y46.9414
G01 X21.0272 Y46.9148
G01 X21.0371 Y46.8871
G01 X21.0442 Y46.8585
G01 X21.0486 Y46.8294
G01 X21.0500 Y46.8000
G00 Z0.6000
G00 X21.0500 Y42.6000
G01 F60.00
G01 Z-2.4000
G01 F120.00
G01 X21.0486 Y42.5706
G01 X21.0442 Y42.5415
G01 X21.0371 Y42.5129
G01 X21.0272 Y42.4852
G01 X21.0146 Y42.4586
G01 X20.9994 Y42.4333
G01 X20.9819 Y42.4097
G01 X20.9621 Y42.3879
G01 X20.9403 Y42.3681
G01 X20.9167 Y42.3506
G01 X20.8914 Y42.3354
G01 X20.8648 Y42.3228
G01 X20.8371 Y42.3129
G01 X20.8085 Y42.3058
G01 X20.7794 Y42.3014
G01 X20.7500 Y42.3000
G01 X20.7206 Y42.3014
G01 X20.6915 Y42.3058
G01 X20.6629 Y42.3129
G01 X20.6352 Y42.3228
G01 X20.6086 Y42.3354
G01 X20.5833 Y42.3506
G01 X20.5597 Y42.3681
G01 X20.5379 Y42.3879
G01 X20.5181 Y42.4097
G01 X20.5006 Y42.4333
G01 X20.4854 Y42.4586
G01 X20.4728 Y42.4852
G01 X20.4629 Y42.5129
G01 X20.4558 Y42.5415
G01 X20.4514 Y42.5706
G01 X20.4500 Y42.6000
G01 X20.4514 Y42.6294
G01 X20.4558 Y42.6585
G01 X20.4629 Y42.6871
G01 X20.4728 Y42.7148
G01 X20.4854 Y42.7414
G01 X20.5006 Y42.7667
G01 X20.5181 Y42.7903
G01 X20.5379 Y42.8121
G01 X20.5597 Y42.8319
G01 X20.5833 Y42.8494
G01 X20.6086 Y42.8646
G01 X20.6352 Y42.8772
G01 X20.6629 Y42.8871
G01 X20.6915 Y42.8942
G01 X20.7206 Y42.8986
G01 X20.7500 Y42.9000
G01 X20.7794 Y42.8986
G01 X20.8085 Y42.8942
G01 X20.8371 Y42.8871
G01 X20.8648 Y42.8772
G01 X20.8914 Y42.8646
G01 X20.9167 Y42.8494
G01 X20.9403 Y42.8319
G01 X20.9621 Y42.8121
G01 X20.9819 Y42.7903
G01 X20.9994 Y42.7667
G01 X21.0146 Y42.7414
G01 X21.0272 Y42.7148
G01 X21.0371 Y42.6871
G01 X21.0442 Y42.6585
G01 X21.0486 Y42.6294
G01 X21.0500 Y42.6000
G00 Z0.6000
G00 X32.0000 Y39.8800
G01 F60.00
G01 Z-2.4000
G01 F120.00
G01 X32.0000 Y39.8800
G01 X32.0000 Y39.8800
G01 X32.0000 Y39.8800
G01 X32.0000 Y39.8800
G00 Z0.6000
G00 X39.8000 Y42.7000
G01 F60.00
G01 Z-2.4000
G01 F120.00
G01 X39.7986 Y42.6706
G01 X39.7942 Y42.6415
G01 X39.7871 Y42.6129
G01 X39.7772 Y42.5852
G01 X39.7646 Y42.5586
G01 X39.7494 Y42.5333
G01 X39.7319 Y42.5097
G01 X39.7121 Y42.4879
G01 X39.6903 Y42.4681
G01 X39.6667 Y42.4506
G01 X39.6414 Y42.4354
G01 X39.6148 Y42.4228
G01 X39.5871 Y42.4129
G01 X39.5585 Y42.4058
G01 X39.5294 Y42.4014
G01 X39.5000 Y42.4000
G01 X39.4706 Y42.4014
G01 X39.4415 Y42.4058
G01 X39.4129 Y42.4129
G01 X39.3852 Y42.4228
G01 X39.3586 Y42.4354
G01 X39.3333 Y42.4506
G01 X39.3097 Y42.4681
G01 X39.2879 Y42.4879
G01 X39.2681 Y42.5097
G01 X39.2506 Y42.5333
G01 X39.2354 Y42.5586
G01 X39.2228 Y42.5852
G01 X39.2129 Y42.6129
G01 X39.2058 Y42.6415
G01 X39.2014 Y42.6706
G01 X39.2000 Y42.7000
G01 X39.2014 Y42.7294
G01 X39.2058 Y42.7585
G01 X39.2129 Y42.7871
G01 X39.2228 Y42.8148
G01 X39.2354 Y42.8414
G01 X39.2506 Y42.8667
G01 X39.2681 Y42.8903
G01 X39.2879 Y42.9121
G01 X39.3097 Y42.9319
G01 X39.3333 Y42.9494
G01 X39.3586 Y42.9646
G01 X39.3852 Y42.9772
G01 X39.4129 Y42.9871
G01 X39.4415 Y42.9942
G01 X39.4706 Y42.9986
G01 X39.5000 Y43.0000
G01 X39.5294 Y42.9986
G01 X39.5585 Y42.9942
G01 X39.5871 Y42.9871
G01 X39.6148 Y42.9772
G01 X39.6414 Y42.9646
G01 X39.6667 Y42.9494
G01 X39.6903 Y42.9319
G01 X39.7121 Y42.9121
G01 X39.7319 Y42.8903
G01 X39.7494 Y42.8667
G01 X39.7646 Y42.8414
G01 X39.7772 Y42.8148
G01 X39.7871 Y42.7871
G01 X39.7942 Y42.7585
G01 X39.7986 Y42.7294
G01 X39.8000 Y42.7000
G00 Z0.6000
G00 X42.2500 Y41.0000
G01 F60.00
G01 Z-2.4000
G01 F120.00
G01 X42.2488 Y40.9755
G01 X42.2452 Y40.9512
G01 X42.2392 Y40.9274
G01 X42.2310 Y40.9043
G01 X42.2205 Y40.8822
G01 X42.2079 Y40.8611
G01 X42.1933 Y40.8414
G01 X42.1768 Y40.8232
G01 X42.1586 Y40.8067
G01 X42.1389 Y40.7921
G01 X42.1178 Y40.7795
G01 X42.0957 Y40.7690
G01 X42.0726 Y40.7608
G01 X42.0488 Y40.7548
G01 X42.0245 Y40.7512
G01 X42.0000 Y40.7500
G01 X41.9755 Y40.7512
G01 X41.9512 Y40.7548
G01 X41.9274 Y40.7608
G01 X41.9043 Y40.7690
G01 X41.8822 Y40.7795
G01 X41.8611 Y40.7921
G01 X41.8414 Y40.8067
G01 X41.8232 Y40.8232
G01 X41.8067 Y40.8414
G01 X41.7921 Y40.8611
G01 X41.7795 Y40.8822
G01 X41.7690 Y40.9043
G01 X41.7608 Y40.9274
G01 X41.7548 Y40.9512
G01 X41.7512 Y40.9755
G01 X41.7500 Y41.0000
G01 X41.7512 Y41.0245
G01 X41.7548 Y41.0488
G01 X41.7608 Y41.0726
G01 X41.7690 Y41.0957
G01 X41.7795 Y41.1178
G01 X41.7921 Y41.1389
G01 X41.8067 Y41.1586
G01 X41.8232 Y41.1768
G01 X41.8414 Y41.1933
G01 X41.8611 Y41.2079
G01 X41.8822 Y41.2205
G01 X41.9043 Y41.2310
G01 X41.9274 Y41.2392
G01 X41.9512 Y41.2452
G01 X41.9755 Y41.2488
G01 X42.0000 Y41.2500
G01 X42.0245 Y41.2488
G01 X42.0488 Y41.2452
G01 X42.0726 Y41.2392
G01 X42.0957 Y41.2310
G01 X42.1178 Y41.2205
G01 X42.1389 Y41.2079
G01 X42.1586 Y41.1933
G01 X42.1768 Y41.1768
G01 X42.1933 Y41.1586
G01 X42.2079 Y41.1389
G01 X42.2205 Y41.1178
G01 X42.2310 Y41.0957
G01 X42.2392 Y41.0726
G01 X42.2452 Y41.0488
G01 X42.2488 Y41.0245
G01 X42.2500 Y41.0000
G00 Z0.6000
G00 X44.8000 Y42.7000
G01 F60.00
G01 Z-2.4000
G01 F120.00
G01 X44.7986 Y42.6706
G01 X44.7942 Y42.6415
G01 X44.7871 Y42.6129
G01 X44.7772 Y42.5852
G01 X44.7646 Y42.5586
G01 X44.7494 Y42.5333
G01 X44.7319 Y42.5097
G01 X44.7121 Y42.4879
G01 X44.6903 Y42.4681
G01 X44.6667 Y42.4506
G01 X44.6414 Y42.4354
G01 X44.6148 Y42.4228
G01 X44.5871 Y42.4129
G01 X44.5585 Y42.4058
G01 X44.5294 Y42.4014
G01 X44.5000 Y42.4000
G01 X44.4706 Y42.4014
G01 X44.4415 Y42.4058
G01 X44.4129 Y42.4129
G01 X44.3852 Y42.4228
G01 X44.3586 Y42.4354
G01 X44.3333 Y42.4506
G01 X44.3097 Y42.4681
G01 X44.2879 Y42.4879
G01 X44.2681 Y42.5097
G01 X44.2506 Y42.5333
G01 X44.2354 Y42.5586
G01 X44.2228 Y42.5852
G01 X44.2129 Y42.6129
G01 X44.2058 Y42.6415
G01 X44.2014 Y42.6706
G01 X44.2000 Y42.7000
G01 X44.2014 Y42.7294
G01 X44.2058 Y42.7585
G01 X44.2129 Y42.7871
G01 X44.2228 Y42.8148
G01 X44.2354 Y42.8414
G01 X44.2506 Y42.8667
G01 X44.2681 Y42.8903
G01 X44.2879 Y42.9121
G01 X44.3097 Y42.9319
G01 X44.3333 Y42.9494
G01 X44.3586 Y42.9646
G01 X44.3852 Y42.9772
G01 X44.4129 Y42.9871
G01 X44.4415 Y42.9942
G01 X44.4706 Y42.9986
G01 X44.5000 Y43.0000
G01 X44.5294 Y42.9986
G01 X44.5585 Y42.9942
G01 X44.5871 Y42.9871
G01 X44.6148 Y42.9772
G01 X44.6414 Y42.9646
G01 X44.6667 Y42.9494
G01 X44.6903 Y42.9319
G01 X44.7121 Y42.9121
G01 X44.7319 Y42.8903
G01 X44.7494 Y42.8667
G01 X44.7646 Y42.8414
G01 X44.7772 Y42.8148
G01 X44.7871 Y42.7871
G01 X44.7942 Y42.7585
G01 X44.7986 Y42.7294
G01 X44.8000 Y42.7000
G00 Z0.6000
G00 X42.2500 Y46.0800
G01 F60.00
G01 Z-2.4000
G01 F120.00
G01 X42.2488 Y46.0555
G01 X42.2452 Y46.0312
G01 X42.2392 Y46.0074
G01 X42.2310 Y45.9843
G01 X42.2205 Y45.9622
G01 X42.2079 Y45.9411
G01 X42.1933 Y45.9214
G01 X42.1768 Y45.9032
G01 X42.1586 Y45.8867
G01 X42.1389 Y45.8721
G01 X42.1178 Y45.8595
G01 X42.0957 Y45.8490
G01 X42.0726 Y45.8408
G01 X42.0488 Y45.8348
G01 X42.0245 Y45.8312
G01 X42.0000 Y45.8300
G01 X41.9755 Y45.8312
G01 X41.9512 Y45.8348
G01 X41.9274 Y45.8408
G01 X41.9043 Y45.8490
G01 X41.8822 Y45.8595
G01 X41.8611 Y45.8721
G01 X41.8414 Y45.8867
G01 X41.8232 Y45.9032
G01 X41.8067 Y45.9214
G01 X41.7921 Y45.9411
G01 X41.7795 Y45.9622
G01 X41.7690 Y45.9843
G01 X41.7608 Y46.0074
G01 X41.7548 Y46.0312
G01 X41.7512 Y46.0555
G01 X41.7500 Y46.0800
G01 X41.7512 Y46.1045
G01 X41.7548 Y46.1288
G01 X41.7608 Y46.1526
G01 X41.7690 Y46.1757
G01 X41.7795 Y46.1978
G01 X41.7921 Y46.2189
G01 X41.8067 Y46.2386
G01 X41.8232 Y46.2568
G01 X41.8414 Y46.2733
G01 X41.8611 Y46.2879
G01 X41.8822 Y46.3005
G01 X41.9043 Y46.3110
G01 X41.9274 Y46.3192
G01 X41.9512 Y46.3252
G01 X41.9755 Y46.3288
G01 X42.0000 Y46.3300
G01 X42.0245 Y46.3288
G01 X42.0488 Y46.3252
G01 X42.0726 Y46.3192
G01 X42.0957 Y46.3110
G01 X42.1178 Y46.3005
G01 X42.1389 Y46.2879
G01 X42.1586 Y46.2733
G01 X42.1768 Y46.2568
G01 X42.1933 Y46.2386
G01 X42.2079 Y46.2189
G01 X42.2205 Y46.1978
G01 X42.2310 Y46.1757
G01 X42.2392 Y46.1526
G01 X42.2452 Y46.1288
G01 X42.2488 Y46.1045
G01 X42.2500 Y46.0800
G00 Z0.6000
G00 X39.8000 Y47.7000
G01 F60.00
G01 Z-2.4000
G01 F120.00
G01 X39.7986 Y47.6706
G01 X39.7942 Y47.6415
G01 X39.7871 Y47.6129
G01 X39.7772 Y47.5852
G01 X39.7646 Y47.5586
G01 X39.7494 Y47.5333
G01 X39.7319 Y47.5097
G01 X39.7121 Y47.4879
G01 X39.6903 Y47.4681
G01 X39.6667 Y47.4506
G01 X39.6414 Y47.4354
G01 X39.6148 Y47.4228
G01 X39.5871 Y47.4129
G01 X39.5585 Y47.4058
G01 X39.5294 Y47.4014
G01 X39.5000 Y47.4000
G01 X39.4706 Y47.4014
G01 X39.4415 Y47.4058
G01 X39.4129 Y47.4129
G01 X39.3852 Y47.4228
G01 X39.3586 Y47.4354
G01 X39.3333 Y47.4506
G01 X39.3097 Y47.4681
G01 X39.2879 Y47.4879
G01 X39.2681 Y47.5097
G01 X39.2506 Y47.5333
G01 X39.2354 Y47.5586
G01 X39.2228 Y47.5852
G01 X39.2129 Y47.6129
G01 X39.2058 Y47.6415
G01 X39.2014 Y47.6706
G01 X39.2000 Y47.7000
G01 X39.2014 Y47.7294
G01 X39.2058 Y47.7585
G01 X39.2129 Y47.7871
G01 X39.2228 Y47.8148
G01 X39.2354 Y47.8414
G01 X39.2506 Y47.8667
G01 X39.2681 Y47.8903
G01 X39.2879 Y47.9121
G01 X39.3097 Y47.9319
G01 X39.3333 Y47.9494
G01 X39.3586 Y47.9646
G01 X39.3852 Y47.9772
G01 X39.4129 Y47.9871
G01 X39.4415 Y47.9942
G01 X39.4706 Y47.9986
G01 X39.5000 Y48.0000
G01 X39.5294 Y47.9986
G01 X39.5585 Y47.9942
G01 X39.5871 Y47.9871
G01 X39.6148 Y47.9772
G01 X39.6414 Y47.9646
G01 X39.6667 Y47.9494
G01 X39.6903 Y47.9319
G01 X39.7121 Y47.9121
G01 X39.7319 Y47.8903
G01 X39.7494 Y47.8667
G01 X39.7646 Y47.8414
G01 X39.7772 Y47.8148
G01 X39.7871 Y47.7871
G01 X39.7942 Y47.7585
G01 X39.7986 Y47.7294
G01 X39.8000 Y47.7000
G00 Z0.6000
G00 X42.2500 Y51.1600
G01 F60.00
G01 Z-2.4000
G01 F120.00
G01 X42.2488 Y51.1355
G01 X42.2452 Y51.1112
G01 X42.2392 Y51.0874
G01 X42.2310 Y51.0643
G01 X42.2205 Y51.0422
G01 X42.2079 Y51.0211
G01 X42.1933 Y51.0014
G01 X42.1768 Y50.9832
G01 X42.1586 Y50.9667
G01 X42.1389 Y50.9521
G01 X42.1178 Y50.9395
G01 X42.0957 Y50.9290
G01 X42.0726 Y50.9208
G01 X42.0488 Y50.9148
G01 X42.0245 Y50.9112
G01 X42.0000 Y50.9100
G01 X41.9755 Y50.9112
G01 X41.9512 Y50.9148
G01 X41.9274 Y50.9208
G01 X41.9043 Y50.9290
G01 X41.8822 Y50.9395
G01 X41.8611 Y50.9521
G01 X41.8414 Y50.9667
G01 X41.8232 Y50.9832
G01 X41.8067 Y51.0014
G01 X41.7921 Y51.0211
G01 X41.7795 Y51.0422
G01 X41.7690 Y51.0643
G01 X41.7608 Y51.0874
G01 X41.7548 Y51.1112
G01 X41.7512 Y51.1355
G01 X41.7500 Y51.1600
G01 X41.7512 Y51.1845
G01 X41.7548 Y51.2088
G01 X41.7608 Y51.2326
G01 X41.7690 Y51.2557
G01 X41.7795 Y51.2778
G01 X41.7921 Y51.2989
G01 X41.8067 Y51.3186
G01 X41.8232 Y51.3368
G01 X41.8414 Y51.3533
G01 X41.8611 Y51.3679
G01 X41.8822 Y51.3805
G01 X41.9043 Y51.3910
G01 X41.9274 Y51.3992
G01 X41.9512 Y51.4052
G01 X41.9755 Y51.4088
G01 X42.0000 Y51.4100
G01 X42.0245 Y51.4088
G01 X42.0488 Y51.4052
G01 X42.0726 Y51.3992
G01 X42.0957 Y51.3910
G01 X42.1178 Y51.3805
G01 X42.1389 Y51.3679
G01 X42.1586 Y51.3533
G01 X42.1768 Y51.3368
G01 X42.1933 Y51.3186
G01 X42.2079 Y51.2989
G01 X42.2205 Y51.2778
G01 X42.2310 Y51.2557
G01 X42.2392 Y51.2326
G01 X42.2452 Y51.2088
G01 X42.2488 Y51.1845
G01 X42.2500 Y51.1600
G00 Z0.6000
G00 X39.8000 Y52.8000
G01 F60.00
G01 Z-2.4000
G01 F120.00
G01 X39.7986 Y52.7706
G01 X39.7942 Y52.7415
G01 X39.7871 Y52.7129
G01 X39.7772 Y52.6852
G01 X39.7646 Y52.6586
G01 X39.7494 Y52.6333
G01 X39.7319 Y52.6097
G01 X39.7121 Y52.5879
G01 X39.6903 Y52.5681
G01 X39.6667 Y52.5506
G01 X39.6414 Y52.5354
G01 X39.6148 Y52.5228
G01 X39.5871 Y52.5129
G01 X39.5585 Y52.5058
G01 X39.5294 Y52.5014
G01 X39.5000 Y52.5000
G01 X39.4706 Y52.5014
G01 X39.4415 Y52.5058
G01 X39.4129 Y52.5129
G01 X39.3852 Y52.5228
G01 X39.3586 Y52.5354
G01 X39.3333 Y52.5506
G01 X39.3097 Y52.5681
G01 X39.2879 Y52.5879
G01 X39.2681 Y52.6097
G01 X39.2506 Y52.6333
G01 X39.2354 Y52.6586
G01 X39.2228 Y52.6852
G01 X39.2129 Y52.7129
G01 X39.2058 Y52.7415
G01 X39.2014 Y52.7706
G01 X39.2000 Y52.8000
G01 X39.2014 Y52.8294
G01 X39.2058 Y52.8585
G01 X39.2129 Y52.8871
G01 X39.2228 Y52.9148
G01 X39.2354 Y52.9414
G01 X39.2506 Y52.9667
G01 X39.2681 Y52.9903
G01 X39.2879 Y53.0121
G01 X39.3097 Y53.0319
G01 X39.3333 Y53.0494
G01 X39.3586 Y53.0646
G01 X39.3852 Y53.0772
G01 X39.4129 Y53.0871
G01 X39.4415 Y53.0942
G01 X39.4706 Y53.0986
G01 X39.5000 Y53.1000
G01 X39.5294 Y53.0986
G01 X39.5585 Y53.0942
G01 X39.5871 Y53.0871
G01 X39.6148 Y53.0772
G01 X39.6414 Y53.0646
G01 X39.6667 Y53.0494
G01 X39.6903 Y53.0319
G01 X39.7121 Y53.0121
G01 X39.7319 Y52.9903
G01 X39.7494 Y52.9667
G01 X39.7646 Y52.9414
G01 X39.7772 Y52.9148
G01 X39.7871 Y52.8871
G01 X39.7942 Y52.8585
G01 X39.7986 Y52.8294
G01 X39.8000 Y52.8000
G00 Z0.6000
G00 X44.8000 Y52.8000
G01 F60.00
G01 Z-2.4000
G01 F120.00
G01 X44.7986 Y52.7706
G01 X44.7942 Y52.7415
G01 X44.7871 Y52.7129
G01 X44.7772 Y52.6852
G01 X44.7646 Y52.6586
G01 X44.7494 Y52.6333
G01 X44.7319 Y52.6097
G01 X44.7121 Y52.5879
G01 X44.6903 Y52.5681
G01 X44.6667 Y52.5506
G01 X44.6414 Y52.5354
G01 X44.6148 Y52.5228
G01 X44.5871 Y52.5129
G01 X44.5585 Y52.5058
G01 X44.5294 Y52.5014
G01 X44.5000 Y52.5000
G01 X44.4706 Y52.5014
G01 X44.4415 Y52.5058
G01 X44.4129 Y52.5129
G01 X44.3852 Y52.5228
G01 X44.3586 Y52.5354
G01 X44.3333 Y52.5506
G01 X44.3097 Y52.5681
G01 X44.2879 Y52.5879
G01 X44.2681 Y52.6097
G01 X44.2506 Y52.6333
G01 X44.2354 Y52.6586
G01 X44.2228 Y52.6852
G01 X44.2129 Y52.7129
G01 X44.2058 Y52.7415
G01 X44.2014 Y52.7706
G01 X44.2000 Y52.8000
G01 X44.2014 Y52.8294
G01 X44.2058 Y52.8585
G01 X44.2129 Y52.8871
G01 X44.2228 Y52.9148
G01 X44.2354 Y52.9414
G01 X44.2506 Y52.9667
G01 X44.2681 Y52.9903
G01 X44.2879 Y53.0121
G01 X44.3097 Y53.0319
G01 X44.3333 Y53.0494
G01 X44.3586 Y53.0646
G01 X44.3852 Y53.0772
G01 X44.4129 Y53.0871
G01 X44.4415 Y53.0942
G01 X44.4706 Y53.0986
G01 X44.5000 Y53.1000
G01 X44.5294 Y53.0986
G01 X44.5585 Y53.0942
G01 X44.5871 Y53.0871
G01 X44.6148 Y53.0772
G01 X44.6414 Y53.0646
G01 X44.6667 Y53.0494
G01 X44.6903 Y53.0319
G01 X44.7121 Y53.0121
G01 X44.7319 Y52.9903
G01 X44.7494 Y52.9667
G01 X44.7646 Y52.9414
G01 X44.7772 Y52.9148
G01 X44.7871 Y52.8871
G01 X44.7942 Y52.8585
G01 X44.7986 Y52.8294
G01 X44.8000 Y52.8000
G00 Z0.6000
G00 X44.8000 Y47.7000
G01 F60.00
G01 Z-2.4000
G01 F120.00
G01 X44.7986 Y47.6706
G01 X44.7942 Y47.6415
G01 X44.7871 Y47.6129
G01 X44.7772 Y47.5852
G01 X44.7646 Y47.5586
G01 X44.7494 Y47.5333
G01 X44.7319 Y47.5097
G01 X44.7121 Y47.4879
G01 X44.6903 Y47.4681
G01 X44.6667 Y47.4506
G01 X44.6414 Y47.4354
G01 X44.6148 Y47.4228
G01 X44.5871 Y47.4129
G01 X44.5585 Y47.4058
G01 X44.5294 Y47.4014
G01 X44.5000 Y47.4000
G01 X44.4706 Y47.4014
G01 X44.4415 Y47.4058
G01 X44.4129 Y47.4129
G01 X44.3852 Y47.4228
G01 X44.3586 Y47.4354
G01 X44.3333 Y47.4506
G01 X44.3097 Y47.4681
G01 X44.2879 Y47.4879
G01 X44.2681 Y47.5097
G01 X44.2506 Y47.5333
G01 X44.2354 Y47.5586
G01 X44.2228 Y47.5852
G01 X44.2129 Y47.6129
G01 X44.2058 Y47.6415
G01 X44.2014 Y47.6706
G01 X44.2000 Y47.7000
G01 X44.2014 Y47.7294
G01 X44.2058 Y47.7585
G01 X44.2129 Y47.7871
G01 X44.2228 Y47.8148
G01 X44.2354 Y47.8414
G01 X44.2506 Y47.8667
G01 X44.2681 Y47.8903
G01 X44.2879 Y47.9121
G01 X44.3097 Y47.9319
G01 X44.3333 Y47.9494
G01 X44.3586 Y47.9646
G01 X44.3852 Y47.9772
G01 X44.4129 Y47.9871
G01 X44.4415 Y47.9942
G01 X44.4706 Y47.9986
G01 X44.5000 Y48.0000
G01 X44.5294 Y47.9986
G01 X44.5585 Y47.9942
G01 X44.5871 Y47.9871
G01 X44.6148 Y47.9772
G01 X44.6414 Y47.9646
G01 X44.6667 Y47.9494
G01 X44.6903 Y47.9319
G01 X44.7121 Y47.9121
G01 X44.7319 Y47.8903
G01 X44.7494 Y47.8667
G01 X44.7646 Y47.8414
G01 X44.7772 Y47.8148
G01 X44.7871 Y47.7871
G01 X44.7942 Y47.7585
G01 X44.7986 Y47.7294
G01 X44.8000 Y47.7000
G00 Z0.6000
G00 X32.0000 Y55.1200
G01 F60.00
G01 Z-2.4000
G01 F120.00
G01 X32.0000 Y55.1200
G01 X32.0000 Y55.1200
G01 X32.0000 Y55.1200
G01 X32.0000 Y55.1200
G00 Z0.6000
G00 X29.0900 Y56.5000
G01 F60.00
G01 Z-2.4000
G01 F120.00
G01 X29.0890 Y56.4902
G01 X29.0862 Y56.4809
G01 X29.0816 Y56.4722
G01 X29.0754 Y56.4646
G01 X29.0678 Y56.4584
G01 X29.0591 Y56.4538
G01 X29.0498 Y56.4510
G01 X29.0400 Y56.4500
G01 X29.0302 Y56.4510
G01 X29.0209 Y56.4538
G01 X29.0122 Y56.4584
G01 X29.0046 Y56.4646
G01 X28.9984 Y56.4722
G01 X28.9938 Y56.4809
G01 X28.9910 Y56.4902
G01 X28.9900 Y56.5000
G01 X28.9910 Y56.5098
G01 X28.9938 Y56.5191
G01 X28.9984 Y56.5278
G01 X29.0046 Y56.5354
G01 X29.0122 Y56.5416
G01 X29.0209 Y56.5462
G01 X29.0302 Y56.5490
G01 X29.0400 Y56.5500
G01 X29.0498 Y56.5490
G01 X29.0591 Y56.5462
G01 X29.0678 Y56.5416
G01 X29.0754 Y56.5354
G01 X29.0816 Y56.5278
G01 X29.0862 Y56.5191
G01 X29.0890 Y56.5098
G01 X29.0900 Y56.5000
G00 Z0.6000
G00 X26.5500 Y56.5000
G01 F60.00
G01 Z-2.4000
G01 F120.00
G01 X26.5490 Y56.4902
G01 X26.5462 Y56.4809
G01 X26.5416 Y56.4722
G01 X26.5354 Y56.4646
G01 X26.5278 Y56.4584
G01 X26.5191 Y56.4538
G01 X26.5098 Y56.4510
G01 X26.5000 Y56.4500
G01 X26.4902 Y56.4510
G01 X26.4809 Y56.4538
G01 X26.4722 Y56.4584
G01 X26.4646 Y56.4646
G01 X26.4584 Y56.4722
G01 X26.4538 Y56.4809
G01 X26.4510 Y56.4902
G01 X26.4500 Y56.5000
G01 X26.4510 Y56.5098
G01 X26.4538 Y56.5191
G01 X26.4584 Y56.5278
G01 X26.4646 Y56.5354
G01 X26.4722 Y56.5416
G01 X26.4809 Y56.5462
G01 X26.4902 Y56.5490
G01 X26.5000 Y56.5500
G01 X26.5098 Y56.5490
G01 X26.5191 Y56.5462
G01 X26.5278 Y56.5416
G01 X26.5354 Y56.5354
G01 X26.5416 Y56.5278
G01 X26.5462 Y56.5191
G01 X26.5490 Y56.5098
G01 X26.5500 Y56.5000
G00 Z0.6000
G00 X23.5500 Y56.5000
G01 F60.00
G01 Z-2.4000
G01 F120.00
G01 X23.5490 Y56.4902
G01 X23.5462 Y56.4809
G01 X23.5416 Y56.4722
G01 X23.5354 Y56.4646
G01 X23.5278 Y56.4584
G01 X23.5191 Y56.4538
G01 X23.5098 Y56.4510
G01 X23.5000 Y56.4500
G01 X23.4902 Y56.4510
G01 X23.4809 Y56.4538
G01 X23.4722 Y56.4584
G01 X23.4646 Y56.4646
G01 X23.4584 Y56.4722
G01 X23.4538 Y56.4809
G01 X23.4510 Y56.4902
G01 X23.4500 Y56.5000
G01 X23.4510 Y56.5098
G01 X23.4538 Y56.5191
G01 X23.4584 Y56.5278
G01 X23.4646 Y56.5354
G01 X23.4722 Y56.5416
G01 X23.4809 Y56.5462
G01 X23.4902 Y56.5490
G01 X23.5000 Y56.5500
G01 X23.5098 Y56.5490
G01 X23.5191 Y56.5462
G01 X23.5278 Y56.5416
G01 X23.5354 Y56.5354
G01 X23.5416 Y56.5278
G01 X23.5462 Y56.5191
G01 X23.5490 Y56.5098
G01 X23.5500 Y56.5000
G00 Z0.6000
G00 X21.0100 Y56.5000
G01 F60.00
G01 Z-2.4000
G01 F120.00
G01 X21.0090 Y56.4902
G01 X21.0062 Y56.4809
G01 X21.0016 Y56.4722
G01 X20.9954 Y56.4646
G01 X20.9878 Y56.4584
G01 X20.9791 Y56.4538
G01 X20.9698 Y56.4510
G01 X20.9600 Y56.4500
G01 X20.9502 Y56.4510
G01 X20.9409 Y56.4538
G01 X20.9322 Y56.4584
G01 X20.9246 Y56.4646
G01 X20.9184 Y56.4722
G01 X20.9138 Y56.4809
G01 X20.9110 Y56.4902
G01 X20.9100 Y56.5000
G01 X20.9110 Y56.5098
G01 X20.9138 Y56.5191
G01 X20.9184 Y56.5278
G01 X20.9246 Y56.5354
G01 X20.9322 Y56.5416
G01 X20.9409 Y56.5462
G01 X20.9502 Y56.5490
G01 X20.9600 Y56.5500
G01 X20.9698 Y56.5490
G01 X20.9791 Y56.5462
G01 X20.9878 Y56.5416
G01 X20.9954 Y56.5354
G01 X21.0016 Y56.5278
G01 X21.0062 Y56.5191
G01 X21.0090 Y56.5098
G01 X21.0100 Y56.5000
G00 Z0.6000
G00 X17.8200 Y56.5000
G01 F60.00
G01 Z-2.4000
G01 F120.00
G01 X17.8190 Y56.4902
G01 X17.8162 Y56.4809
G01 X17.8116 Y56.4722
G01 X17.8054 Y56.4646
G01 X17.7978 Y56.4584
G01 X17.7891 Y56.4538
G01 X17.7798 Y56.4510
G01 X17.7700 Y56.4500
G01 X17.7602 Y56.4510
G01 X17.7509 Y56.4538
G01 X17.7422 Y56.4584
G01 X17.7346 Y56.4646
G01 X17.7284 Y56.4722
G01 X17.7238 Y56.4809
G01 X17.7210 Y56.4902
G01 X17.7200 Y56.5000
G01 X17.7210 Y56.5098
G01 X17.7238 Y56.5191
G01 X17.7284 Y56.5278
G01 X17.7346 Y56.5354
G01 X17.7422 Y56.5416
G01 X17.7509 Y56.5462
G01 X17.7602 Y56.5490
G01 X17.7700 Y56.5500
G01 X17.7798 Y56.5490
G01 X17.7891 Y56.5462
G01 X17.7978 Y56.5416
G01 X17.8054 Y56.5354
G01 X17.8116 Y56.5278
G01 X17.8162 Y56.5191
G01 X17.8190 Y56.5098
G01 X17.8200 Y56.5000
G00 Z0.6000
G00 X15.2800 Y56.5000
G01 F60.00
G01 Z-2.4000
G01 F120.00
G01 X15.2790 Y56.4902
G01 X15.2762 Y56.4809
G01 X15.2716 Y56.4722
G01 X15.2654 Y56.4646
G01 X15.2578 Y56.4584
G01 X15.2491 Y56.4538
G01 X15.2398 Y56.4510
G01 X15.2300 Y56.4500
G01 X15.2202 Y56.4510
G01 X15.2109 Y56.4538
G01 X15.2022 Y56.4584
G01 X15.1946 Y56.4646
G01 X15.1884 Y56.4722
G01 X15.1838 Y56.4809
G01 X15.1810 Y56.4902
G01 X15.1800 Y56.5000
G01 X15.1810 Y56.5098
G01 X15.1838 Y56.5191
G01 X15.1884 Y56.5278
G01 X15.1946 Y56.5354
G01 X15.2022 Y56.5416
G01 X15.2109 Y56.5462
G01 X15.2202 Y56.5490
G01 X15.2300 Y56.5500
G01 X15.2398 Y56.5490
G01 X15.2491 Y56.5462
G01 X15.2578 Y56.5416
G01 X15.2654 Y56.5354
G01 X15.2716 Y56.5278
G01 X15.2762 Y56.5191
G01 X15.2790 Y56.5098
G01 X15.2800 Y56.5000
G00 Z0.6000
G00 X12.5000 Y56.5000
G01 F60.00
G01 Z-2.4000
G01 F120.00
G01 X12.5000 Y56.5000
G01 X12.5000 Y56.5000
G01 X12.5000 Y56.5000
G01 X12.5000 Y56.5000
G00 Z0.6000
G00 X12.5000 Y59.0400
G01 F60.00
G01 Z-2.4000
G01 F120.00
G01 X12.5000 Y59.0400
G01 X12.5000 Y59.0400
G01 X12.5000 Y59.0400
G01 X12.5000 Y59.0400
G00 Z0.6000
G00 X10.0000 Y62.0000
G01 F60.00
G01 Z-2.4000
G01 F120.00
G01 X10.0000 Y62.0000
G01 X10.0000 Y62.0000
G01 X10.0000 Y62.0000
G01 X10.0000 Y62.0000
G00 Z0.6000
G00 X11.9600 Y63.0000
G01 F60.00
G01 Z-2.4000
G01 F120.00
G01 X11.9600 Y63.0000
G01 X11.9600 Y63.0000
G01 X11.9600 Y63.0000
G01 X11.9600 Y63.0000
G00 Z0.6000
G00 X14.5000 Y63.0000
G01 F60.00
G01 Z-2.4000
G01 F120.00
G01 X14.5000 Y63.0000
G01 X14.5000 Y63.0000
G01 X14.5000 Y63.0000
G01 X14.5000 Y63.0000
G00 Z0.6000
G00 X17.0400 Y63.0000
G01 F60.00
G01 Z-2.4000
G01 F120.00
G01 X17.0400 Y63.0000
G01 X17.0400 Y63.0000
G01 X17.0400 Y63.0000
G01 X17.0400 Y63.0000
G00 Z0.6000
G00 X19.0050 Y60.5000
G01 F60.00
G01 Z-2.4000
G01 F120.00
G01 X19.0050 Y60.5000
G01 X19.0050 Y60.5000
G01 X19.0050 Y60.5000
G01 X19.0050 Y60.5000
G00 Z0.6000
G00 X21.5450 Y60.5000
G01 F60.00
G01 Z-2.4000
G01 F120.00
G01 X21.5450 Y60.5000
G01 X21.5450 Y60.5000
G01 X21.5450 Y60.5000
G01 X21.5450 Y60.5000
G00 Z0.6000
G00 X21.0000 Y64.0000
G01 F60.00
G01 Z-2.4000
G01 F120.00
G01 X21.0000 Y64.0000
G01 X21.0000 Y64.0000
G01 X21.0000 Y64.0000
G01 X21.0000 Y64.0000
G00 Z0.6000
G00 X23.5000 Y64.0000
G01 F60.00
G01 Z-2.4000
G01 F120.00
G01 X23.5000 Y64.0000
G01 X23.5000 Y64.0000
G01 X23.5000 Y64.0000
G01 X23.5000 Y64.0000
G00 Z0.6000
G00 X26.0000 Y64.0000
G01 F60.00
G01 Z-2.4000
G01 F120.00
G01 X26.0000 Y64.0000
G01 X26.0000 Y64.0000
G01 X26.0000 Y64.0000
G01 X26.0000 Y64.0000
G00 Z0.6000
G00 X26.4600 Y60.5000
G01 F60.00
G01 Z-2.4000
G01 F120.00
G01 X26.4600 Y60.5000
G01 X26.4600 Y60.5000
G01 X26.4600 Y60.5000
G01 X26.4600 Y60.5000
G00 Z0.6000
G00 X29.0000 Y60.5000
G01 F60.00
G01 Z-2.4000
G01 F120.00
G01 X29.0000 Y60.5000
G01 X29.0000 Y60.5000
G01 X29.0000 Y60.5000
G01 X29.0000 Y60.5000
G00 Z0.6000
G00 X26.0000 Y69.4000
G01 F60.00
G01 Z-2.4000
G01 F120.00
G01 X26.0000 Y69.4000
G01 X26.0000 Y69.4000
G01 X26.0000 Y69.4000
G01 X26.0000 Y69.4000
G00 Z0.6000
G00 X23.5000 Y69.4000
G01 F60.00
G01 Z-2.4000
G01 F120.00
G01 X23.5000 Y69.4000
G01 X23.5000 Y69.4000
G01 X23.5000 Y69.4000
G01 X23.5000 Y69.4000
G00 Z0.6000
G00 X21.0000 Y69.4000
G01 F60.00
G01 Z-2.4000
G01 F120.00
G01 X21.0000 Y69.4000
G01 X21.0000 Y69.4000
G01 X21.0000 Y69.4000
G01 X21.0000 Y69.4000
G00 Z0.6000
G00 X14.5750 Y69.0000
G01 F60.00
G01 Z-2.4000
G01 F120.00
G01 X14.5746 Y68.9926
G01 X14.5736 Y68.9854
G01 X14.5718 Y68.9782
G01 X14.5693 Y68.9713
G01 X14.5661 Y68.9646
G01 X14.5624 Y68.9583
G01 X14.5580 Y68.9524
G01 X14.5530 Y68.9470
G01 X14.5476 Y68.9420
G01 X14.5417 Y68.9376
G01 X14.5354 Y68.9339
G01 X14.5287 Y68.9307
G01 X14.5218 Y68.9282
G01 X14.5146 Y68.9264
G01 X14.5074 Y68.9254
G01 X14.5000 Y68.9250
G01 X14.4926 Y68.9254
G01 X14.4854 Y68.9264
G01 X14.4782 Y68.9282
G01 X14.4713 Y68.9307
G01 X14.4646 Y68.9339
G01 X14.4583 Y68.9376
G01 X14.4524 Y68.9420
G01 X14.4470 Y68.9470
G01 X14.4420 Y68.9524
G01 X14.4376 Y68.9583
G01 X14.4339 Y68.9646
G01 X14.4307 Y68.9713
G01 X14.4282 Y68.9782
G01 X14.4264 Y68.9854
G01 X14.4254 Y68.9926
G01 X14.4250 Y69.0000
G01 X14.4254 Y69.0074
G01 X14.4264 Y69.0146
G01 X14.4282 Y69.0218
G01 X14.4307 Y69.0287
G01 X14.4339 Y69.0354
G01 X14.4376 Y69.0417
G01 X14.4420 Y69.0476
G01 X14.4470 Y69.0530
G01 X14.4524 Y69.0580
G01 X14.4583 Y69.0624
G01 X14.4646 Y69.0661
G01 X14.4713 Y69.0693
G01 X14.4782 Y69.0718
G01 X14.4854 Y69.0736
G01 X14.4926 Y69.0746
G01 X14.5000 Y69.0750
G01 X14.5074 Y69.0746
G01 X14.5146 Y69.0736
G01 X14.5218 Y69.0718
G01 X14.5287 Y69.0693
G01 X14.5354 Y69.0661
G01 X14.5417 Y69.0624
G01 X14.5476 Y69.0580
G01 X14.5530 Y69.0530
G01 X14.5580 Y69.0476
G01 X14.5624 Y69.0417
G01 X14.5661 Y69.0354
G01 X14.5693 Y69.0287
G01 X14.5718 Y69.0218
G01 X14.5736 Y69.0146
G01 X14.5746 Y69.0074
G01 X14.5750 Y69.0000
G00 Z0.6000
G00 X12.0750 Y69.0000
G01 F60.00
G01 Z-2.4000
G01 F120.00
G01 X12.0746 Y68.9926
G01 X12.0736 Y68.9854
G01 X12.0718 Y68.9782
G01 X12.0693 Y68.9713
G01 X12.0661 Y68.9646
G01 X12.0624 Y68.9583
G01 X12.0580 Y68.9524
G01 X12.0530 Y68.9470
G01 X12.0476 Y68.9420
G01 X12.0417 Y68.9376
G01 X12.0354 Y68.9339
G01 X12.0287 Y68.9307
G01 X12.0218 Y68.9282
G01 X12.0146 Y68.9264
G01 X12.0074 Y68.9254
G01 X12.0000 Y68.9250
G01 X11.9926 Y68.9254
G01 X11.9854 Y68.9264
G01 X11.9782 Y68.9282
G01 X11.9713 Y68.9307
G01 X11.9646 Y68.9339
G01 X11.9583 Y68.9376
G01 X11.9524 Y68.9420
G01 X11.9470 Y68.9470
G01 X11.9420 Y68.9524
G01 X11.9376 Y68.9583
G01 X11.9339 Y68.9646
G01 X11.9307 Y68.9713
G01 X11.9282 Y68.9782
G01 X11.9264 Y68.9854
G01 X11.9254 Y68.9926
G01 X11.9250 Y69.0000
G01 X11.9254 Y69.0074
G01 X11.9264 Y69.0146
G01 X11.9282 Y69.0218
G01 X11.9307 Y69.0287
G01 X11.9339 Y69.0354
G01 X11.9376 Y69.0417
G01 X11.9420 Y69.0476
G01 X11.9470 Y69.0530
G01 X11.9524 Y69.0580
G01 X11.9583 Y69.0624
G01 X11.9646 Y69.0661
G01 X11.9713 Y69.0693
G01 X11.9782 Y69.0718
G01 X11.9854 Y69.0736
G01 X11.9926 Y69.0746
G01 X12.0000 Y69.0750
G01 X12.0074 Y69.0746
G01 X12.0146 Y69.0736
G01 X12.0218 Y69.0718
G01 X12.0287 Y69.0693
G01 X12.0354 Y69.0661
G01 X12.0417 Y69.0624
G01 X12.0476 Y69.0580
G01 X12.0530 Y69.0530
G01 X12.0580 Y69.0476
G01 X12.0624 Y69.0417
G01 X12.0661 Y69.0354
G01 X12.0693 Y69.0287
G01 X12.0718 Y69.0218
G01 X12.0736 Y69.0146
G01 X12.0746 Y69.0074
G01 X12.0750 Y69.0000
G00 Z0.6000
G00 X9.5750 Y69.0000
G01 F60.00
G01 Z-2.4000
G01 F120.00
G01 X9.5746 Y68.9926
G01 X9.5736 Y68.9854
G01 X9.5718 Y68.9782
G01 X9.5693 Y68.9713
G01 X9.5661 Y68.9646
G01 X9.5624 Y68.9583
G01 X9.5580 Y68.9524
G01 X9.5530 Y68.9470
G01 X9.5476 Y68.9420
G01 X9.5417 Y68.9376
G01 X9.5354 Y68.9339
G01 X9.5287 Y68.9307
G01 X9.5218 Y68.9282
G01 X9.5146 Y68.9264
G01 X9.5074 Y68.9254
G01 X9.5000 Y68.9250
G01 X9.4926 Y68.9254
G01 X9.4854 Y68.9264
G01 X9.4782 Y68.9282
G01 X9.4713 Y68.9307
G01 X9.4646 Y68.9339
G01 X9.4583 Y68.9376
G01 X9.4524 Y68.9420
G01 X9.4470 Y68.9470
G01 X9.4420 Y68.9524
G01 X9.4376 Y68.9583
G01 X9.4339 Y68.9646
G01 X9.4307 Y68.9713
G01 X9.4282 Y68.9782
G01 X9.4264 Y68.9854
G01 X9.4254 Y68.9926
G01 X9.4250 Y69.0000
G01 X9.4254 Y69.0074
G01 X9.4264 Y69.0146
G01 X9.4282 Y69.0218
G01 X9.4307 Y69.0287
G01 X9.4339 Y69.0354
G01 X9.4376 Y69.0417
G01 X9.4420 Y69.0476
G01 X9.4470 Y69.0530
G01 X9.4524 Y69.0580
G01 X9.4583 Y69.0624
G01 X9.4646 Y69.0661
G01 X9.4713 Y69.0693
G01 X9.4782 Y69.0718
G01 X9.4854 Y69.0736
G01 X9.4926 Y69.0746
G01 X9.5000 Y69.0750
G01 X9.5074 Y69.0746
G01 X9.5146 Y69.0736
G01 X9.5218 Y69.0718
G01 X9.5287 Y69.0693
G01 X9.5354 Y69.0661
G01 X9.5417 Y69.0624
G01 X9.5476 Y69.0580
G01 X9.5530 Y69.0530
G01 X9.5580 Y69.0476
G01 X9.5624 Y69.0417
G01 X9.5661 Y69.0354
G01 X9.5693 Y69.0287
G01 X9.5718 Y69.0218
G01 X9.5736 Y69.0146
G01 X9.5746 Y69.0074
G01 X9.5750 Y69.0000
G00 Z0.6000
G00 X4.2000 Y69.0000
G01 F60.00
G01 Z-2.4000
G01 F120.00
G01 X4.1942 Y68.8824
G01 X4.1769 Y68.7659
G01 X4.1483 Y68.6517
G01 X4.1087 Y68.5408
G01 X4.0583 Y68.4343
G01 X3.9978 Y68.3333
G01 X3.9276 Y68.2387
G01 X3.8485 Y68.1515
G01 X3.7613 Y68.0724
G01 X3.6667 Y68.0022
G01 X3.5657 Y67.9417
G01 X3.4592 Y67.8913
G01 X3.3483 Y67.8517
G01 X3.2341 Y67.8231
G01 X3.1176 Y67.8058
G01 X3.0000 Y67.8000
G01 X2.8824 Y67.8058
G01 X2.7659 Y67.8231
G01 X2.6517 Y67.8517
G01 X2.5408 Y67.8913
G01 X2.4343 Y67.9417
G01 X2.3333 Y68.0022
G01 X2.2387 Y68.0724
G01 X2.1515 Y68.1515
G01 X2.0724 Y68.2387
G01 X2.0022 Y68.3333
G01 X1.9417 Y68.4343
G01 X1.8913 Y68.5408
G01 X1.8517 Y68.6517
G01 X1.8231 Y68.7659
G01 X1.8058 Y68.8824
G01 X1.8000 Y69.0000
G01 X1.8058 Y69.1176
G01 X1.8231 Y69.2341
G01 X1.8517 Y69.3483
G01 X1.8913 Y69.4592
G01 X1.9417 Y69.5657
G01 X2.0022 Y69.6667
G01 X2.0724 Y69.7613
G01 X2.1515 Y69.8485
G01 X2.2387 Y69.9276
G01 X2.3333 Y69.9978
G01 X2.4343 Y70.0583
G01 X2.5408 Y70.1087
G01 X2.6517 Y70.1483
G01 X2.7659 Y70.1769
G01 X2.8824 Y70.1942
G01 X3.0000 Y70.2000
G01 X3.1176 Y70.1942
G01 X3.2341 Y70.1769
G01 X3.3483 Y70.1483
G01 X3.4592 Y70.1087
G01 X3.5657 Y70.0583
G01 X3.6667 Y69.9978
G01 X3.7613 Y69.9276
G01 X3.8485 Y69.8485
G01 X3.9276 Y69.7613
G01 X3.9978 Y69.6667
G01 X4.0583 Y69.5657
G01 X4.1087 Y69.4592
G01 X4.1483 Y69.3483
G01 X4.1769 Y69.2341
G01 X4.1942 Y69.1176
G01 X4.2000 Y69.0000
G00 Z0.6000
G00 X7.4600 Y62.0000
G01 F60.00
G01 Z-2.4000
G01 F120.00
G01 X7.4600 Y62.0000
G01 X7.4600 Y62.0000
G01 X7.4600 Y62.0000
G01 X7.4600 Y62.0000
G00 Z0.6000
G00 X8.0000 Y58.0400
G01 F60.00
G01 Z-2.4000
G01 F120.00
G01 X8.0000 Y58.0400
G01 X8.0000 Y58.0400
G01 X8.0000 Y58.0400
G01 X8.0000 Y58.0400
G00 Z0.6000
G00 X8.0000 Y55.5000
G01 F60.00
G01 Z-2.4000
G01 F120.00
G01 X8.0000 Y55.5000
G01 X8.0000 Y55.5000
G01 X8.0000 Y55.5000
G01 X8.0000 Y55.5000
G00 Z0.6000
G00 X5.1000 Y57.5000
G01 F60.00
G01 Z-2.4000
G01 F120.00
G01 X5.0995 Y57.4902
G01 X5.0981 Y57.4805
G01 X5.0957 Y57.4710
G01 X5.0924 Y57.4617
G01 X5.0882 Y57.4529
G01 X5.0831 Y57.4444
G01 X5.0773 Y57.4366
G01 X5.0707 Y57.4293
G01 X5.0634 Y57.4227
G01 X5.0556 Y57.4169
G01 X5.0471 Y57.4118
G01 X5.0383 Y57.4076
G01 X5.0290 Y57.4043
G01 X5.0195 Y57.4019
G01 X5.0098 Y57.4005
G01 X5.0000 Y57.4000
G01 X4.9902 Y57.4005
G01 X4.9805 Y57.4019
G01 X4.9710 Y57.4043
G01 X4.9617 Y57.4076
G01 X4.9529 Y57.4118
G01 X4.9444 Y57.4169
G01 X4.9366 Y57.4227
G01 X4.9293 Y57.4293
G01 X4.9227 Y57.4366
G01 X4.9169 Y57.4444
G01 X4.9118 Y57.4529
G01 X4.9076 Y57.4617
G01 X4.9043 Y57.4710
G01 X4.9019 Y57.4805
G01 X4.9005 Y57.4902
G01 X4.9000 Y57.5000
G01 X4.9005 Y57.5098
G01 X4.9019 Y57.5195
G01 X4.9043 Y57.5290
G01 X4.9076 Y57.5383
G01 X4.9118 Y57.5471
G01 X4.9169 Y57.5556
G01 X4.9227 Y57.5634
G01 X4.9293 Y57.5707
G01 X4.9366 Y57.5773
G01 X4.9444 Y57.5831
G01 X4.9529 Y57.5882
G01 X4.9617 Y57.5924
G01 X4.9710 Y57.5957
G01 X4.9805 Y57.5981
G01 X4.9902 Y57.5995
G01 X5.0000 Y57.6000
G01 X5.0098 Y57.5995
G01 X5.0195 Y57.5981
G01 X5.0290 Y57.5957
G01 X5.0383 Y57.5924
G01 X5.0471 Y57.5882
G01 X5.0556 Y57.5831
G01 X5.0634 Y57.5773
G01 X5.0707 Y57.5707
G01 X5.0773 Y57.5634
G01 X5.0831 Y57.5556
G01 X5.0882 Y57.5471
G01 X5.0924 Y57.5383
G01 X5.0957 Y57.5290
G01 X5.0981 Y57.5195
G01 X5.0995 Y57.5098
G01 X5.1000 Y57.5000
G00 Z0.6000
G00 X2.5600 Y57.5000
G01 F60.00
G01 Z-2.4000
G01 F120.00
G01 X2.5595 Y57.4902
G01 X2.5581 Y57.4805
G01 X2.5557 Y57.4710
G01 X2.5524 Y57.4617
G01 X2.5482 Y57.4529
G01 X2.5431 Y57.4444
G01 X2.5373 Y57.4366
G01 X2.5307 Y57.4293
G01 X2.5234 Y57.4227
G01 X2.5156 Y57.4169
G01 X2.5071 Y57.4118
G01 X2.4983 Y57.4076
G01 X2.4890 Y57.4043
G01 X2.4795 Y57.4019
G01 X2.4698 Y57.4005
G01 X2.4600 Y57.4000
G01 X2.4502 Y57.4005
G01 X2.4405 Y57.4019
G01 X2.4310 Y57.4043
G01 X2.4217 Y57.4076
G01 X2.4129 Y57.4118
G01 X2.4044 Y57.4169
G01 X2.3966 Y57.4227
G01 X2.3893 Y57.4293
G01 X2.3827 Y57.4366
G01 X2.3769 Y57.4444
G01 X2.3718 Y57.4529
G01 X2.3676 Y57.4617
G01 X2.3643 Y57.4710
G01 X2.3619 Y57.4805
G01 X2.3605 Y57.4902
G01 X2.3600 Y57.5000
G01 X2.3605 Y57.5098
G01 X2.3619 Y57.5195
G01 X2.3643 Y57.5290
G01 X2.3676 Y57.5383
G01 X2.3718 Y57.5471
G01 X2.3769 Y57.5556
G01 X2.3827 Y57.5634
G01 X2.3893 Y57.5707
G01 X2.3966 Y57.5773
G01 X2.4044 Y57.5831
G01 X2.4129 Y57.5882
G01 X2.4217 Y57.5924
G01 X2.4310 Y57.5957
G01 X2.4405 Y57.5981
G01 X2.4502 Y57.5995
G01 X2.4600 Y57.6000
G01 X2.4698 Y57.5995
G01 X2.4795 Y57.5981
G01 X2.4890 Y57.5957
G01 X2.4983 Y57.5924
G01 X2.5071 Y57.5882
G01 X2.5156 Y57.5831
G01 X2.5234 Y57.5773
G01 X2.5307 Y57.5707
G01 X2.5373 Y57.5634
G01 X2.5431 Y57.5556
G01 X2.5482 Y57.5471
G01 X2.5524 Y57.5383
G01 X2.5557 Y57.5290
G01 X2.5581 Y57.5195
G01 X2.5595 Y57.5098
G01 X2.5600 Y57.5000
G00 Z0.6000
G00 X5.2500 Y50.8000
G01 F60.00
G01 Z-2.4000
G01 F120.00
G01 X5.2488 Y50.7755
G01 X5.2452 Y50.7512
G01 X5.2392 Y50.7274
G01 X5.2310 Y50.7043
G01 X5.2205 Y50.6822
G01 X5.2079 Y50.6611
G01 X5.1933 Y50.6414
G01 X5.1768 Y50.6232
G01 X5.1586 Y50.6067
G01 X5.1389 Y50.5921
G01 X5.1178 Y50.5795
G01 X5.0957 Y50.5690
G01 X5.0726 Y50.5608
G01 X5.0488 Y50.5548
G01 X5.0245 Y50.5512
G01 X5.0000 Y50.5500
G01 X4.9755 Y50.5512
G01 X4.9512 Y50.5548
G01 X4.9274 Y50.5608
G01 X4.9043 Y50.5690
G01 X4.8822 Y50.5795
G01 X4.8611 Y50.5921
G01 X4.8414 Y50.6067
G01 X4.8232 Y50.6232
G01 X4.8067 Y50.6414
G01 X4.7921 Y50.6611
G01 X4.7795 Y50.6822
G01 X4.7690 Y50.7043
G01 X4.7608 Y50.7274
G01 X4.7548 Y50.7512
G01 X4.7512 Y50.7755
G01 X4.7500 Y50.8000
G01 X4.7512 Y50.8245
G01 X4.7548 Y50.8488
G01 X4.7608 Y50.8726
G01 X4.7690 Y50.8957
G01 X4.7795 Y50.9178
G01 X4.7921 Y50.9389
G01 X4.8067 Y50.9586
G01 X4.8232 Y50.9768
G01 X4.8414 Y50.9933
G01 X4.8611 Y51.0079
G01 X4.8822 Y51.0205
G01 X4.9043 Y51.0310
G01 X4.9274 Y51.0392
G01 X4.9512 Y51.0452
G01 X4.9755 Y51.0488
G01 X5.0000 Y51.0500
G01 X5.0245 Y51.0488
G01 X5.0488 Y51.0452
G01 X5.0726 Y51.0392
G01 X5.0957 Y51.0310
G01 X5.1178 Y51.0205
G01 X5.1389 Y51.0079
G01 X5.1586 Y50.9933
G01 X5.1768 Y50.9768
G01 X5.1933 Y50.9586
G01 X5.2079 Y50.9389
G01 X5.2205 Y50.9178
G01 X5.2310 Y50.8957
G01 X5.2392 Y50.8726
G01 X5.2452 Y50.8488
G01 X5.2488 Y50.8245
G01 X5.2500 Y50.8000
G00 Z0.6000
G00 X2.8000 Y49.1000
G01 F60.00
G01 Z-2.4000
G01 F120.00
G01 X2.7986 Y49.0706
G01 X2.7942 Y49.0415
G01 X2.7871 Y49.0129
G01 X2.7772 Y48.9852
G01 X2.7646 Y48.9586
G01 X2.7494 Y48.9333
G01 X2.7319 Y48.9097
G01 X2.7121 Y48.8879
G01 X2.6903 Y48.8681
G01 X2.6667 Y48.8506
G01 X2.6414 Y48.8354
G01 X2.6148 Y48.8228
G01 X2.5871 Y48.8129
G01 X2.5585 Y48.8058
G01 X2.5294 Y48.8014
G01 X2.5000 Y48.8000
G01 X2.4706 Y48.8014
G01 X2.4415 Y48.8058
G01 X2.4129 Y48.8129
G01 X2.3852 Y48.8228
G01 X2.3586 Y48.8354
G01 X2.3333 Y48.8506
G01 X2.3097 Y48.8681
G01 X2.2879 Y48.8879
G01 X2.2681 Y48.9097
G01 X2.2506 Y48.9333
G01 X2.2354 Y48.9586
G01 X2.2228 Y48.9852
G01 X2.2129 Y49.0129
G01 X2.2058 Y49.0415
G01 X2.2014 Y49.0706
G01 X2.2000 Y49.1000
G01 X2.2014 Y49.1294
G01 X2.2058 Y49.1585
G01 X2.2129 Y49.1871
G01 X2.2228 Y49.2148
G01 X2.2354 Y49.2414
G01 X2.2506 Y49.2667
G01 X2.2681 Y49.2903
G01 X2.2879 Y49.3121
G01 X2.3097 Y49.3319
G01 X2.3333 Y49.3494
G01 X2.3586 Y49.3646
G01 X2.3852 Y49.3772
G01 X2.4129 Y49.3871
G01 X2.4415 Y49.3942
G01 X2.4706 Y49.3986
G01 X2.5000 Y49.4000
G01 X2.5294 Y49.3986
G01 X2.5585 Y49.3942
G01 X2.5871 Y49.3871
G01 X2.6148 Y49.3772
G01 X2.6414 Y49.3646
G01 X2.6667 Y49.3494
G01 X2.6903 Y49.3319
G01 X2.7121 Y49.3121
G01 X2.7319 Y49.2903
G01 X2.7494 Y49.2667
G01 X2.7646 Y49.2414
G01 X2.7772 Y49.2148
G01 X2.7871 Y49.1871
G01 X2.7942 Y49.1585
G01 X2.7986 Y49.1294
G01 X2.8000 Y49.1000
G00 Z0.6000
G00 X5.2500 Y45.7200
G01 F60.00
G01 Z-2.4000
G01 F120.00
G01 X5.2488 Y45.6955
G01 X5.2452 Y45.6712
G01 X5.2392 Y45.6474
G01 X5.2310 Y45.6243
G01 X5.2205 Y45.6022
G01 X5.2079 Y45.5811
G01 X5.1933 Y45.5614
G01 X5.1768 Y45.5432
G01 X5.1586 Y45.5267
G01 X5.1389 Y45.5121
G01 X5.1178 Y45.4995
G01 X5.0957 Y45.4890
G01 X5.0726 Y45.4808
G01 X5.0488 Y45.4748
G01 X5.0245 Y45.4712
G01 X5.0000 Y45.4700
G01 X4.9755 Y45.4712
G01 X4.9512 Y45.4748
G01 X4.9274 Y45.4808
G01 X4.9043 Y45.4890
G01 X4.8822 Y45.4995
G01 X4.8611 Y45.5121
G01 X4.8414 Y45.5267
G01 X4.8232 Y45.5432
G01 X4.8067 Y45.5614
G01 X4.7921 Y45.5811
G01 X4.7795 Y45.6022
G01 X4.7690 Y45.6243
G01 X4.7608 Y45.6474
G01 X4.7548 Y45.6712
G01 X4.7512 Y45.6955
G01 X4.7500 Y45.7200
G01 X4.7512 Y45.7445
G01 X4.7548 Y45.7688
G01 X4.7608 Y45.7926
G01 X4.7690 Y45.8157
G01 X4.7795 Y45.8378
G01 X4.7921 Y45.8589
G01 X4.8067 Y45.8786
G01 X4.8232 Y45.8968
G01 X4.8414 Y45.9133
G01 X4.8611 Y45.9279
G01 X4.8822 Y45.9405
G01 X4.9043 Y45.9510
G01 X4.9274 Y45.9592
G01 X4.9512 Y45.9652
G01 X4.9755 Y45.9688
G01 X5.0000 Y45.9700
G01 X5.0245 Y45.9688
G01 X5.0488 Y45.9652
G01 X5.0726 Y45.9592
G01 X5.0957 Y45.9510
G01 X5.1178 Y45.9405
G01 X5.1389 Y45.9279
G01 X5.1586 Y45.9133
G01 X5.1768 Y45.8968
G01 X5.1933 Y45.8786
G01 X5.2079 Y45.8589
G01 X5.2205 Y45.8378
G01 X5.2310 Y45.8157
G01 X5.2392 Y45.7926
G01 X5.2452 Y45.7688
G01 X5.2488 Y45.7445
G01 X5.2500 Y45.7200
G00 Z0.6000
G00 X2.8000 Y44.0000
G01 F60.00
G01 Z-2.4000
G01 F120.00
G01 X2.7986 Y43.9706
G01 X2.7942 Y43.9415
G01 X2.7871 Y43.9129
G01 X2.7772 Y43.8852
G01 X2.7646 Y43.8586
G01 X2.7494 Y43.8333
G01 X2.7319 Y43.8097
G01 X2.7121 Y43.7879
G01 X2.6903 Y43.7681
G01 X2.6667 Y43.7506
G01 X2.6414 Y43.7354
G01 X2.6148 Y43.7228
G01 X2.5871 Y43.7129
G01 X2.5585 Y43.7058
G01 X2.5294 Y43.7014
