(G-CODE GENERATED BY FLATCAM v8.994 - www.flatcam.org - Version Date: 2020/11/7)

(Name: SFX-BO-01-B_Cu.gbl_cutout_cnc)
(Type: G-code from Geometry)
(Units: MM)

(Created on Monday, 02 March 2026 at 14:20)

(This preprocessor is the default preprocessor used by FlatCAM.)
(It is made to work with MACH3 compatible motion controllers.)

(TOOL DIAMETER: 0.8 mm)
(Feedrate_XY: 120.0 mm/min)
(Feedrate_Z: 60.0 mm/min)
(Feedrate rapids 1500.0 mm/min)

(Z_Cut: -2.4 mm)
(DepthPerCut: 0.8 mm <=>3 passes)
(Z_Move: 0.6 mm)
(Z Start: None mm)
(Z End: 15.0 mm)
(X,Y End: None mm)
(Steps per circle: 64)
(Preprocessor Geometry: default)

(X range:   -0.3995 ...   47.3995  mm)
(Y range:   -0.3995 ...   72.3995  mm)

(Spindle Speed: 7500.0 RPM)
G21
G90
G94

G01 F120.00

M5
G00 Z15.0000
G00 X0.0000 Y0.0000
T1
M6    
(MSG, Change to Tool Dia = 0.8000)
M0
G00 Z15.0000

M03 S7500.0
G01 F120.00
G00 X46.9995 Y-0.3995
G01 F60.00
G01 Z-0.8000
G01 F120.00
G01 X0.0005 Y-0.3995
G01 X-0.0387 Y-0.3976
G01 X-0.0775 Y-0.3918
G01 X-0.1156 Y-0.3823
G01 X-0.1526 Y-0.3691
G01 X-0.1881 Y-0.3523
G01 X-0.2217 Y-0.3321
G01 X-0.2533 Y-0.3087
G01 X-0.2823 Y-0.2823
G01 X-0.3087 Y-0.2533
G01 X-0.3321 Y-0.2217
G01 X-0.3523 Y-0.1881
G01 X-0.3691 Y-0.1526
G01 X-0.3823 Y-0.1156
G01 X-0.3918 Y-0.0775
G01 X-0.3976 Y-0.0387
G01 X-0.3995 Y0.0005
G01 X-0.3995 Y71.9995
G01 X-0.3976 Y72.0387
G01 X-0.3918 Y72.0775
G01 X-0.3823 Y72.1156
G01 X-0.3691 Y72.1526
G01 X-0.3523 Y72.1881
G01 X-0.3321 Y72.2217
G01 X-0.3087 Y72.2533
G01 X-0.2823 Y72.2823
G01 X-0.2533 Y72.3087
G01 X-0.2217 Y72.3321
G01 X-0.1881 Y72.3523
G01 X-0.1526 Y72.3691
G01 X-0.1156 Y72.3823
G01 X-0.0775 Y72.3918
G01 X-0.0387 Y72.3976
G01 X0.0005 Y72.3995
G01 X46.9995 Y72.3995
G01 X47.0387 Y72.3976
G01 X47.0775 Y72.3918
G01 X47.1156 Y72.3823
G01 X47.1526 Y72.3691
G01 X47.1881 Y72.3523
G01 X47.2217 Y72.3321
G01 X47.2533 Y72.3087
G01 X47.2823 Y72.2823
G01 X47.3087 Y72.2533
G01 X47.3321 Y72.2217
G01 X47.3523 Y72.1881
G01 X47.3691 Y72.1526
G01 X47.3823 Y72.1156
G01 X47.3918 Y72.0775
G01 X47.3976 Y72.0387
G01 X47.3995 Y71.9995
G01 X47.3995 Y0.0005
G01 X47.3976 Y-0.0387
G01 X47.3918 Y-0.0775
G01 X47.3823 Y-0.1156
G01 X47.3691 Y-0.1526
G01 X47.3523 Y-0.1881
G01 X47.3321 Y-0.2217
G01 X47.3087 Y-0.2533
G01 X47.2823 Y-0.2823
G01 X47.2533 Y-0.3087
G01 X47.2217 Y-0.3321
G01 X47.1881 Y-0.3523
G01 X47.1526 Y-0.3691
G01 X47.1156 Y-0.3823
G01 X47.0775 Y-0.3918
G01 X47.0387 Y-0.3976
G01 X46.9995 Y-0.3995
G00 X46.9995 Y-0.3995
G01 F60.00
G01 Z-1.6000
G01 F120.00
G01 X47.0387 Y-0.3976
G01 X47.0775 Y-0.3918
G01 X47.1156 Y-0.3823
G01 X47.1526 Y-0.3691
G01 X47.1881 Y-0.3523
G01 X47.2217 Y-0.3321
G01 X47.2533 Y-0.3087
G01 X47.2823 Y-0.2823
G01 X47.3087 Y-0.2533
G01 X47.3321 Y-0.2217
G01 X47.3523 Y-0.1881
G01 X47.3691 Y-0.1526
G01 X47.3823 Y-0.1156
G01 X47.3918 Y-0.0775
G01 X47.3976 Y-0.0387
G01 X47.3995 Y0.0005
G01 X47.3995 Y71.9995
G01 X47.3976 Y72.0387
G01 X47.3918 Y72.0775
G01 X47.3823 Y72.1156
G01 X47.3691 Y72.1526
G01 X47.3523 Y72.1881
G01 X47.3321 Y72.2217
G01 X47.3087 Y72.2533
G01 X47.2823 Y72.2823
G01 X47.2533 Y72.3087
G01 X47.2217 Y72.3321
G01 X47.1881 Y72.3523
G01 X47.1526 Y72.3691
G01 X47.1156 Y72.3823
G01 X47.0775 Y72.3918
G01 X47.0387 Y72.3976
G01 X46.9995 Y72.3995
G01 X0.0005 Y72.3995
G01 X-0.0387 Y72.3976
G01 X-0.0775 Y72.3918
G01 X-0.1156 Y72.3823
G01 X-0.1526 Y72.3691
G01 X-0.1881 Y72.3523
G01 X-0.2217 Y72.3321
G01 X-0.2533 Y72.3087
G01 X-0.2823 Y72.2823
G01 X-0.3087 Y72.2533
G01 X-0.3321 Y72.2217
G01 X-0.3523 Y72.1881
G01 X-0.3691 Y72.1526
G01 X-0.3823 Y72.1156
G01 X-0.3918 Y72.0775
G01 X-0.3976 Y72.0387
G01 X-0.3995 Y71.9995
G01 X-0.3995 Y0.0005
G01 X-0.3976 Y-0.0387
G01 X-0.3918 Y-0.0775
G01 X-0.3823 Y-0.1156
G01 X-0.3691 Y-0.1526
G01 X-0.3523 Y-0.1881
G01 X-0.3321 Y-0.2217
G01 X-0.3087 Y-0.2533
G01 X-0.2823 Y-0.2823
G01 X-0.2533 Y-0.3087
G01 X-0.2217 Y-0.3321
G01 X-0.1881 Y-0.3523
G01 X-0.1526 Y-0.3691
G01 X-0.1156 Y-0.3823
G01 X-0.0775 Y-0.3918
G01 X-0.0387 Y-0.3976
G01 X0.0005 Y-0.3995
G01 X46.9995 Y-0.3995
G00 X46.9995 Y-0.3995
G01 F60.00
G01 Z-2.4000
G01 F120.00
G01 X0.0005 Y-0.3995
G01 X-0.0387 Y-0.3976
G01 X-0.0775 Y-0.3918
G01 X-0.1156 Y-0.3823
G01 X-0.1526 Y-0.3691
G01 X-0.1881 Y-0.3523
G01 X-0.2217 Y-0.3321
G01 X-0.2533 Y-0.3087
G01 X-0.2823 Y-0.2823
G01 X-0.3087 Y-0.2533
G01 X-0.3321 Y-0.2217
G01 X-0.3523 Y-0.1881
G01 X-0.3691 Y-0.1526
G01 X-0.3823 Y-0.1156
G01 X-0.3918 Y-0.0775
G01 X-0.3976 Y-0.0387
G01 X-0.3995 Y0.0005
G01 X-0.3995 Y71.9995
G01 X-0.3976 Y72.0387
G01 X-0.3918 Y72.0775
G01 X-0.3823 Y72.1156
G01 X-0.3691 Y72.1526
G01 X-0.3523 Y72.1881
G01 X-0.3321 Y72.2217
G01 X-0.3087 Y72.2533
G01 X-0.2823 Y72.2823
G01 X-0.2533 Y72.3087
G01 X-0.2217 Y72.3321
G01 X-0.1881 Y72.3523
G01 X-0.1526 Y72.3691
G01 X-0.1156 Y72.3823
G01 X-0.0775 Y72.3918
G01 X-0.0387 Y72.3976
G01 X0.0005 Y72.3995
G01 X46.9995 Y72.3995
G01 X47.0387 Y72.3976
G01 X47.0775 Y72.3918
G01 X47.1156 Y72.3823
G01 X47.1526 Y72.3691
G01 X47.1881 Y72.3523
G01 X47.2217 Y72.3321
G01 X47.2533 Y72.3087
G01 X47.2823 Y72.2823
G01 X47.3087 Y72.2533
G01 X47.3321 Y72.2217
G01 X47.3523 Y72.1881
G01 X47.3691 Y72.1526
G01 X47.3823 Y72.1156
G01 X47.3918 Y72.0775
G01 X47.3976 Y72.0387
G01 X47.3995 Y71.9995
G01 X47.3995 Y0.0005
G01 X47.3976 Y-0.0387
G01 X47.3918 Y-0.0775
G01 X47.3823 Y-0.1156
G01 X47.3691 Y-0.1526
G01 X47.3523 Y-0.1881
G01 X47.3321 Y-0.2217
G01 X47.3087 Y-0.2533
G01 X47.2823 Y-0.2823
G01 X47.2533 Y-0.3087
G01 X47.2217 Y-0.3321
G01 X47.1881 Y-0.3523
G01 X47.1526 Y-0.3691
G01 X47.1156 Y-0.3823
G01 X47.0775 Y-0.3918
G01 X47.0387 Y-0.3976
G01 X46.9995 Y-0.3995
G00 Z0.6000
M05
G00 Z0.6000
G00 Z15.00


